frontend/client/public/luts/creative/bw_contrast.cube
TITLE "Black & White High Contrast"
LUT_3D_SIZE 5
0.000000 0.000000 0.000000
0.000000 0.000000 0.000000
0.044350 0.044350 0.044350
0.141525 0.141525 0.141525
0.238700 0.238700 0.238700
0.040775 0.040775 0.040775
0.137950 0.137950 0.137950
0.235125 0.235125 0.235125
0.332300 0.332300 0.332300
0.429475 0.429475 0.429475
0.231550 0.231550 0.231550
0.328725 0.328725 0.328725
0.425900 0.425900 0.425900
0.523075 0.523075 0.523075
0.620250 0.620250 0.620250
0.422325 0.422325 0.422325
0.519500 0.519500 0.519500
0.616675 0.616675 0.616675
0.713850 0.713850 0.713850
0.811025 0.811025 0.811025
0.613100 0.613100 0.613100
0.710275 0.710275 0.710275
0.807450 0.807450 0.807450
0.904625 0.904625 0.904625
1.000000 1.000000 1.000000
0.000000 0.000000 0.000000
0.000000 0.000000 0.000000
0.081400 0.081400 0.081400
0.178575 0.178575 0.178575
0.275750 0.275750 0.275750
0.077825 0.077825 0.077825
0.175000 0.175000 0.175000
0.272175 0.272175 0.272175
0.369350 0.369350 0.369350
0.466525 0.466525 0.466525
0.268600 0.268600 0.268600
0.365775 0.365775 0.365775
0.462950 0.462950 0.462950
0.560125 0.560125 0.560125
0.657300 0.657300 0.657300
0.459375 0.459375 0.459375
0.556550 0.556550 0.556550
0.653725 0.653725 0.653725
0.750900 0.750900 0.750900
0.848075 0.848075 0.848075
0.650150 0.650150 0.650150
0.747325 0.747325 0.747325
0.844500 0.844500 0.844500
0.941675 0.941675 0.941675
1.000000 1.000000 1.000000
0.000000 0.000000 0.000000
0.021275 0.021275 0.021275
0.118450 0.118450 0.118450
0.215625 0.215625 0.215625
0.312800 0.312800 0.312800
0.114875 0.114875 0.114875
0.212050 0.212050 0.212050
0.309225 0.309225 0.309225
0.406400 0.406400 0.406400
0.503575 0.503575 0.503575
0.305650 0.305650 0.305650
0.402825 0.402825 0.402825
0.500000 0.500000 0.500000
0.597175 0.597175 0.597175
0.694350 0.694350 0.694350
0.496425 0.496425 0.496425
0.593600 0.593600 0.593600
0.690775 0.690775 0.690775
0.787950 0.787950 0.787950
0.885125 0.885125 0.885125
0.687200 0.687200 0.687200
0.784375 0.784375 0.784375
0.881550 0.881550 0.881550
0.978725 0.978725 0.978725
1.000000 1.000000 1.000000
0.000000 0.000000 0.000000
0.058325 0.058325 0.058325
0.155500 0.155500 0.155500
0.252675 0.252675 0.252675
0.349850 0.349850 0.349850
0.151925 0.151925 0.151925
0.249100 0.249100 0.249100
0.346275 0.346275 0.346275
0.443450 0.443450 0.443450
0.540625 0.540625 0.540625
0.342700 0.342700 0.342700
0.439875 0.439875 0.439875
0.537050 0.537050 0.537050
0.634225 0.634225 0.634225
0.731400 0.731400 0.731400
0.533475 0.533475 0.533475
0.630650 0.630650 0.630650
0.727825 0.727825 0.727825
0.825000 0.825000 0.825000
0.922175 0.922175 0.922175
0.724250 0.724250 0.724250
0.821425 0.821425 0.821425
0.918600 0.918600 0.918600
1.000000 1.000000 1.000000
1.000000 1.000000 1.000000
0.000000 0.000000 0.000000
0.095375 0.095375 0.095375
0.192550 0.192550 0.192550
0.289725 0.289725 0.289725
0.386900 0.386900 0.386900
0.188975 0.188975 0.188975
0.286150 0.286150 0.286150
0.383325 0.383325 0.383325
0.480500 0.480500 0.480500
0.577675 0.577675 0.577675
0.379750 0.379750 0.379750
0.476925 0.476925 0.476925
0.574100 0.574100 0.574100
0.671275 0.671275 0.671275
0.768450 0.768450 0.768450
0.570525 0.570525 0.570525
0.667700 0.667700 0.667700
0.764875 0.764875 0.764875
0.862050 0.862050 0.862050
0.959225 0.959225 0.959225
0.761300 0.761300 0.761300
0.858475 0.858475 0.858475
0.955650 0.955650 0.955650
1.000000 1.000000 1.000000
1.000000 1.000000 1.000000
