frontend/client/public/luts/creative/bw_contrast.cube
TITLE "Black & White High Contrast"
LUT_3D_SIZE 9
0.000000 0.000000 0.000000
0.000000 0.000000 0.000000
0.000000 0.000000 0.000000
0.000000 0.000000 0.000000
0.044350 0.044350 0.044350
0.092938 0.092938 0.092938
0.141525 0.141525 0.141525
0.190112 0.190112 0.190112
0.238700 0.238700 0.238700
0.000000 0.000000 0.000000
0.000000 0.000000 0.000000
0.042563 0.042563 0.042563
0.091150 0.091150 0.091150
0.139737 0.139737 0.139737
0.188325 0.188325 0.188325
0.236913 0.236913 0.236913
0.285500 0.285500 0.285500
0.334087 0.334087 0.334087
0.040775 0.040775 0.040775
0.089362 0.089362 0.089362
0.137950 0.137950 0.137950
0.186537 0.186537 0.186537
0.235125 0.235125 0.235125
0.283712 0.283712 0.283712
0.332300 0.332300 0.332300
0.380887 0.380887 0.380887
0.429475 0.429475 0.429475
0.136163 0.136163 0.136163
0.184750 0.184750 0.184750
0.233337 0.233337 0.233337
0.281925 0.281925 0.281925
0.330512 0.330512 0.330512
0.379100 0.379100 0.379100
0.427687 0.427687 0.427687
0.476275 0.476275 0.476275
0.524862 0.524862 0.524862
0.231550 0.231550 0.231550
0.280137 0.280137 0.280137
0.328725 0.328725 0.328725
0.377312 0.377312 0.377312
0.425900 0.425900 0.425900
0.474488 0.474488 0.474488
0.523075 0.523075 0.523075
0.571662 0.571662 0.571662
0.620250 0.620250 0.620250
0.326937 0.326937 0.326937
0.375525 0.375525 0.375525
0.424112 0.424112 0.424112
0.472700 0.472700 0.472700
0.521287 0.521287 0.521287
0.569875 0.569875 0.569875
0.618462 0.618462 0.618462
0.667050 0.667050 0.667050
0.715638 0.715638 0.715638
0.422325 0.422325 0.422325
0.470912 0.470912 0.470912
0.519500 0.519500 0.519500
0.568087 0.568087 0.568087
0.616675 0.616675 0.616675
0.665262 0.665262 0.665262
0.713850 0.713850 0.713850
0.762438 0.762438 0.762438
0.811025 0.811025 0.811025
0.517713 0.517713 0.517713
0.566300 0.566300 0.566300
0.614888 0.614888 0.614888
0.663475 0.663475 0.663475
0.712062 0.712062 0.712062
0.760650 0.760650 0.760650
0.809238 0.809238 0.809238
0.857825 0.857825 0.857825
0.906412 0.906412 0.906412
0.613100 0.613100 0.613100
0.661687 0.661687 0.661687
0.710275 0.710275 0.710275
0.758862 0.758862 0.758862
0.807450 0.807450 0.807450
0.856038 0.856038 0.856038
0.904625 0.904625 0.904625
0.953213 0.953213 0.953213
1.000000 1.000000 1.000000
0.000000 0.000000 0.000000
0.000000 0.000000 0.000000
0.000000 0.000000 0.000000
0.014288 0.014288 0.014288
0.062875 0.062875 0.062875
0.111462 0.111462 0.111462
0.160050 0.160050 0.160050
0.208637 0.208637 0.208637
0.257225 0.257225 0.257225
0.000000 0.000000 0.000000
0.012500 0.012500 0.012500
0.061088 0.061088 0.061088
0.109675 0.109675 0.109675
0.158263 0.158263 0.158263
0.206850 0.206850 0.206850
0.255437 0.255437 0.255437
0.304025 0.304025 0.304025
0.352612 0.352612 0.352612
0.059300 0.059300 0.059300
0.107887 0.107887 0.107887
0.156475 0.156475 0.156475
0.205062 0.205062 0.205062
0.253650 0.253650 0.253650
0.302237 0.302237 0.302237
0.350825 0.350825 0.350825
0.399412 0.399412 0.399412
0.448000 0.448000 0.448000
0.154687 0.154687 0.154687
0.203275 0.203275 0.203275
0.251862 0.251862 0.251862
0.300450 0.300450 0.300450
0.349037 0.349037 0.349037
0.397625 0.397625 0.397625
0.446212 0.446212 0.446212
0.494800 0.494800 0.494800
0.543387 0.543387 0.543387
0.250075 0.250075 0.250075
0.298662 0.298662 0.298662
0.347250 0.347250 0.347250
0.395838 0.395838 0.395838
0.444425 0.444425 0.444425
0.493012 0.493012 0.493012
0.541600 0.541600 0.541600
0.590187 0.590187 0.590187
0.638775 0.638775 0.638775
0.345462 0.345462 0.345462
0.394050 0.394050 0.394050
0.442637 0.442637 0.442637
0.491225 0.491225 0.491225
0.539812 0.539812 0.539812
0.588400 0.588400 0.588400
0.636987 0.636987 0.636987
0.685575 0.685575 0.685575
0.734162 0.734162 0.734162
0.440850 0.440850 0.440850
0.489437 0.489437 0.489437
0.538025 0.538025 0.538025
0.586612 0.586612 0.586612
0.635200 0.635200 0.635200
0.683787 0.683787 0.683787
0.732375 0.732375 0.732375
0.780963 0.780963 0.780963
0.829550 0.829550 0.829550
0.536237 0.536237 0.536237
0.584825 0.584825 0.584825
0.633412 0.633412 0.633412
0.682000 0.682000 0.682000
0.730587 0.730587 0.730587
0.779175 0.779175 0.779175
0.827763 0.827763 0.827763
0.876350 0.876350 0.876350
0.924937 0.924937 0.924937
0.631625 0.631625 0.631625
0.680212 0.680212 0.680212
0.728800 0.728800 0.728800
0.777388 0.777388 0.777388
0.825975 0.825975 0.825975
0.874562 0.874562 0.874562
0.923150 0.923150 0.923150
0.971737 0.971737 0.971737
1.000000 1.000000 1.000000
0.000000 0.000000 0.000000
0.000000 0.000000 0.000000
0.000000 0.000000 0.000000
0.032812 0.032812 0.032812
0.081400 0.081400 0.081400
0.129987 0.129987 0.129987
0.178575 0.178575 0.178575
0.227163 0.227163 0.227163
0.275750 0.275750 0.275750
0.000000 0.000000 0.000000
0.031025 0.031025 0.031025
0.079613 0.079613 0.079613
0.128200 0.128200 0.128200
0.176787 0.176787 0.176787
0.225375 0.225375 0.225375
0.273963 0.273963 0.273963
0.322550 0.322550 0.322550
0.371138 0.371138 0.371138
0.077825 0.077825 0.077825
0.126412 0.126412 0.126412
0.175000 0.175000 0.175000
0.223587 0.223587 0.223587
0.272175 0.272175 0.272175
0.320762 0.320762 0.320762
0.369350 0.369350 0.369350
0.417938 0.417938 0.417938
0.466525 0.466525 0.466525
0.173212 0.173212 0.173212
0.221800 0.221800 0.221800
0.270388 0.270388 0.270388
0.318975 0.318975 0.318975
0.367563 0.367563 0.367563
0.416150 0.416150 0.416150
0.464737 0.464737 0.464737
0.513325 0.513325 0.513325
0.561912 0.561912 0.561912
0.268600 0.268600 0.268600
0.317187 0.317187 0.317187
0.365775 0.365775 0.365775
0.414363 0.414363 0.414363
0.462950 0.462950 0.462950
0.511537 0.511537 0.511537
0.560125 0.560125 0.560125
0.608712 0.608712 0.608712
0.657300 0.657300 0.657300
0.363987 0.363987 0.363987
0.412575 0.412575 0.412575
0.461162 0.461162 0.461162
0.509750 0.509750 0.509750
0.558337 0.558337 0.558337
0.606925 0.606925 0.606925
0.655512 0.655512 0.655512
0.704100 0.704100 0.704100
0.752687 0.752687 0.752687
0.459375 0.459375 0.459375
0.507962 0.507962 0.507962
0.556550 0.556550 0.556550
0.605137 0.605137 0.605137
0.653725 0.653725 0.653725
0.702312 0.702312 0.702312
0.750900 0.750900 0.750900
0.799488 0.799488 0.799488
0.848075 0.848075 0.848075
0.554762 0.554762 0.554762
0.603350 0.603350 0.603350
0.651937 0.651937 0.651937
0.700525 0.700525 0.700525
0.749112 0.749112 0.749112
0.797700 0.797700 0.797700
0.846288 0.846288 0.846288
0.894875 0.894875 0.894875
0.943462 0.943462 0.943462
0.650150 0.650150 0.650150
0.698738 0.698738 0.698738
0.747325 0.747325 0.747325
0.795913 0.795913 0.795913
0.844500 0.844500 0.844500
0.893087 0.893087 0.893087
0.941675 0.941675 0.941675
0.990262 0.990262 0.990262
1.000000 1.000000 1.000000
0.000000 0.000000 0.000000
0.000000 0.000000 0.000000
0.002750 0.002750 0.002750
0.051337 0.051337 0.051337
0.099925 0.099925 0.099925
0.148512 0.148512 0.148512
0.197100 0.197100 0.197100
0.245688 0.245688 0.245688
0.294275 0.294275 0.294275
0.000963 0.000963 0.000963
0.049550 0.049550 0.049550
0.098137 0.098137 0.098137
0.146725 0.146725 0.146725
0.195313 0.195313 0.195313
0.243900 0.243900 0.243900
0.292488 0.292488 0.292488
0.341075 0.341075 0.341075
0.389663 0.389663 0.389663
0.096350 0.096350 0.096350
0.144937 0.144937 0.144937
0.193525 0.193525 0.193525
0.242112 0.242112 0.242112
0.290700 0.290700 0.290700
0.339287 0.339287 0.339287
0.387875 0.387875 0.387875
0.436462 0.436462 0.436462
0.485050 0.485050 0.485050
0.191737 0.191737 0.191737
0.240325 0.240325 0.240325
0.288913 0.288913 0.288913
0.337500 0.337500 0.337500
0.386087 0.386087 0.386087
0.434675 0.434675 0.434675
0.483262 0.483262 0.483262
0.531850 0.531850 0.531850
0.580437 0.580437 0.580437
0.287125 0.287125 0.287125
0.335712 0.335712 0.335712
0.384300 0.384300 0.384300
0.432888 0.432888 0.432888
0.481475 0.481475 0.481475
0.530062 0.530062 0.530062
0.578650 0.578650 0.578650
0.627237 0.627237 0.627237
0.675825 0.675825 0.675825
0.382512 0.382512 0.382512
0.431100 0.431100 0.431100
0.479687 0.479687 0.479687
0.528275 0.528275 0.528275
0.576862 0.576862 0.576862
0.625450 0.625450 0.625450
0.674037 0.674037 0.674037
0.722625 0.722625 0.722625
0.771212 0.771212 0.771212
0.477900 0.477900 0.477900
0.526487 0.526487 0.526487
0.575075 0.575075 0.575075
0.623662 0.623662 0.623662
0.672250 0.672250 0.672250
0.720837 0.720837 0.720837
0.769425 0.769425 0.769425
0.818013 0.818013 0.818013
0.866600 0.866600 0.866600
0.573287 0.573287 0.573287
0.621875 0.621875 0.621875
0.670462 0.670462 0.670462
0.719050 0.719050 0.719050
0.767637 0.767637 0.767637
0.816225 0.816225 0.816225
0.864812 0.864812 0.864812
0.913400 0.913400 0.913400
0.961987 0.961987 0.961987
0.668675 0.668675 0.668675
0.717262 0.717262 0.717262
0.765850 0.765850 0.765850
0.814437 0.814437 0.814437
0.863025 0.863025 0.863025
0.911612 0.911612 0.911612
0.960200 0.960200 0.960200
1.000000 1.000000 1.000000
1.000000 1.000000 1.000000
0.000000 0.000000 0.000000
0.000000 0.000000 0.000000
0.021275 0.021275 0.021275
0.069862 0.069862 0.069862
0.118450 0.118450 0.118450
0.167037 0.167037 0.167037
0.215625 0.215625 0.215625
0.264212 0.264212 0.264212
0.312800 0.312800 0.312800
0.019487 0.019487 0.019487
0.068075 0.068075 0.068075
0.116663 0.116663 0.116663
0.165250 0.165250 0.165250
0.213837 0.213837 0.213837
0.262425 0.262425 0.262425
0.311013 0.311013 0.311013
0.359600 0.359600 0.359600
0.408188 0.408188 0.408188
0.114875 0.114875 0.114875
0.163462 0.163462 0.163462
0.212050 0.212050 0.212050
0.260637 0.260637 0.260637
0.309225 0.309225 0.309225
0.357812 0.357812 0.357812
0.406400 0.406400 0.406400
0.454987 0.454987 0.454987
0.503575 0.503575 0.503575
0.210263 0.210263 0.210263
0.258850 0.258850 0.258850
0.307437 0.307437 0.307437
0.356025 0.356025 0.356025
0.404612 0.404612 0.404612
0.453200 0.453200 0.453200
0.501788 0.501788 0.501788
0.550375 0.550375 0.550375
0.598962 0.598962 0.598962
0.305650 0.305650 0.305650
0.354237 0.354237 0.354237
0.402825 0.402825 0.402825
0.451412 0.451412 0.451412
0.500000 0.500000 0.500000
0.548588 0.548588 0.548588
0.597175 0.597175 0.597175
0.645763 0.645763 0.645763
0.694350 0.694350 0.694350
0.401037 0.401037 0.401037
0.449625 0.449625 0.449625
0.498212 0.498212 0.498212
0.546800 0.546800 0.546800
0.595387 0.595387 0.595387
0.643975 0.643975 0.643975
0.692562 0.692562 0.692562
0.741150 0.741150 0.741150
0.789738 0.789738 0.789738
0.496425 0.496425 0.496425
0.545013 0.545013 0.545013
0.593600 0.593600 0.593600
0.642188 0.642188 0.642188
0.690775 0.690775 0.690775
0.739362 0.739362 0.739362
0.787950 0.787950 0.787950
0.836538 0.836538 0.836538
0.885125 0.885125 0.885125
0.591813 0.591813 0.591813
0.640400 0.640400 0.640400
0.688988 0.688988 0.688988
0.737575 0.737575 0.737575
0.786163 0.786163 0.786163
0.834750 0.834750 0.834750
0.883338 0.883338 0.883338
0.931925 0.931925 0.931925
0.980513 0.980513 0.980513
0.687200 0.687200 0.687200
0.735788 0.735788 0.735788
0.784375 0.784375 0.784375
0.832963 0.832963 0.832963
0.881550 0.881550 0.881550
0.930138 0.930138 0.930138
0.978725 0.978725 0.978725
1.000000 1.000000 1.000000
1.000000 1.000000 1.000000
0.000000 0.000000 0.000000
0.000000 0.000000 0.000000
0.039800 0.039800 0.039800
0.088388 0.088388 0.088388
0.136975 0.136975 0.136975
0.185562 0.185562 0.185562
0.234150 0.234150 0.234150
0.282738 0.282738 0.282738
0.331325 0.331325 0.331325
0.038013 0.038013 0.038013
0.086600 0.086600 0.086600
0.135187 0.135187 0.135187
0.183775 0.183775 0.183775
0.232362 0.232362 0.232362
0.280950 0.280950 0.280950
0.329538 0.329538 0.329538
0.378125 0.378125 0.378125
0.426713 0.426713 0.426713
0.133400 0.133400 0.133400
0.181988 0.181988 0.181988
0.230575 0.230575 0.230575
0.279162 0.279162 0.279162
0.327750 0.327750 0.327750
0.376337 0.376337 0.376337
0.424925 0.424925 0.424925
0.473512 0.473512 0.473512
0.522100 0.522100 0.522100
0.228787 0.228787 0.228787
0.277375 0.277375 0.277375
0.325963 0.325963 0.325963
0.374550 0.374550 0.374550
0.423137 0.423137 0.423137
0.471725 0.471725 0.471725
0.520312 0.520312 0.520312
0.568900 0.568900 0.568900
0.617487 0.617487 0.617487
0.324175 0.324175 0.324175
0.372762 0.372762 0.372762
0.421350 0.421350 0.421350
0.469938 0.469938 0.469938
0.518525 0.518525 0.518525
0.567113 0.567113 0.567113
0.615700 0.615700 0.615700
0.664288 0.664288 0.664288
0.712875 0.712875 0.712875
0.419562 0.419562 0.419562
0.468150 0.468150 0.468150
0.516737 0.516737 0.516737
0.565325 0.565325 0.565325
0.613912 0.613912 0.613912
0.662500 0.662500 0.662500
0.711087 0.711087 0.711087
0.759675 0.759675 0.759675
0.808263 0.808263 0.808263
0.514950 0.514950 0.514950
0.563538 0.563538 0.563538
0.612125 0.612125 0.612125
0.660713 0.660713 0.660713
0.709300 0.709300 0.709300
0.757888 0.757888 0.757888
0.806475 0.806475 0.806475
0.855063 0.855063 0.855063
0.903650 0.903650 0.903650
0.610338 0.610338 0.610338
0.658925 0.658925 0.658925
0.707512 0.707512 0.707512
0.756100 0.756100 0.756100
0.804688 0.804688 0.804688
0.853275 0.853275 0.853275
0.901863 0.901863 0.901863
0.950450 0.950450 0.950450
0.999038 0.999038 0.999038
0.705725 0.705725 0.705725
0.754313 0.754313 0.754313
0.802900 0.802900 0.802900
0.851488 0.851488 0.851488
0.900075 0.900075 0.900075
0.948662 0.948662 0.948662
0.997250 0.997250 0.997250
1.000000 1.000000 1.000000
1.000000 1.000000 1.000000
0.000000 0.000000 0.000000
0.009738 0.009738 0.009738
0.058325 0.058325 0.058325
0.106912 0.106912 0.106912
0.155500 0.155500 0.155500
0.204087 0.204087 0.204087
0.252675 0.252675 0.252675
0.301262 0.301262 0.301262
0.349850 0.349850 0.349850
0.056537 0.056537 0.056537
0.105125 0.105125 0.105125
0.153713 0.153713 0.153713
0.202300 0.202300 0.202300
0.250888 0.250888 0.250888
0.299475 0.299475 0.299475
0.348063 0.348063 0.348063
0.396650 0.396650 0.396650
0.445238 0.445238 0.445238
0.151925 0.151925 0.151925
0.200512 0.200512 0.200512
0.249100 0.249100 0.249100
0.297687 0.297687 0.297687
0.346275 0.346275 0.346275
0.394862 0.394862 0.394862
0.443450 0.443450 0.443450
0.492038 0.492038 0.492038
0.540625 0.540625 0.540625
0.247312 0.247312 0.247312
0.295900 0.295900 0.295900
0.344488 0.344488 0.344488
0.393075 0.393075 0.393075
0.441663 0.441663 0.441663
0.490250 0.490250 0.490250
0.538837 0.538837 0.538837
0.587425 0.587425 0.587425
0.636012 0.636012 0.636012
0.342700 0.342700 0.342700
0.391288 0.391288 0.391288
0.439875 0.439875 0.439875
0.488463 0.488463 0.488463
0.537050 0.537050 0.537050
0.585638 0.585638 0.585638
0.634225 0.634225 0.634225
0.682813 0.682813 0.682813
0.731400 0.731400 0.731400
0.438087 0.438087 0.438087
0.486675 0.486675 0.486675
0.535262 0.535262 0.535262
0.583850 0.583850 0.583850
0.632437 0.632437 0.632437
0.681025 0.681025 0.681025
0.729612 0.729612 0.729612
0.778200 0.778200 0.778200
0.826788 0.826788 0.826788
0.533475 0.533475 0.533475
0.582062 0.582062 0.582062
0.630650 0.630650 0.630650
0.679237 0.679237 0.679237
0.727825 0.727825 0.727825
0.776412 0.776412 0.776412
0.825000 0.825000 0.825000
0.873588 0.873588 0.873588
0.922175 0.922175 0.922175
0.628862 0.628862 0.628862
0.677450 0.677450 0.677450
0.726038 0.726038 0.726038
0.774625 0.774625 0.774625
0.823213 0.823213 0.823213
0.871800 0.871800 0.871800
0.920388 0.920388 0.920388
0.968975 0.968975 0.968975
1.000000 1.000000 1.000000
0.724250 0.724250 0.724250
0.772838 0.772838 0.772838
0.821425 0.821425 0.821425
0.870013 0.870013 0.870013
0.918600 0.918600 0.918600
0.967188 0.967188 0.967188
1.000000 1.000000 1.000000
1.000000 1.000000 1.000000
1.000000 1.000000 1.000000
0.000000 0.000000 0.000000
0.028262 0.028262 0.028262
0.076850 0.076850 0.076850
0.125438 0.125438 0.125438
0.174025 0.174025 0.174025
0.222612 0.222612 0.222612
0.271200 0.271200 0.271200
0.319788 0.319788 0.319788
0.368375 0.368375 0.368375
0.075062 0.075062 0.075062
0.123650 0.123650 0.123650
0.172237 0.172237 0.172237
0.220825 0.220825 0.220825
0.269412 0.269412 0.269412
0.318000 0.318000 0.318000
0.366588 0.366588 0.366588
0.415175 0.415175 0.415175
0.463763 0.463763 0.463763
0.170450 0.170450 0.170450
0.219037 0.219037 0.219037
0.267625 0.267625 0.267625
0.316212 0.316212 0.316212
0.364800 0.364800 0.364800
0.413387 0.413387 0.413387
0.461975 0.461975 0.461975
0.510562 0.510562 0.510562
0.559150 0.559150 0.559150
0.265838 0.265838 0.265838
0.314425 0.314425 0.314425
0.363012 0.363012 0.363012
0.411600 0.411600 0.411600
0.460187 0.460187 0.460187
0.508775 0.508775 0.508775
0.557362 0.557362 0.557362
0.605950 0.605950 0.605950
0.654537 0.654537 0.654537
0.361225 0.361225 0.361225
0.409812 0.409812 0.409812
0.458400 0.458400 0.458400
0.506988 0.506988 0.506988
0.555575 0.555575 0.555575
0.604163 0.604163 0.604163
0.652750 0.652750 0.652750
0.701337 0.701337 0.701337
0.749925 0.749925 0.749925
0.456612 0.456612 0.456612
0.505200 0.505200 0.505200
0.553787 0.553787 0.553787
0.602375 0.602375 0.602375
0.650962 0.650962 0.650962
0.699550 0.699550 0.699550
0.748137 0.748137 0.748137
0.796725 0.796725 0.796725
0.845313 0.845313 0.845313
0.552000 0.552000 0.552000
0.600587 0.600587 0.600587
0.649175 0.649175 0.649175
0.697762 0.697762 0.697762
0.746350 0.746350 0.746350
0.794937 0.794937 0.794937
0.843525 0.843525 0.843525
0.892113 0.892113 0.892113
0.940700 0.940700 0.940700
0.647388 0.647388 0.647388
0.695975 0.695975 0.695975
0.744563 0.744563 0.744563
0.793150 0.793150 0.793150
0.841738 0.841738 0.841738
0.890325 0.890325 0.890325
0.938913 0.938913 0.938913
0.987500 0.987500 0.987500
1.000000 1.000000 1.000000
0.742775 0.742775 0.742775
0.791362 0.791362 0.791362
0.839950 0.839950 0.839950
0.888537 0.888537 0.888537
0.937125 0.937125 0.937125
0.985712 0.985712 0.985712
1.000000 1.000000 1.000000
1.000000 1.000000 1.000000
1.000000 1.000000 1.000000
0.000000 0.000000 0.000000
0.046788 0.046788 0.046788
0.095375 0.095375 0.095375
0.143962 0.143962 0.143962
0.192550 0.192550 0.192550
0.241138 0.241138 0.241138
0.289725 0.289725 0.289725
0.338313 0.338313 0.338313
0.386900 0.386900 0.386900
0.093587 0.093587 0.093587
0.142175 0.142175 0.142175
0.190763 0.190763 0.190763
0.239350 0.239350 0.239350
0.287937 0.287937 0.287937
0.336525 0.336525 0.336525
0.385113 0.385113 0.385113
0.433700 0.433700 0.433700
0.482287 0.482287 0.482287
0.188975 0.188975 0.188975
0.237562 0.237562 0.237562
0.286150 0.286150 0.286150
0.334737 0.334737 0.334737
0.383325 0.383325 0.383325
0.431912 0.431912 0.431912
0.480500 0.480500 0.480500
0.529088 0.529088 0.529088
0.577675 0.577675 0.577675
0.284362 0.284362 0.284362
0.332950 0.332950 0.332950
0.381537 0.381537 0.381537
0.430125 0.430125 0.430125
0.478712 0.478712 0.478712
0.527300 0.527300 0.527300
0.575887 0.575887 0.575887
0.624475 0.624475 0.624475
0.673062 0.673062 0.673062
0.379750 0.379750 0.379750
0.428337 0.428337 0.428337
0.476925 0.476925 0.476925
0.525513 0.525513 0.525513
0.574100 0.574100 0.574100
0.622687 0.622687 0.622687
0.671275 0.671275 0.671275
0.719862 0.719862 0.719862
0.768450 0.768450 0.768450
0.475137 0.475137 0.475137
0.523725 0.523725 0.523725
0.572312 0.572312 0.572312
0.620900 0.620900 0.620900
0.669487 0.669487 0.669487
0.718075 0.718075 0.718075
0.766662 0.766662 0.766662
0.815250 0.815250 0.815250
0.863838 0.863838 0.863838
0.570525 0.570525 0.570525
0.619112 0.619112 0.619112
0.667700 0.667700 0.667700
0.716287 0.716287 0.716287
0.764875 0.764875 0.764875
0.813462 0.813462 0.813462
0.862050 0.862050 0.862050
0.910637 0.910637 0.910637
0.959225 0.959225 0.959225
0.665913 0.665913 0.665913
0.714500 0.714500 0.714500
0.763087 0.763087 0.763087
0.811675 0.811675 0.811675
0.860262 0.860262 0.860262
0.908850 0.908850 0.908850
0.957438 0.957438 0.957438
1.000000 1.000000 1.000000
1.000000 1.000000 1.000000
0.761300 0.761300 0.761300
0.809888 0.809888 0.809888
0.858475 0.858475 0.858475
0.907062 0.907062 0.907062
0.955650 0.955650 0.955650
1.000000 1.000000 1.000000
1.000000 1.000000 1.000000
1.000000 1.000000 1.000000
1.000000 1.000000 1.000000
