frontend/client/public/luts/creative/teal_orange.cube
TITLE "Cinematic Teal & Orange"
LUT_3D_SIZE 5
0.000000 0.000000 0.000000
0.225000 0.000000 0.000000
0.450000 0.000000 0.000000
0.675000 0.000000 0.000000
0.900000 0.000000 0.000000
0.000000 0.275000 0.000000
0.225000 0.275000 0.000000
0.450000 0.275000 0.000000
0.675000 0.275000 0.000000
0.900000 0.275000 0.000000
0.000000 0.550000 0.000000
0.225000 0.550000 0.000000
0.450000 0.550000 0.000000
0.675000 0.550000 0.000000
1.000000 0.525000 0.000000
0.000000 0.825000 0.000000
0.225000 0.825000 0.000000
0.450000 0.825000 0.000000
0.862500 0.787500 0.000000
1.000000 0.787500 0.000000
0.000000 1.000000 0.000000
0.225000 1.000000 0.000000
0.575000 1.000000 0.000000
0.862500 1.000000 0.000000
1.000000 1.000000 0.000000
0.000000 0.000000 0.300000
0.225000 0.000000 0.300000
0.450000 0.000000 0.300000
0.675000 0.000000 0.300000
0.900000 0.000000 0.300000
0.000000 0.275000 0.300000
0.225000 0.275000 0.300000
0.450000 0.275000 0.300000
0.675000 0.275000 0.300000
1.000000 0.262500 0.200000
0.000000 0.550000 0.300000
0.225000 0.550000 0.300000
0.450000 0.550000 0.300000
0.862500 0.525000 0.200000
1.000000 0.525000 0.200000
0.000000 0.825000 0.300000
0.225000 0.825000 0.300000
0.575000 0.787500 0.200000
0.862500 0.787500 0.200000
1.000000 0.787500 0.200000
0.000000 1.000000 0.300000
0.287500 1.000000 0.200000
0.575000 1.000000 0.200000
0.862500 1.000000 0.200000
1.000000 1.000000 0.200000
0.000000 0.000000 0.600000
0.225000 0.000000 0.600000
0.450000 0.000000 0.600000
0.675000 0.000000 0.600000
1.000000 0.000000 0.400000
0.000000 0.275000 0.600000
0.225000 0.275000 0.600000
0.450000 0.275000 0.600000
0.862500 0.262500 0.400000
1.000000 0.262500 0.400000
0.000000 0.550000 0.600000
0.225000 0.550000 0.600000
0.575000 0.525000 0.400000
0.862500 0.525000 0.400000
1.000000 0.525000 0.400000
0.000000 0.825000 0.600000
0.287500 0.787500 0.400000
0.575000 0.787500 0.400000
0.862500 0.787500 0.400000
1.000000 0.787500 0.400000
0.000000 1.000000 0.400000
0.287500 1.000000 0.400000
0.575000 1.000000 0.400000
0.862500 1.000000 0.400000
1.000000 1.000000 0.400000
0.000000 0.000000 0.900000
0.225000 0.000000 0.900000
0.450000 0.000000 0.900000
0.862500 0.000000 0.600000
1.000000 0.000000 0.600000
0.000000 0.275000 0.900000
0.225000 0.275000 0.900000
0.575000 0.262500 0.600000
0.862500 0.262500 0.600000
1.000000 0.262500 0.600000
0.000000 0.550000 0.900000
0.287500 0.525000 0.600000
0.575000 0.525000 0.600000
0.862500 0.525000 0.600000
1.000000 0.525000 0.600000
0.000000 0.787500 0.600000
0.287500 0.787500 0.600000
0.575000 0.787500 0.600000
0.862500 0.787500 0.600000
1.000000 0.787500 0.600000
0.000000 1.000000 0.600000
0.287500 1.000000 0.600000
0.575000 1.000000 0.600000
0.862500 1.000000 0.600000
1.000000 1.000000 0.600000
0.000000 0.000000 1.000000
0.225000 0.000000 1.000000
0.575000 0.000000 0.800000
0.862500 0.000000 0.800000
1.000000 0.000000 0.800000
0.000000 0.275000 1.000000
0.287500 0.262500 0.800000
0.575000 0.262500 0.800000
0.862500 0.262500 0.800000
1.000000 0.262500 0.800000
0.000000 0.525000 0.800000
0.287500 0.525000 0.800000
0.575000 0.525000 0.800000
0.862500 0.525000 0.800000
1.000000 0.525000 0.800000
0.000000 0.787500 0.800000
0.287500 0.787500 0.800000
0.575000 0.787500 0.800000
0.862500 0.787500 0.800000
1.000000 0.787500 0.800000
0.000000 1.000000 0.800000
0.287500 1.000000 0.800000
0.575000 1.000000 0.800000
0.862500 1.000000 0.800000
1.000000 1.000000 0.800000
