frontend/client/public/luts/creative/teal_orange.cube
TITLE "Cinematic Teal & Orange"
LUT_3D_SIZE 9
0.000000 0.000000 0.000000
0.112500 0.000000 0.000000
0.225000 0.000000 0.000000
0.337500 0.000000 0.000000
0.450000 0.000000 0.000000
0.562500 0.000000 0.000000
0.675000 0.000000 0.000000
0.787500 0.000000 0.000000
0.900000 0.000000 0.000000
0.000000 0.137500 0.000000
0.112500 0.137500 0.000000
0.225000 0.137500 0.000000
0.337500 0.137500 0.000000
0.450000 0.137500 0.000000
0.562500 0.137500 0.000000
0.675000 0.137500 0.000000
0.787500 0.137500 0.000000
0.900000 0.137500 0.000000
0.000000 0.275000 0.000000
0.112500 0.275000 0.000000
0.225000 0.275000 0.000000
0.337500 0.275000 0.000000
0.450000 0.275000 0.000000
0.562500 0.275000 0.000000
0.675000 0.275000 0.000000
0.787500 0.275000 0.000000
0.900000 0.275000 0.000000
0.000000 0.412500 0.000000
0.112500 0.412500 0.000000
0.225000 0.412500 0.000000
0.337500 0.412500 0.000000
0.450000 0.412500 0.000000
0.562500 0.412500 0.000000
0.675000 0.412500 0.000000
0.787500 0.412500 0.000000
0.900000 0.412500 0.000000
0.000000 0.550000 0.000000
0.112500 0.550000 0.000000
0.225000 0.550000 0.000000
0.337500 0.550000 0.000000
0.450000 0.550000 0.000000
0.562500 0.550000 0.000000
0.675000 0.550000 0.000000
0.787500 0.550000 0.000000
1.000000 0.525000 0.000000
0.000000 0.687500 0.000000
0.112500 0.687500 0.000000
0.225000 0.687500 0.000000
0.337500 0.687500 0.000000
0.450000 0.687500 0.000000
0.562500 0.687500 0.000000
0.675000 0.687500 0.000000
1.000000 0.656250 0.000000
1.000000 0.656250 0.000000
0.000000 0.825000 0.000000
0.112500 0.825000 0.000000
0.225000 0.825000 0.000000
0.337500 0.825000 0.000000
0.450000 0.825000 0.000000
0.562500 0.825000 0.000000
0.862500 0.787500 0.000000
1.000000 0.787500 0.000000
1.000000 0.787500 0.000000
0.000000 0.962500 0.000000
0.112500 0.962500 0.000000
0.225000 0.962500 0.000000
0.337500 0.962500 0.000000
0.450000 0.962500 0.000000
0.718750 0.918750 0.000000
0.862500 0.918750 0.000000
1.000000 0.918750 0.000000
1.000000 0.918750 0.000000
0.000000 1.000000 0.000000
0.112500 1.000000 0.000000
0.225000 1.000000 0.000000
0.337500 1.000000 0.000000
0.575000 1.000000 0.000000
0.718750 1.000000 0.000000
0.862500 1.000000 0.000000
1.000000 1.000000 0.000000
1.000000 1.000000 0.000000
0.000000 0.000000 0.150000
0.112500 0.000000 0.150000
0.225000 0.000000 0.150000
0.337500 0.000000 0.150000
0.450000 0.000000 0.150000
0.562500 0.000000 0.150000
0.675000 0.000000 0.150000
0.787500 0.000000 0.150000
0.900000 0.000000 0.150000
0.000000 0.137500 0.150000
0.112500 0.137500 0.150000
0.225000 0.137500 0.150000
0.337500 0.137500 0.150000
0.450000 0.137500 0.150000
0.562500 0.137500 0.150000
0.675000 0.137500 0.150000
0.787500 0.137500 0.150000
0.900000 0.137500 0.150000
0.000000 0.275000 0.150000
0.112500 0.275000 0.150000
0.225000 0.275000 0.150000
0.337500 0.275000 0.150000
0.450000 0.275000 0.150000
0.562500 0.275000 0.150000
0.675000 0.275000 0.150000
0.787500 0.275000 0.150000
0.900000 0.275000 0.150000
0.000000 0.412500 0.150000
0.112500 0.412500 0.150000
0.225000 0.412500 0.150000
0.337500 0.412500 0.150000
0.450000 0.412500 0.150000
0.562500 0.412500 0.150000
0.675000 0.412500 0.150000
0.787500 0.412500 0.150000
1.000000 0.393750 0.100000
0.000000 0.550000 0.150000
0.112500 0.550000 0.150000
0.225000 0.550000 0.150000
0.337500 0.550000 0.150000
0.450000 0.550000 0.150000
0.562500 0.550000 0.150000
0.675000 0.550000 0.150000
1.000000 0.525000 0.100000
1.000000 0.525000 0.100000
0.000000 0.687500 0.150000
0.112500 0.687500 0.150000
0.225000 0.687500 0.150000
0.337500 0.687500 0.150000
0.450000 0.687500 0.150000
0.562500 0.687500 0.150000
0.862500 0.656250 0.100000
1.000000 0.656250 0.100000
1.000000 0.656250 0.100000
0.000000 0.825000 0.150000
0.112500 0.825000 0.150000
0.225000 0.825000 0.150000
0.337500 0.825000 0.150000
0.450000 0.825000 0.150000
0.718750 0.787500 0.100000
0.862500 0.787500 0.100000
1.000000 0.787500 0.100000
1.000000 0.787500 0.100000
0.000000 0.962500 0.150000
0.112500 0.962500 0.150000
0.225000 0.962500 0.150000
0.337500 0.962500 0.150000
0.575000 0.918750 0.100000
0.718750 0.918750 0.100000
0.862500 0.918750 0.100000
1.000000 0.918750 0.100000
1.000000 0.918750 0.100000
0.000000 1.000000 0.150000
0.112500 1.000000 0.150000
0.225000 1.000000 0.150000
0.431250 1.000000 0.100000
0.575000 1.000000 0.100000
0.718750 1.000000 0.100000
0.862500 1.000000 0.100000
1.000000 1.000000 0.100000
1.000000 1.000000 0.100000
0.000000 0.000000 0.300000
0.112500 0.000000 0.300000
0.225000 0.000000 0.300000
0.337500 0.000000 0.300000
0.450000 0.000000 0.300000
0.562500 0.000000 0.300000
0.675000 0.000000 0.300000
0.787500 0.000000 0.300000
0.900000 0.000000 0.300000
0.000000 0.137500 0.300000
0.112500 0.137500 0.300000
0.225000 0.137500 0.300000
0.337500 0.137500 0.300000
0.450000 0.137500 0.300000
0.562500 0.137500 0.300000
0.675000 0.137500 0.300000
0.787500 0.137500 0.300000
0.900000 0.137500 0.300000
0.000000 0.275000 0.300000
0.112500 0.275000 0.300000
0.225000 0.275000 0.300000
0.337500 0.275000 0.300000
0.450000 0.275000 0.300000
0.562500 0.275000 0.300000
0.675000 0.275000 0.300000
0.787500 0.275000 0.300000
1.000000 0.262500 0.200000
0.000000 0.412500 0.300000
0.112500 0.412500 0.300000
0.225000 0.412500 0.300000
0.337500 0.412500 0.300000
0.450000 0.412500 0.300000
0.562500 0.412500 0.300000
0.675000 0.412500 0.300000
1.000000 0.393750 0.200000
1.000000 0.393750 0.200000
0.000000 0.550000 0.300000
0.112500 0.550000 0.300000
0.225000 0.550000 0.300000
0.337500 0.550000 0.300000
0.450000 0.550000 0.300000
0.562500 0.550000 0.300000
0.862500 0.525000 0.200000
1.000000 0.525000 0.200000
1.000000 0.525000 0.200000
0.000000 0.687500 0.300000
0.112500 0.687500 0.300000
0.225000 0.687500 0.300000
0.337500 0.687500 0.300000
0.450000 0.687500 0.300000
0.718750 0.656250 0.200000
0.862500 0.656250 0.200000
1.000000 0.656250 0.200000
1.000000 0.656250 0.200000
0.000000 0.825000 0.300000
0.112500 0.825000 0.300000
0.225000 0.825000 0.300000
0.337500 0.825000 0.300000
0.575000 0.787500 0.200000
0.718750 0.787500 0.200000
0.862500 0.787500 0.200000
1.000000 0.787500 0.200000
1.000000 0.787500 0.200000
0.000000 0.962500 0.300000
0.112500 0.962500 0.300000
0.225000 0.962500 0.300000
0.431250 0.918750 0.200000
0.575000 0.918750 0.200000
0.718750 0.918750 0.200000
0.862500 0.918750 0.200000
1.000000 0.918750 0.200000
1.000000 0.918750 0.200000
0.000000 1.000000 0.300000
0.112500 1.000000 0.300000
0.287500 1.000000 0.200000
0.431250 1.000000 0.200000
0.575000 1.000000 0.200000
0.718750 1.000000 0.200000
0.862500 1.000000 0.200000
1.000000 1.000000 0.200000
1.000000 1.000000 0.200000
0.000000 0.000000 0.450000
0.112500 0.000000 0.450000
0.225000 0.000000 0.450000
0.337500 0.000000 0.450000
0.450000 0.000000 0.450000
0.562500 0.000000 0.450000
0.675000 0.000000 0.450000
0.787500 0.000000 0.450000
0.900000 0.000000 0.450000
0.000000 0.137500 0.450000
0.112500 0.137500 0.450000
0.225000 0.137500 0.450000
0.337500 0.137500 0.450000
0.450000 0.137500 0.450000
0.562500 0.137500 0.450000
0.675000 0.137500 0.450000
0.787500 0.137500 0.450000
1.000000 0.131250 0.300000
0.000000 0.275000 0.450000
0.112500 0.275000 0.450000
0.225000 0.275000 0.450000
0.337500 0.275000 0.450000
0.450000 0.275000 0.450000
0.562500 0.275000 0.450000
0.675000 0.275000 0.450000
1.000000 0.262500 0.300000
1.000000 0.262500 0.300000
0.000000 0.412500 0.450000
0.112500 0.412500 0.450000
0.225000 0.412500 0.450000
0.337500 0.412500 0.450000
0.450000 0.412500 0.450000
0.562500 0.412500 0.450000
0.862500 0.393750 0.300000
1.000000 0.393750 0.300000
1.000000 0.393750 0.300000
0.000000 0.550000 0.450000
0.112500 0.550000 0.450000
0.225000 0.550000 0.450000
0.337500 0.550000 0.450000
0.450000 0.550000 0.450000
0.718750 0.525000 0.300000
0.862500 0.525000 0.300000
1.000000 0.525000 0.300000
1.000000 0.525000 0.300000
0.000000 0.687500 0.450000
0.112500 0.687500 0.450000
0.225000 0.687500 0.450000
0.337500 0.687500 0.450000
0.575000 0.656250 0.300000
0.718750 0.656250 0.300000
0.862500 0.656250 0.300000
1.000000 0.656250 0.300000
1.000000 0.656250 0.300000
0.000000 0.825000 0.450000
0.112500 0.825000 0.450000
0.225000 0.825000 0.450000
0.431250 0.787500 0.300000
0.575000 0.787500 0.300000
0.718750 0.787500 0.300000
0.862500 0.787500 0.300000
1.000000 0.787500 0.300000
1.000000 0.787500 0.300000
0.000000 0.962500 0.450000
0.112500 0.962500 0.450000
0.287500 0.918750 0.300000
0.431250 0.918750 0.300000
0.575000 0.918750 0.300000
0.718750 0.918750 0.300000
0.862500 0.918750 0.300000
1.000000 0.918750 0.300000
1.000000 0.918750 0.300000
0.000000 1.000000 0.450000
0.143750 1.000000 0.300000
0.287500 1.000000 0.300000
0.431250 1.000000 0.300000
0.575000 1.000000 0.300000
0.718750 1.000000 0.300000
0.862500 1.000000 0.300000
1.000000 1.000000 0.300000
1.000000 1.000000 0.300000
0.000000 0.000000 0.600000
0.112500 0.000000 0.600000
0.225000 0.000000 0.600000
0.337500 0.000000 0.600000
0.450000 0.000000 0.600000
0.562500 0.000000 0.600000
0.675000 0.000000 0.600000
0.787500 0.000000 0.600000
1.000000 0.000000 0.400000
0.000000 0.137500 0.600000
0.112500 0.137500 0.600000
0.225000 0.137500 0.600000
0.337500 0.137500 0.600000
0.450000 0.137500 0.600000
0.562500 0.137500 0.600000
0.675000 0.137500 0.600000
1.000000 0.131250 0.400000
1.000000 0.131250 0.400000
0.000000 0.275000 0.600000
0.112500 0.275000 0.600000
0.225000 0.275000 0.600000
0.337500 0.275000 0.600000
0.450000 0.275000 0.600000
0.562500 0.275000 0.600000
0.862500 0.262500 0.400000
1.000000 0.262500 0.400000
1.000000 0.262500 0.400000
0.000000 0.412500 0.600000
0.112500 0.412500 0.600000
0.225000 0.412500 0.600000
0.337500 0.412500 0.600000
0.450000 0.412500 0.600000
0.718750 0.393750 0.400000
0.862500 0.393750 0.400000
1.000000 0.393750 0.400000
1.000000 0.393750 0.400000
0.000000 0.550000 0.600000
0.112500 0.550000 0.600000
0.225000 0.550000 0.600000
0.337500 0.550000 0.600000
0.575000 0.525000 0.400000
0.718750 0.525000 0.400000
0.862500 0.525000 0.400000
1.000000 0.525000 0.400000
1.000000 0.525000 0.400000
0.000000 0.687500 0.600000
0.112500 0.687500 0.600000
0.225000 0.687500 0.600000
0.431250 0.656250 0.400000
0.575000 0.656250 0.400000
0.718750 0.656250 0.400000
0.862500 0.656250 0.400000
1.000000 0.656250 0.400000
1.000000 0.656250 0.400000
0.000000 0.825000 0.600000
0.112500 0.825000 0.600000
0.287500 0.787500 0.400000
0.431250 0.787500 0.400000
0.575000 0.787500 0.400000
0.718750 0.787500 0.400000
0.862500 0.787500 0.400000
1.000000 0.787500 0.400000
1.000000 0.787500 0.400000
0.000000 0.962500 0.600000
0.143750 0.918750 0.400000
0.287500 0.918750 0.400000
0.431250 0.918750 0.400000
0.575000 0.918750 0.400000
0.718750 0.918750 0.400000
0.862500 0.918750 0.400000
1.000000 0.918750 0.400000
1.000000 0.918750 0.400000
0.000000 1.000000 0.400000
0.143750 1.000000 0.400000
0.287500 1.000000 0.400000
0.431250 1.000000 0.400000
0.575000 1.000000 0.400000
0.718750 1.000000 0.400000
0.862500 1.000000 0.400000
1.000000 1.000000 0.400000
1.000000 1.000000 0.400000
0.000000 0.000000 0.750000
0.112500 0.000000 0.750000
0.225000 0.000000 0.750000
0.337500 0.000000 0.750000
0.450000 0.000000 0.750000
0.562500 0.000000 0.750000
0.675000 0.000000 0.750000
1.000000 0.000000 0.500000
1.000000 0.000000 0.500000
0.000000 0.137500 0.750000
0.112500 0.137500 0.750000
0.225000 0.137500 0.750000
0.337500 0.137500 0.750000
0.450000 0.137500 0.750000
0.562500 0.137500 0.750000
0.862500 0.131250 0.500000
1.000000 0.131250 0.500000
1.000000 0.131250 0.500000
0.000000 0.275000 0.750000
0.112500 0.275000 0.750000
0.225000 0.275000 0.750000
0.337500 0.275000 0.750000
0.450000 0.275000 0.750000
0.718750 0.262500 0.500000
0.862500 0.262500 0.500000
1.000000 0.262500 0.500000
1.000000 0.262500 0.500000
0.000000 0.412500 0.750000
0.112500 0.412500 0.750000
0.225000 0.412500 0.750000
0.337500 0.412500 0.750000
0.575000 0.393750 0.500000
0.718750 0.393750 0.500000
0.862500 0.393750 0.500000
1.000000 0.393750 0.500000
1.000000 0.393750 0.500000
0.000000 0.550000 0.750000
0.112500 0.550000 0.750000
0.225000 0.550000 0.750000
0.431250 0.525000 0.500000
0.575000 0.525000 0.500000
0.718750 0.525000 0.500000
0.862500 0.525000 0.500000
1.000000 0.525000 0.500000
1.000000 0.525000 0.500000
0.000000 0.687500 0.750000
0.112500 0.687500 0.750000
0.287500 0.656250 0.500000
0.431250 0.656250 0.500000
0.575000 0.656250 0.500000
0.718750 0.656250 0.500000
0.862500 0.656250 0.500000
1.000000 0.656250 0.500000
1.000000 0.656250 0.500000
0.000000 0.825000 0.750000
0.143750 0.787500 0.500000
0.287500 0.787500 0.500000
0.431250 0.787500 0.500000
0.575000 0.787500 0.500000
0.718750 0.787500 0.500000
0.862500 0.787500 0.500000
1.000000 0.787500 0.500000
1.000000 0.787500 0.500000
0.000000 0.918750 0.500000
0.143750 0.918750 0.500000
0.287500 0.918750 0.500000
0.431250 0.918750 0.500000
0.575000 0.918750 0.500000
0.718750 0.918750 0.500000
0.862500 0.918750 0.500000
1.000000 0.918750 0.500000
1.000000 0.918750 0.500000
0.000000 1.000000 0.500000
0.143750 1.000000 0.500000
0.287500 1.000000 0.500000
0.431250 1.000000 0.500000
0.575000 1.000000 0.500000
0.718750 1.000000 0.500000
0.862500 1.000000 0.500000
1.000000 1.000000 0.500000
1.000000 1.000000 0.500000
0.000000 0.000000 0.900000
0.112500 0.000000 0.900000
0.225000 0.000000 0.900000
0.337500 0.000000 0.900000
0.450000 0.000000 0.900000
0.562500 0.000000 0.900000
0.862500 0.000000 0.600000
1.000000 0.000000 0.600000
1.000000 0.000000 0.600000
0.000000 0.137500 0.900000
0.112500 0.137500 0.900000
0.225000 0.137500 0.900000
0.337500 0.137500 0.900000
0.450000 0.137500 0.900000
0.718750 0.131250 0.600000
0.862500 0.131250 0.600000
1.000000 0.131250 0.600000
1.000000 0.131250 0.600000
0.000000 0.275000 0.900000
0.112500 0.275000 0.900000
0.225000 0.275000 0.900000
0.337500 0.275000 0.900000
0.575000 0.262500 0.600000
0.718750 0.262500 0.600000
0.862500 0.262500 0.600000
1.000000 0.262500 0.600000
1.000000 0.262500 0.600000
0.000000 0.412500 0.900000
0.112500 0.412500 0.900000
0.225000 0.412500 0.900000
0.431250 0.393750 0.600000
0.575000 0.393750 0.600000
0.718750 0.393750 0.600000
0.862500 0.393750 0.600000
1.000000 0.393750 0.600000
1.000000 0.393750 0.600000
0.000000 0.550000 0.900000
0.112500 0.550000 0.900000
0.287500 0.525000 0.600000
0.431250 0.525000 0.600000
0.575000 0.525000 0.600000
0.718750 0.525000 0.600000
0.862500 0.525000 0.600000
1.000000 0.525000 0.600000
1.000000 0.525000 0.600000
0.000000 0.687500 0.900000
0.143750 0.656250 0.600000
0.287500 0.656250 0.600000
0.431250 0.656250 0.600000
0.575000 0.656250 0.600000
0.718750 0.656250 0.600000
0.862500 0.656250 0.600000
1.000000 0.656250 0.600000
1.000000 0.656250 0.600000
0.000000 0.787500 0.600000
0.143750 0.787500 0.600000
0.287500 0.787500 0.600000
0.431250 0.787500 0.600000
0.575000 0.787500 0.600000
0.718750 0.787500 0.600000
0.862500 0.787500 0.600000
1.000000 0.787500 0.600000
1.000000 0.787500 0.600000
0.000000 0.918750 0.600000
0.143750 0.918750 0.600000
0.287500 0.918750 0.600000
0.431250 0.918750 0.600000
0.575000 0.918750 0.600000
0.718750 0.918750 0.600000
0.862500 0.918750 0.600000
1.000000 0.918750 0.600000
1.000000 0.918750 0.600000
0.000000 1.000000 0.600000
0.143750 1.000000 0.600000
0.287500 1.000000 0.600000
0.431250 1.000000 0.600000
0.575000 1.000000 0.600000
0.718750 1.000000 0.600000
0.862500 1.000000 0.600000
1.000000 1.000000 0.600000
1.000000 1.000000 0.600000
0.000000 0.000000 1.000000
0.112500 0.000000 1.000000
0.225000 0.000000 1.000000
0.337500 0.000000 1.000000
0.450000 0.000000 1.000000
0.718750 0.000000 0.700000
0.862500 0.000000 0.700000
1.000000 0.000000 0.700000
1.000000 0.000000 0.700000
0.000000 0.137500 1.000000
0.112500 0.137500 1.000000
0.225000 0.137500 1.000000
0.337500 0.137500 1.000000
0.575000 0.131250 0.700000
0.718750 0.131250 0.700000
0.862500 0.131250 0.700000
1.000000 0.131250 0.700000
1.000000 0.131250 0.700000
0.000000 0.275000 1.000000
0.112500 0.275000 1.000000
0.225000 0.275000 1.000000
0.431250 0.262500 0.700000
0.575000 0.262500 0.700000
0.718750 0.262500 0.700000
0.862500 0.262500 0.700000
1.000000 0.262500 0.700000
1.000000 0.262500 0.700000
0.000000 0.412500 1.000000
0.112500 0.412500 1.000000
0.287500 0.393750 0.700000
0.431250 0.393750 0.700000
0.575000 0.393750 0.700000
0.718750 0.393750 0.700000
0.862500 0.393750 0.700000
1.000000 0.393750 0.700000
1.000000 0.393750 0.700000
0.000000 0.550000 1.000000
0.143750 0.525000 0.700000
0.287500 0.525000 0.700000
0.431250 0.525000 0.700000
0.575000 0.525000 0.700000
0.718750 0.525000 0.700000
0.862500 0.525000 0.700000
1.000000 0.525000 0.700000
1.000000 0.525000 0.700000
0.000000 0.656250 0.700000
0.143750 0.656250 0.700000
0.287500 0.656250 0.700000
0.431250 0.656250 0.700000
0.575000 0.656250 0.700000
0.718750 0.656250 0.700000
0.862500 0.656250 0.700000
1.000000 0.656250 0.700000
1.000000 0.656250 0.700000
0.000000 0.787500 0.700000
0.143750 0.787500 0.700000
0.287500 0.787500 0.700000
0.431250 0.787500 0.700000
0.575000 0.787500 0.700000
0.718750 0.787500 0.700000
0.862500 0.787500 0.700000
1.000000 0.787500 0.700000
1.000000 0.787500 0.700000
0.000000 0.918750 0.700000
0.143750 0.918750 0.700000
0.287500 0.918750 0.700000
0.431250 0.918750 0.700000
0.575000 0.918750 0.700000
0.718750 0.918750 0.700000
0.862500 0.918750 0.700000
1.000000 0.918750 0.700000
1.000000 0.918750 0.700000
0.000000 1.000000 0.700000
0.143750 1.000000 0.700000
0.287500 1.000000 0.700000
0.431250 1.000000 0.700000
0.575000 1.000000 0.700000
0.718750 1.000000 0.700000
0.862500 1.000000 0.700000
1.000000 1.000000 0.700000
1.000000 1.000000 0.700000
0.000000 0.000000 1.000000
0.112500 0.000000 1.000000
0.225000 0.000000 1.000000
0.337500 0.000000 1.000000
0.575000 0.000000 0.800000
0.718750 0.000000 0.800000
0.862500 0.000000 0.800000
1.000000 0.000000 0.800000
1.000000 0.000000 0.800000
0.000000 0.137500 1.000000
0.112500 0.137500 1.000000
0.225000 0.137500 1.000000
0.431250 0.131250 0.800000
0.575000 0.131250 0.800000
0.718750 0.131250 0.800000
0.862500 0.131250 0.800000
1.000000 0.131250 0.800000
1.000000 0.131250 0.800000
0.000000 0.275000 1.000000
0.112500 0.275000 1.000000
0.287500 0.262500 0.800000
0.431250 0.262500 0.800000
0.575000 0.262500 0.800000
0.718750 0.262500 0.800000
0.862500 0.262500 0.800000
1.000000 0.262500 0.800000
1.000000 0.262500 0.800000
0.000000 0.412500 1.000000
0.143750 0.393750 0.800000
0.287500 0.393750 0.800000
0.431250 0.393750 0.800000
0.575000 0.393750 0.800000
0.718750 0.393750 0.800000
0.862500 0.393750 0.800000
1.000000 0.393750 0.800000
1.000000 0.393750 0.800000
0.000000 0.525000 0.800000
0.143750 0.525000 0.800000
0.287500 0.525000 0.800000
0.431250 0.525000 0.800000
0.575000 0.525000 0.800000
0.718750 0.525000 0.800000
0.862500 0.525000 0.800000
1.000000 0.525000 0.800000
1.000000 0.525000 0.800000
0.000000 0.656250 0.800000
0.143750 0.656250 0.800000
0.287500 0.656250 0.800000
0.431250 0.656250 0.800000
0.575000 0.656250 0.800000
0.718750 0.656250 0.800000
0.862500 0.656250 0.800000
1.000000 0.656250 0.800000
1.000000 0.656250 0.800000
0.000000 0.787500 0.800000
0.143750 0.787500 0.800000
0.287500 0.787500 0.800000
0.431250 0.787500 0.800000
0.575000 0.787500 0.800000
0.718750 0.787500 0.800000
0.862500 0.787500 0.800000
1.000000 0.787500 0.800000
1.000000 0.787500 0.800000
0.000000 0.918750 0.800000
0.143750 0.918750 0.800000
0.287500 0.918750 0.800000
0.431250 0.918750 0.800000
0.575000 0.918750 0.800000
0.718750 0.918750 0.800000
0.862500 0.918750 0.800000
1.000000 0.918750 0.800000
1.000000 0.918750 0.800000
0.000000 1.000000 0.800000
0.143750 1.000000 0.800000
0.287500 1.000000 0.800000
0.431250 1.000000 0.800000
0.575000 1.000000 0.800000
0.718750 1.000000 0.800000
0.862500 1.000000 0.800000
1.000000 1.000000 0.800000
1.000000 1.000000 0.800000
