frontend/client/public/luts/creative/teal_orange.cube
TITLE "Cinematic Teal & Orange"
LUT_3D_SIZE 17
0.000000 0.000000 0.000000
0.056250 0.000000 0.000000
0.112500 0.000000 0.000000
0.168750 0.000000 0.000000
0.225000 0.000000 0.000000
0.281250 0.000000 0.000000
0.337500 0.000000 0.000000
0.393750 0.000000 0.000000
0.450000 0.000000 0.000000
0.506250 0.000000 0.000000
0.562500 0.000000 0.000000
0.618750 0.000000 0.000000
0.675000 0.000000 0.000000
0.731250 0.000000 0.000000
0.787500 0.000000 0.000000
0.843750 0.000000 0.000000
0.900000 0.000000 0.000000
0.000000 0.068750 0.000000
0.056250 0.068750 0.000000
0.112500 0.068750 0.000000
0.168750 0.068750 0.000000
0.225000 0.068750 0.000000
0.281250 0.068750 0.000000
0.337500 0.068750 0.000000
0.393750 0.068750 0.000000
0.450000 0.068750 0.000000
0.506250 0.068750 0.000000
0.562500 0.068750 0.000000
0.618750 0.068750 0.000000
0.675000 0.068750 0.000000
0.731250 0.068750 0.000000
0.787500 0.068750 0.000000
0.843750 0.068750 0.000000
0.900000 0.068750 0.000000
0.000000 0.137500 0.000000
0.056250 0.137500 0.000000
0.112500 0.137500 0.000000
0.168750 0.137500 0.000000
0.225000 0.137500 0.000000
0.281250 0.137500 0.000000
0.337500 0.137500 0.000000
0.393750 0.137500 0.000000
0.450000 0.137500 0.000000
0.506250 0.137500 0.000000
0.562500 0.137500 0.000000
0.618750 0.137500 0.000000
0.675000 0.137500 0.000000
0.731250 0.137500 0.000000
0.787500 0.137500 0.000000
0.843750 0.137500 0.000000
0.900000 0.137500 0.000000
0.000000 0.206250 0.000000
0.056250 0.206250 0.000000
0.112500 0.206250 0.000000
0.168750 0.206250 0.000000
0.225000 0.206250 0.000000
0.281250 0.206250 0.000000
0.337500 0.206250 0.000000
0.393750 0.206250 0.000000
0.450000 0.206250 0.000000
0.506250 0.206250 0.000000
0.562500 0.206250 0.000000
0.618750 0.206250 0.000000
0.675000 0.206250 0.000000
0.731250 0.206250 0.000000
0.787500 0.206250 0.000000
0.843750 0.206250 0.000000
0.900000 0.206250 0.000000
0.000000 0.275000 0.000000
0.056250 0.275000 0.000000
0.112500 0.275000 0.000000
0.168750 0.275000 0.000000
0.225000 0.275000 0.000000
0.281250 0.275000 0.000000
0.337500 0.275000 0.000000
0.393750 0.275000 0.000000
0.450000 0.275000 0.000000
0.506250 0.275000 0.000000
0.562500 0.275000 0.000000
0.618750 0.275000 0.000000
0.675000 0.275000 0.000000
0.731250 0.275000 0.000000
0.787500 0.275000 0.000000
0.843750 0.275000 0.000000
0.900000 0.275000 0.000000
0.000000 0.343750 0.000000
0.056250 0.343750 0.000000
0.112500 0.343750 0.000000
0.168750 0.343750 0.000000
0.225000 0.343750 0.000000
0.281250 0.343750 0.000000
0.337500 0.343750 0.000000
0.393750 0.343750 0.000000
0.450000 0.343750 0.000000
0.506250 0.343750 0.000000
0.562500 0.343750 0.000000
0.618750 0.343750 0.000000
0.675000 0.343750 0.000000
0.731250 0.343750 0.000000
0.787500 0.343750 0.000000
0.843750 0.343750 0.000000
0.900000 0.343750 0.000000
0.000000 0.412500 0.000000
0.056250 0.412500 0.000000
0.112500 0.412500 0.000000
0.168750 0.412500 0.000000
0.225000 0.412500 0.000000
0.281250 0.412500 0.000000
0.337500 0.412500 0.000000
0.393750 0.412500 0.000000
0.450000 0.412500 0.000000
0.506250 0.412500 0.000000
0.562500 0.412500 0.000000
0.618750 0.412500 0.000000
0.675000 0.412500 0.000000
0.731250 0.412500 0.000000
0.787500 0.412500 0.000000
0.843750 0.412500 0.000000
0.900000 0.412500 0.000000
0.000000 0.481250 0.000000
0.056250 0.481250 0.000000
0.112500 0.481250 0.000000
0.168750 0.481250 0.000000
0.225000 0.481250 0.000000
0.281250 0.481250 0.000000
0.337500 0.481250 0.000000
0.393750 0.481250 0.000000
0.450000 0.481250 0.000000
0.506250 0.481250 0.000000
0.562500 0.481250 0.000000
0.618750 0.481250 0.000000
0.675000 0.481250 0.000000
0.731250 0.481250 0.000000
0.787500 0.481250 0.000000
0.843750 0.481250 0.000000
0.900000 0.481250 0.000000
0.000000 0.550000 0.000000
0.056250 0.550000 0.000000
0.112500 0.550000 0.000000
0.168750 0.550000 0.000000
0.225000 0.550000 0.000000
0.281250 0.550000 0.000000
0.337500 0.550000 0.000000
0.393750 0.550000 0.000000
0.450000 0.550000 0.000000
0.506250 0.550000 0.000000
0.562500 0.550000 0.000000
0.618750 0.550000 0.000000
0.675000 0.550000 0.000000
0.731250 0.550000 0.000000
0.787500 0.550000 0.000000
0.843750 0.550000 0.000000
1.000000 0.525000 0.000000
0.000000 0.618750 0.000000
0.056250 0.618750 0.000000
0.112500 0.618750 0.000000
0.168750 0.618750 0.000000
0.225000 0.618750 0.000000
0.281250 0.618750 0.000000
0.337500 0.618750 0.000000
0.393750 0.618750 0.000000
0.450000 0.618750 0.000000
0.506250 0.618750 0.000000
0.562500 0.618750 0.000000
0.618750 0.618750 0.000000
0.675000 0.618750 0.000000
0.731250 0.618750 0.000000
0.787500 0.618750 0.000000
1.000000 0.590625 0.000000
1.000000 0.590625 0.000000
0.000000 0.687500 0.000000
0.056250 0.687500 0.000000
0.112500 0.687500 0.000000
0.168750 0.687500 0.000000
0.225000 0.687500 0.000000
0.281250 0.687500 0.000000
0.337500 0.687500 0.000000
0.393750 0.687500 0.000000
0.450000 0.687500 0.000000
0.506250 0.687500 0.000000
0.562500 0.687500 0.000000
0.618750 0.687500 0.000000
0.675000 0.687500 0.000000
0.731250 0.687500 0.000000
1.000000 0.656250 0.000000
1.000000 0.656250 0.000000
1.000000 0.656250 0.000000
0.000000 0.756250 0.000000
0.056250 0.756250 0.000000
0.112500 0.756250 0.000000
0.168750 0.756250 0.000000
0.225000 0.756250 0.000000
0.281250 0.756250 0.000000
0.337500 0.756250 0.000000
0.393750 0.756250 0.000000
0.450000 0.756250 0.000000
0.506250 0.756250 0.000000
0.562500 0.756250 0.000000
0.618750 0.756250 0.000000
0.675000 0.756250 0.000000
0.934375 0.721875 0.000000
1.000000 0.721875 0.000000
1.000000 0.721875 0.000000
1.000000 0.721875 0.000000
0.000000 0.825000 0.000000
0.056250 0.825000 0.000000
0.112500 0.825000 0.000000
0.168750 0.825000 0.000000
0.225000 0.825000 0.000000
0.281250 0.825000 0.000000
0.337500 0.825000 0.000000
0.393750 0.825000 0.000000
0.450000 0.825000 0.000000
0.506250 0.825000 0.000000
0.562500 0.825000 0.000000
0.618750 0.825000 0.000000
0.862500 0.787500 0.000000
0.934375 0.787500 0.000000
1.000000 0.787500 0.000000
1.000000 0.787500 0.000000
1.000000 0.787500 0.000000
0.000000 0.893750 0.000000
0.056250 0.893750 0.000000
0.112500 0.893750 0.000000
0.168750 0.893750 0.000000
0.225000 0.893750 0.000000
0.281250 0.893750 0.000000
0.337500 0.893750 0.000000
0.393750 0.893750 0.000000
0.450000 0.893750 0.000000
0.506250 0.893750 0.000000
0.562500 0.893750 0.000000
0.790625 0.853125 0.000000
0.862500 0.853125 0.000000
0.934375 0.853125 0.000000
1.000000 0.853125 0.000000
1.000000 0.853125 0.000000
1.000000 0.853125 0.000000
0.000000 0.962500 0.000000
0.056250 0.962500 0.000000
0.112500 0.962500 0.000000
0.168750 0.962500 0.000000
0.225000 0.962500 0.000000
0.281250 0.962500 0.000000
0.337500 0.962500 0.000000
0.393750 0.962500 0.000000
0.450000 0.962500 0.000000
0.506250 0.962500 0.000000
0.718750 0.918750 0.000000
0.790625 0.918750 0.000000
0.862500 0.918750 0.000000
0.934375 0.918750 0.000000
1.000000 0.918750 0.000000
1.000000 0.918750 0.000000
1.000000 0.918750 0.000000
0.000000 1.000000 0.000000
0.056250 1.000000 0.000000
0.112500 1.000000 0.000000
0.168750 1.000000 0.000000
0.225000 1.000000 0.000000
0.281250 1.000000 0.000000
0.337500 1.000000 0.000000
0.393750 1.000000 0.000000
0.450000 1.000000 0.000000
0.646875 0.984375 0.000000
0.718750 0.984375 0.000000
0.790625 0.984375 0.000000
0.862500 0.984375 0.000000
0.934375 0.984375 0.000000
1.000000 0.984375 0.000000
1.000000 0.984375 0.000000
1.000000 0.984375 0.000000
0.000000 1.000000 0.000000
0.056250 1.000000 0.000000
0.112500 1.000000 0.000000
0.168750 1.000000 0.000000
0.225000 1.000000 0.000000
0.281250 1.000000 0.000000
0.337500 1.000000 0.000000
0.393750 1.000000 0.000000
0.575000 1.000000 0.000000
0.646875 1.000000 0.000000
0.718750 1.000000 0.000000
0.790625 1.000000 0.000000
0.862500 1.000000 0.000000
0.934375 1.000000 0.000000
1.000000 1.000000 0.000000
1.000000 1.000000 0.000000
1.000000 1.000000 0.000000
0.000000 0.000000 0.075000
0.056250 0.000000 0.075000
0.112500 0.000000 0.075000
0.168750 0.000000 0.075000
0.225000 0.000000 0.075000
0.281250 0.000000 0.075000
0.337500 0.000000 0.075000
0.393750 0.000000 0.075000
0.450000 0.000000 0.075000
0.506250 0.000000 0.075000
0.562500 0.000000 0.075000
0.618750 0.000000 0.075000
0.675000 0.000000 0.075000
0.731250 0.000000 0.075000
0.787500 0.000000 0.075000
0.843750 0.000000 0.075000
0.900000 0.000000 0.075000
0.000000 0.068750 0.075000
0.056250 0.068750 0.075000
0.112500 0.068750 0.075000
0.168750 0.068750 0.075000
0.225000 0.068750 0.075000
0.281250 0.068750 0.075000
0.337500 0.068750 0.075000
0.393750 0.068750 0.075000
0.450000 0.068750 0.075000
0.506250 0.068750 0.075000
0.562500 0.068750 0.075000
0.618750 0.068750 0.075000
0.675000 0.068750 0.075000
0.731250 0.068750 0.075000
0.787500 0.068750 0.075000
0.843750 0.068750 0.075000
0.900000 0.068750 0.075000
0.000000 0.137500 0.075000
0.056250 0.137500 0.075000
0.112500 0.137500 0.075000
0.168750 0.137500 0.075000
0.225000 0.137500 0.075000
0.281250 0.137500 0.075000
0.337500 0.137500 0.075000
0.393750 0.137500 0.075000
0.450000 0.137500 0.075000
0.506250 0.137500 0.075000
0.562500 0.137500 0.075000
0.618750 0.137500 0.075000
0.675000 0.137500 0.075000
0.731250 0.137500 0.075000
0.787500 0.137500 0.075000
0.843750 0.137500 0.075000
0.900000 0.137500 0.075000
0.000000 0.206250 0.075000
0.056250 0.206250 0.075000
0.112500 0.206250 0.075000
0.168750 0.206250 0.075000
0.225000 0.206250 0.075000
0.281250 0.206250 0.075000
0.337500 0.206250 0.075000
0.393750 0.206250 0.075000
0.450000 0.206250 0.075000
0.506250 0.206250 0.075000
0.562500 0.206250 0.075000
0.618750 0.206250 0.075000
0.675000 0.206250 0.075000
0.731250 0.206250 0.075000
0.787500 0.206250 0.075000
0.843750 0.206250 0.075000
0.900000 0.206250 0.075000
0.000000 0.275000 0.075000
0.056250 0.275000 0.075000
0.112500 0.275000 0.075000
0.168750 0.275000 0.075000
0.225000 0.275000 0.075000
0.281250 0.275000 0.075000
0.337500 0.275000 0.075000
0.393750 0.275000 0.075000
0.450000 0.275000 0.075000
0.506250 0.275000 0.075000
0.562500 0.275000 0.075000
0.618750 0.275000 0.075000
0.675000 0.275000 0.075000
0.731250 0.275000 0.075000
0.787500 0.275000 0.075000
0.843750 0.275000 0.075000
0.900000 0.275000 0.075000
0.000000 0.343750 0.075000
0.056250 0.343750 0.075000
0.112500 0.343750 0.075000
0.168750 0.343750 0.075000
0.225000 0.343750 0.075000
0.281250 0.343750 0.075000
0.337500 0.343750 0.075000
0.393750 0.343750 0.075000
0.450000 0.343750 0.075000
0.506250 0.343750 0.075000
0.562500 0.343750 0.075000
0.618750 0.343750 0.075000
0.675000 0.343750 0.075000
0.731250 0.343750 0.075000
0.787500 0.343750 0.075000
0.843750 0.343750 0.075000
0.900000 0.343750 0.075000
0.000000 0.412500 0.075000
0.056250 0.412500 0.075000
0.112500 0.412500 0.075000
0.168750 0.412500 0.075000
0.225000 0.412500 0.075000
0.281250 0.412500 0.075000
0.337500 0.412500 0.075000
0.393750 0.412500 0.075000
0.450000 0.412500 0.075000
0.506250 0.412500 0.075000
0.562500 0.412500 0.075000
0.618750 0.412500 0.075000
0.675000 0.412500 0.075000
0.731250 0.412500 0.075000
0.787500 0.412500 0.075000
0.843750 0.412500 0.075000
0.900000 0.412500 0.075000
0.000000 0.481250 0.075000
0.056250 0.481250 0.075000
0.112500 0.481250 0.075000
0.168750 0.481250 0.075000
0.225000 0.481250 0.075000
0.281250 0.481250 0.075000
0.337500 0.481250 0.075000
0.393750 0.481250 0.075000
0.450000 0.481250 0.075000
0.506250 0.481250 0.075000
0.562500 0.481250 0.075000
0.618750 0.481250 0.075000
0.675000 0.481250 0.075000
0.731250 0.481250 0.075000
0.787500 0.481250 0.075000
0.843750 0.481250 0.075000
1.000000 0.459375 0.050000
0.000000 0.550000 0.075000
0.056250 0.550000 0.075000
0.112500 0.550000 0.075000
0.168750 0.550000 0.075000
0.225000 0.550000 0.075000
0.281250 0.550000 0.075000
0.337500 0.550000 0.075000
0.393750 0.550000 0.075000
0.450000 0.550000 0.075000
0.506250 0.550000 0.075000
0.562500 0.550000 0.075000
0.618750 0.550000 0.075000
0.675000 0.550000 0.075000
0.731250 0.550000 0.075000
0.787500 0.550000 0.075000
1.000000 0.525000 0.050000
1.000000 0.525000 0.050000
0.000000 0.618750 0.075000
0.056250 0.618750 0.075000
0.112500 0.618750 0.075000
0.168750 0.618750 0.075000
0.225000 0.618750 0.075000
0.281250 0.618750 0.075000
0.337500 0.618750 0.075000
0.393750 0.618750 0.075000
0.450000 0.618750 0.075000
0.506250 0.618750 0.075000
0.562500 0.618750 0.075000
0.618750 0.618750 0.075000
0.675000 0.618750 0.075000
0.731250 0.618750 0.075000
1.000000 0.590625 0.050000
1.000000 0.590625 0.050000
1.000000 0.590625 0.050000
0.000000 0.687500 0.075000
0.056250 0.687500 0.075000
0.112500 0.687500 0.075000
0.168750 0.687500 0.075000
0.225000 0.687500 0.075000
0.281250 0.687500 0.075000
0.337500 0.687500 0.075000
0.393750 0.687500 0.075000
0.450000 0.687500 0.075000
0.506250 0.687500 0.075000
0.562500 0.687500 0.075000
0.618750 0.687500 0.075000
0.675000 0.687500 0.075000
0.934375 0.656250 0.050000
1.000000 0.656250 0.050000
1.000000 0.656250 0.050000
1.000000 0.656250 0.050000
0.000000 0.756250 0.075000
0.056250 0.756250 0.075000
0.112500 0.756250 0.075000
0.168750 0.756250 0.075000
0.225000 0.756250 0.075000
0.281250 0.756250 0.075000
0.337500 0.756250 0.075000
0.393750 0.756250 0.075000
0.450000 0.756250 0.075000
0.506250 0.756250 0.075000
0.562500 0.756250 0.075000
0.618750 0.756250 0.075000
0.862500 0.721875 0.050000
0.934375 0.721875 0.050000
1.000000 0.721875 0.050000
1.000000 0.721875 0.050000
1.000000 0.721875 0.050000
0.000000 0.825000 0.075000
0.056250 0.825000 0.075000
0.112500 0.825000 0.075000
0.168750 0.825000 0.075000
0.225000 0.825000 0.075000
0.281250 0.825000 0.075000
0.337500 0.825000 0.075000
0.393750 0.825000 0.075000
0.450000 0.825000 0.075000
0.506250 0.825000 0.075000
0.562500 0.825000 0.075000
0.790625 0.787500 0.050000
0.862500 0.787500 0.050000
0.934375 0.787500 0.050000
1.000000 0.787500 0.050000
1.000000 0.787500 0.050000
1.000000 0.787500 0.050000
0.000000 0.893750 0.075000
0.056250 0.893750 0.075000
0.112500 0.893750 0.075000
0.168750 0.893750 0.075000
0.225000 0.893750 0.075000
0.281250 0.893750 0.075000
0.337500 0.893750 0.075000
0.393750 0.893750 0.075000
0.450000 0.893750 0.075000
0.506250 0.893750 0.075000
0.718750 0.853125 0.050000
0.790625 0.853125 0.050000
0.862500 0.853125 0.050000
0.934375 0.853125 0.050000
1.000000 0.853125 0.050000
1.000000 0.853125 0.050000
1.000000 0.853125 0.050000
0.000000 0.962500 0.075000
0.056250 0.962500 0.075000
0.112500 0.962500 0.075000
0.168750 0.962500 0.075000
0.225000 0.962500 0.075000
0.281250 0.962500 0.075000
0.337500 0.962500 0.075000
0.393750 0.962500 0.075000
0.450000 0.962500 0.075000
0.646875 0.918750 0.050000
0.718750 0.918750 0.050000
0.790625 0.918750 0.050000
0.862500 0.918750 0.050000
0.934375 0.918750 0.050000
1.000000 0.918750 0.050000
1.000000 0.918750 0.050000
1.000000 0.918750 0.050000
0.000000 1.000000 0.075000
0.056250 1.000000 0.075000
0.112500 1.000000 0.075000
0.168750 1.000000 0.075000
0.225000 1.000000 0.075000
0.281250 1.000000 0.075000
0.337500 1.000000 0.075000
0.393750 1.000000 0.075000
0.575000 0.984375 0.050000
0.646875 0.984375 0.050000
0.718750 0.984375 0.050000
0.790625 0.984375 0.050000
0.862500 0.984375 0.050000
0.934375 0.984375 0.050000
1.000000 0.984375 0.050000
1.000000 0.984375 0.050000
1.000000 0.984375 0.050000
0.000000 1.000000 0.075000
0.056250 1.000000 0.075000
0.112500 1.000000 0.075000
0.168750 1.000000 0.075000
0.225000 1.000000 0.075000
0.281250 1.000000 0.075000
0.337500 1.000000 0.075000
0.503125 1.000000 0.050000
0.575000 1.000000 0.050000
0.646875 1.000000 0.050000
0.718750 1.000000 0.050000
0.790625 1.000000 0.050000
0.862500 1.000000 0.050000
0.934375 1.000000 0.050000
1.000000 1.000000 0.050000
1.000000 1.000000 0.050000
1.000000 1.000000 0.050000
0.000000 0.000000 0.150000
0.056250 0.000000 0.150000
0.112500 0.000000 0.150000
0.168750 0.000000 0.150000
0.225000 0.000000 0.150000
0.281250 0.000000 0.150000
0.337500 0.000000 0.150000
0.393750 0.000000 0.150000
0.450000 0.000000 0.150000
0.506250 0.000000 0.150000
0.562500 0.000000 0.150000
0.618750 0.000000 0.150000
0.675000 0.000000 0.150000
0.731250 0.000000 0.150000
0.787500 0.000000 0.150000
0.843750 0.000000 0.150000
0.900000 0.000000 0.150000
0.000000 0.068750 0.150000
0.056250 0.068750 0.150000
0.112500 0.068750 0.150000
0.168750 0.068750 0.150000
0.225000 0.068750 0.150000
0.281250 0.068750 0.150000
0.337500 0.068750 0.150000
0.393750 0.068750 0.150000
0.450000 0.068750 0.150000
0.506250 0.068750 0.150000
0.562500 0.068750 0.150000
0.618750 0.068750 0.150000
0.675000 0.068750 0.150000
0.731250 0.068750 0.150000
0.787500 0.068750 0.150000
0.843750 0.068750 0.150000
0.900000 0.068750 0.150000
0.000000 0.137500 0.150000
0.056250 0.137500 0.150000
0.112500 0.137500 0.150000
0.168750 0.137500 0.150000
0.225000 0.137500 0.150000
0.281250 0.137500 0.150000
0.337500 0.137500 0.150000
0.393750 0.137500 0.150000
0.450000 0.137500 0.150000
0.506250 0.137500 0.150000
0.562500 0.137500 0.150000
0.618750 0.137500 0.150000
0.675000 0.137500 0.150000
0.731250 0.137500 0.150000
0.787500 0.137500 0.150000
0.843750 0.137500 0.150000
0.900000 0.137500 0.150000
0.000000 0.206250 0.150000
0.056250 0.206250 0.150000
0.112500 0.206250 0.150000
0.168750 0.206250 0.150000
0.225000 0.206250 0.150000
0.281250 0.206250 0.150000
0.337500 0.206250 0.150000
0.393750 0.206250 0.150000
0.450000 0.206250 0.150000
0.506250 0.206250 0.150000
0.562500 0.206250 0.150000
0.618750 0.206250 0.150000
0.675000 0.206250 0.150000
0.731250 0.206250 0.150000
0.787500 0.206250 0.150000
0.843750 0.206250 0.150000
0.900000 0.206250 0.150000
0.000000 0.275000 0.150000
0.056250 0.275000 0.150000
0.112500 0.275000 0.150000
0.168750 0.275000 0.150000
0.225000 0.275000 0.150000
0.281250 0.275000 0.150000
0.337500 0.275000 0.150000
0.393750 0.275000 0.150000
0.450000 0.275000 0.150000
0.506250 0.275000 0.150000
0.562500 0.275000 0.150000
0.618750 0.275000 0.150000
0.675000 0.275000 0.150000
0.731250 0.275000 0.150000
0.787500 0.275000 0.150000
0.843750 0.275000 0.150000
0.900000 0.275000 0.150000
0.000000 0.343750 0.150000
0.056250 0.343750 0.150000
0.112500 0.343750 0.150000
0.168750 0.343750 0.150000
0.225000 0.343750 0.150000
0.281250 0.343750 0.150000
0.337500 0.343750 0.150000
0.393750 0.343750 0.150000
0.450000 0.343750 0.150000
0.506250 0.343750 0.150000
0.562500 0.343750 0.150000
0.618750 0.343750 0.150000
0.675000 0.343750 0.150000
0.731250 0.343750 0.150000
0.787500 0.343750 0.150000
0.843750 0.343750 0.150000
0.900000 0.343750 0.150000
0.000000 0.412500 0.150000
0.056250 0.412500 0.150000
0.112500 0.412500 0.150000
0.168750 0.412500 0.150000
0.225000 0.412500 0.150000
0.281250 0.412500 0.150000
0.337500 0.412500 0.150000
0.393750 0.412500 0.150000
0.450000 0.412500 0.150000
0.506250 0.412500 0.150000
0.562500 0.412500 0.150000
0.618750 0.412500 0.150000
0.675000 0.412500 0.150000
0.731250 0.412500 0.150000
0.787500 0.412500 0.150000
0.843750 0.412500 0.150000
1.000000 0.393750 0.100000
0.000000 0.481250 0.150000
0.056250 0.481250 0.150000
0.112500 0.481250 0.150000
0.168750 0.481250 0.150000
0.225000 0.481250 0.150000
0.281250 0.481250 0.150000
0.337500 0.481250 0.150000
0.393750 0.481250 0.150000
0.450000 0.481250 0.150000
0.506250 0.481250 0.150000
0.562500 0.481250 0.150000
0.618750 0.481250 0.150000
0.675000 0.481250 0.150000
0.731250 0.481250 0.150000
0.787500 0.481250 0.150000
1.000000 0.459375 0.100000
1.000000 0.459375 0.100000
0.000000 0.550000 0.150000
0.056250 0.550000 0.150000
0.112500 0.550000 0.150000
0.168750 0.550000 0.150000
0.225000 0.550000 0.150000
0.281250 0.550000 0.150000
0.337500 0.550000 0.150000
0.393750 0.550000 0.150000
0.450000 0.550000 0.150000
0.506250 0.550000 0.150000
0.562500 0.550000 0.150000
0.618750 0.550000 0.150000
0.675000 0.550000 0.150000
0.731250 0.550000 0.150000
1.000000 0.525000 0.100000
1.000000 0.525000 0.100000
1.000000 0.525000 0.100000
0.000000 0.618750 0.150000
0.056250 0.618750 0.150000
0.112500 0.618750 0.150000
0.168750 0.618750 0.150000
0.225000 0.618750 0.150000
0.281250 0.618750 0.150000
0.337500 0.618750 0.150000
0.393750 0.618750 0.150000
0.450000 0.618750 0.150000
0.506250 0.618750 0.150000
0.562500 0.618750 0.150000
0.618750 0.618750 0.150000
0.675000 0.618750 0.150000
0.934375 0.590625 0.100000
1.000000 0.590625 0.100000
1.000000 0.590625 0.100000
1.000000 0.590625 0.100000
0.000000 0.687500 0.150000
0.056250 0.687500 0.150000
0.112500 0.687500 0.150000
0.168750 0.687500 0.150000
0.225000 0.687500 0.150000
0.281250 0.687500 0.150000
0.337500 0.687500 0.150000
0.393750 0.687500 0.150000
0.450000 0.687500 0.150000
0.506250 0.687500 0.150000
0.562500 0.687500 0.150000
0.618750 0.687500 0.150000
0.862500 0.656250 0.100000
0.934375 0.656250 0.100000
1.000000 0.656250 0.100000
1.000000 0.656250 0.100000
1.000000 0.656250 0.100000
0.000000 0.756250 0.150000
0.056250 0.756250 0.150000
0.112500 0.756250 0.150000
0.168750 0.756250 0.150000
0.225000 0.756250 0.150000
0.281250 0.756250 0.150000
0.337500 0.756250 0.150000
0.393750 0.756250 0.150000
0.450000 0.756250 0.150000
0.506250 0.756250 0.150000
0.562500 0.756250 0.150000
0.790625 0.721875 0.100000
0.862500 0.721875 0.100000
0.934375 0.721875 0.100000
1.000000 0.721875 0.100000
1.000000 0.721875 0.100000
1.000000 0.721875 0.100000
0.000000 0.825000 0.150000
0.056250 0.825000 0.150000
0.112500 0.825000 0.150000
0.168750 0.825000 0.150000
0.225000 0.825000 0.150000
0.281250 0.825000 0.150000
0.337500 0.825000 0.150000
0.393750 0.825000 0.150000
0.450000 0.825000 0.150000
0.506250 0.825000 0.150000
0.718750 0.787500 0.100000
0.790625 0.787500 0.100000
0.862500 0.787500 0.100000
0.934375 0.787500 0.100000
1.000000 0.787500 0.100000
1.000000 0.787500 0.100000
1.000000 0.787500 0.100000
0.000000 0.893750 0.150000
0.056250 0.893750 0.150000
0.112500 0.893750 0.150000
0.168750 0.893750 0.150000
0.225000 0.893750 0.150000
0.281250 0.893750 0.150000
0.337500 0.893750 0.150000
0.393750 0.893750 0.150000
0.450000 0.893750 0.150000
0.646875 0.853125 0.100000
0.718750 0.853125 0.100000
0.790625 0.853125 0.100000
0.862500 0.853125 0.100000
0.934375 0.853125 0.100000
1.000000 0.853125 0.100000
1.000000 0.853125 0.100000
1.000000 0.853125 0.100000
0.000000 0.962500 0.150000
0.056250 0.962500 0.150000
0.112500 0.962500 0.150000
0.168750 0.962500 0.150000
0.225000 0.962500 0.150000
0.281250 0.962500 0.150000
0.337500 0.962500 0.150000
0.393750 0.962500 0.150000
0.575000 0.918750 0.100000
0.646875 0.918750 0.100000
0.718750 0.918750 0.100000
0.790625 0.918750 0.100000
0.862500 0.918750 0.100000
0.934375 0.918750 0.100000
1.000000 0.918750 0.100000
1.000000 0.918750 0.100000
1.000000 0.918750 0.100000
0.000000 1.000000 0.150000
0.056250 1.000000 0.150000
0.112500 1.000000 0.150000
0.168750 1.000000 0.150000
0.225000 1.000000 0.150000
0.281250 1.000000 0.150000
0.337500 1.000000 0.150000
0.503125 0.984375 0.100000
0.575000 0.984375 0.100000
0.646875 0.984375 0.100000
0.718750 0.984375 0.100000
0.790625 0.984375 0.100000
0.862500 0.984375 0.100000
0.934375 0.984375 0.100000
1.000000 0.984375 0.100000
1.000000 0.984375 0.100000
1.000000 0.984375 0.100000
0.000000 1.000000 0.150000
0.056250 1.000000 0.150000
0.112500 1.000000 0.150000
0.168750 1.000000 0.150000
0.225000 1.000000 0.150000
0.281250 1.000000 0.150000
0.431250 1.000000 0.100000
0.503125 1.000000 0.100000
0.575000 1.000000 0.100000
0.646875 1.000000 0.100000
0.718750 1.000000 0.100000
0.790625 1.000000 0.100000
0.862500 1.000000 0.100000
0.934375 1.000000 0.100000
1.000000 1.000000 0.100000
1.000000 1.000000 0.100000
1.000000 1.000000 0.100000
0.000000 0.000000 0.225000
0.056250 0.000000 0.225000
0.112500 0.000000 0.225000
0.168750 0.000000 0.225000
0.225000 0.000000 0.225000
0.281250 0.000000 0.225000
0.337500 0.000000 0.225000
0.393750 0.000000 0.225000
0.450000 0.000000 0.225000
0.506250 0.000000 0.225000
0.562500 0.000000 0.225000
0.618750 0.000000 0.225000
0.675000 0.000000 0.225000
0.731250 0.000000 0.225000
0.787500 0.000000 0.225000
0.843750 0.000000 0.225000
0.900000 0.000000 0.225000
0.000000 0.068750 0.225000
0.056250 0.068750 0.225000
0.112500 0.068750 0.225000
