frontend/client/public/luts/creative/vintage_film.cube
TITLE "Vintage Film"
LUT_3D_SIZE 17
0.101000 0.096500 0.089000
0.158375 0.096500 0.089000
0.215750 0.096500 0.089000
0.273125 0.096500 0.089000
0.330500 0.096500 0.089000
0.387875 0.096500 0.089000
0.445250 0.096500 0.089000
0.502625 0.096500 0.089000
0.560000 0.096500 0.089000
0.617375 0.096500 0.089000
0.674750 0.096500 0.089000
0.732125 0.096500 0.089000
0.789500 0.096500 0.089000
0.846875 0.096500 0.089000
0.904250 0.096500 0.089000
0.961625 0.096500 0.089000
1.000000 0.096500 0.089000
0.101000 0.150687 0.089000
0.158375 0.150687 0.089000
0.215750 0.150687 0.089000
0.273125 0.150687 0.089000
0.330500 0.150687 0.089000
0.387875 0.150687 0.089000
0.445250 0.150687 0.089000
0.502625 0.150687 0.089000
0.560000 0.150687 0.089000
0.617375 0.150687 0.089000
0.674750 0.150687 0.089000
0.732125 0.150687 0.089000
0.789500 0.150687 0.089000
0.846875 0.150687 0.089000
0.904250 0.150687 0.089000
0.961625 0.150687 0.089000
1.000000 0.150687 0.089000
0.101000 0.204875 0.089000
0.158375 0.204875 0.089000
0.215750 0.204875 0.089000
0.273125 0.204875 0.089000
0.330500 0.204875 0.089000
0.387875 0.204875 0.089000
0.445250 0.204875 0.089000
0.502625 0.204875 0.089000
0.560000 0.204875 0.089000
0.617375 0.204875 0.089000
0.674750 0.204875 0.089000
0.732125 0.204875 0.089000
0.789500 0.204875 0.089000
0.846875 0.204875 0.089000
0.904250 0.204875 0.089000
0.961625 0.204875 0.089000
1.000000 0.204875 0.089000
0.101000 0.259063 0.089000
0.158375 0.259063 0.089000
0.215750 0.259063 0.089000
0.273125 0.259063 0.089000
0.330500 0.259063 0.089000
0.387875 0.259063 0.089000
0.445250 0.259063 0.089000
0.502625 0.259063 0.089000
0.560000 0.259063 0.089000
0.617375 0.259063 0.089000
0.674750 0.259063 0.089000
0.732125 0.259063 0.089000
0.789500 0.259063 0.089000
0.846875 0.259063 0.089000
0.904250 0.259063 0.089000
0.961625 0.259063 0.089000
1.000000 0.259063 0.089000
0.101000 0.313250 0.089000
0.158375 0.313250 0.089000
0.215750 0.313250 0.089000
0.273125 0.313250 0.089000
0.330500 0.313250 0.089000
0.387875 0.313250 0.089000
0.445250 0.313250 0.089000
0.502625 0.313250 0.089000
0.560000 0.313250 0.089000
0.617375 0.313250 0.089000
0.674750 0.313250 0.089000
0.732125 0.313250 0.089000
0.789500 0.313250 0.089000
0.846875 0.313250 0.089000
0.904250 0.313250 0.089000
0.961625 0.313250 0.089000
1.000000 0.313250 0.089000
0.101000 0.367438 0.089000
0.158375 0.367438 0.089000
0.215750 0.367438 0.089000
0.273125 0.367438 0.089000
0.330500 0.367438 0.089000
0.387875 0.367438 0.089000
0.445250 0.367438 0.089000
0.502625 0.367438 0.089000
0.560000 0.367438 0.089000
0.617375 0.367438 0.089000
0.674750 0.367438 0.089000
0.732125 0.367438 0.089000
0.789500 0.367438 0.089000
0.846875 0.367438 0.089000
0.904250 0.367438 0.089000
0.961625 0.367438 0.089000
1.000000 0.367438 0.089000
0.101000 0.421625 0.089000
0.158375 0.421625 0.089000
0.215750 0.421625 0.089000
0.273125 0.421625 0.089000
0.330500 0.421625 0.089000
0.387875 0.421625 0.089000
0.445250 0.421625 0.089000
0.502625 0.421625 0.089000
0.560000 0.421625 0.089000
0.617375 0.421625 0.089000
0.674750 0.421625 0.089000
0.732125 0.421625 0.089000
0.789500 0.421625 0.089000
0.846875 0.421625 0.089000
0.904250 0.421625 0.089000
0.961625 0.421625 0.089000
1.000000 0.421625 0.089000
0.101000 0.475813 0.089000
0.158375 0.475813 0.089000
0.215750 0.475813 0.089000
0.273125 0.475813 0.089000
0.330500 0.475813 0.089000
0.387875 0.475813 0.089000
0.445250 0.475813 0.089000
0.502625 0.475813 0.089000
0.560000 0.475813 0.089000
0.617375 0.475813 0.089000
0.674750 0.475813 0.089000
0.732125 0.475813 0.089000
0.789500 0.475813 0.089000
0.846875 0.475813 0.089000
0.904250 0.475813 0.089000
0.961625 0.475813 0.089000
1.000000 0.475813 0.089000
0.101000 0.530000 0.089000
0.158375 0.530000 0.089000
0.215750 0.530000 0.089000
0.273125 0.530000 0.089000
0.330500 0.530000 0.089000
0.387875 0.530000 0.089000
0.445250 0.530000 0.089000
0.502625 0.530000 0.089000
0.560000 0.530000 0.089000
0.617375 0.530000 0.089000
0.674750 0.530000 0.089000
0.732125 0.530000 0.089000
0.789500 0.530000 0.089000
0.846875 0.530000 0.089000
0.904250 0.530000 0.089000
0.961625 0.530000 0.089000
1.000000 0.530000 0.089000
0.101000 0.584187 0.089000
0.158375 0.584187 0.089000
0.215750 0.584187 0.089000
0.273125 0.584187 0.089000
0.330500 0.584187 0.089000
0.387875 0.584187 0.089000
0.445250 0.584187 0.089000
0.502625 0.584187 0.089000
0.560000 0.584187 0.089000
0.617375 0.584187 0.089000
0.674750 0.584187 0.089000
0.732125 0.584187 0.089000
0.789500 0.584187 0.089000
0.846875 0.584187 0.089000
0.904250 0.584187 0.089000
0.961625 0.584187 0.089000
1.000000 0.584187 0.089000
0.101000 0.638375 0.089000
0.158375 0.638375 0.089000
0.215750 0.638375 0.089000
0.273125 0.638375 0.089000
0.330500 0.638375 0.089000
0.387875 0.638375 0.089000
0.445250 0.638375 0.089000
0.502625 0.638375 0.089000
0.560000 0.638375 0.089000
0.617375 0.638375 0.089000
0.674750 0.638375 0.089000
0.732125 0.638375 0.089000
0.789500 0.638375 0.089000
0.846875 0.638375 0.089000
0.904250 0.638375 0.089000
0.961625 0.638375 0.089000
1.000000 0.638375 0.089000
0.101000 0.692563 0.089000
0.158375 0.692563 0.089000
0.215750 0.692563 0.089000
0.273125 0.692563 0.089000
0.330500 0.692563 0.089000
0.387875 0.692563 0.089000
0.445250 0.692563 0.089000
0.502625 0.692563 0.089000
0.560000 0.692563 0.089000
0.617375 0.692563 0.089000
0.674750 0.692563 0.089000
0.732125 0.692563 0.089000
0.789500 0.692563 0.089000
0.846875 0.692563 0.089000
0.904250 0.692563 0.089000
0.961625 0.692563 0.089000
1.000000 0.692563 0.089000
0.101000 0.746750 0.089000
0.158375 0.746750 0.089000
0.215750 0.746750 0.089000
0.273125 0.746750 0.089000
0.330500 0.746750 0.089000
0.387875 0.746750 0.089000
0.445250 0.746750 0.089000
0.502625 0.746750 0.089000
0.560000 0.746750 0.089000
0.617375 0.746750 0.089000
0.674750 0.746750 0.089000
0.732125 0.746750 0.089000
0.789500 0.746750 0.089000
0.846875 0.746750 0.089000
0.904250 0.746750 0.089000
0.961625 0.746750 0.089000
1.000000 0.746750 0.089000
0.101000 0.800938 0.089000
0.158375 0.800938 0.089000
0.215750 0.800938 0.089000
0.273125 0.800938 0.089000
0.330500 0.800938 0.089000
0.387875 0.800938 0.089000
0.445250 0.800938 0.089000
0.502625 0.800938 0.089000
0.560000 0.800938 0.089000
0.617375 0.800938 0.089000
0.674750 0.800938 0.089000
0.732125 0.800938 0.089000
0.789500 0.800938 0.089000
0.846875 0.800938 0.089000
0.904250 0.800938 0.089000
0.961625 0.800938 0.089000
1.000000 0.800938 0.089000
0.101000 0.855125 0.089000
0.158375 0.855125 0.089000
0.215750 0.855125 0.089000
0.273125 0.855125 0.089000
0.330500 0.855125 0.089000
0.387875 0.855125 0.089000
0.445250 0.855125 0.089000
0.502625 0.855125 0.089000
0.560000 0.855125 0.089000
0.617375 0.855125 0.089000
0.674750 0.855125 0.089000
0.732125 0.855125 0.089000
0.789500 0.855125 0.089000
0.846875 0.855125 0.089000
0.904250 0.855125 0.089000
0.961625 0.855125 0.089000
1.000000 0.855125 0.089000
0.101000 0.909312 0.089000
0.158375 0.909312 0.089000
0.215750 0.909312 0.089000
0.273125 0.909312 0.089000
0.330500 0.909312 0.089000
0.387875 0.909312 0.089000
0.445250 0.909312 0.089000
0.502625 0.909312 0.089000
0.560000 0.909312 0.089000
0.617375 0.909312 0.089000
0.674750 0.909312 0.089000
0.732125 0.909312 0.089000
0.789500 0.909312 0.089000
0.846875 0.909312 0.089000
0.904250 0.909312 0.089000
0.961625 0.909312 0.089000
1.000000 0.909312 0.089000
0.101000 0.963500 0.089000
0.158375 0.963500 0.089000
0.215750 0.963500 0.089000
0.273125 0.963500 0.089000
0.330500 0.963500 0.089000
0.387875 0.963500 0.089000
0.445250 0.963500 0.089000
0.502625 0.963500 0.089000
0.560000 0.963500 0.089000
0.617375 0.963500 0.089000
0.674750 0.963500 0.089000
0.732125 0.963500 0.089000
0.789500 0.963500 0.089000
0.846875 0.963500 0.089000
0.904250 0.963500 0.089000
0.961625 0.963500 0.089000
1.000000 0.963500 0.089000
0.101000 0.096500 0.137875
0.158375 0.096500 0.137875
0.215750 0.096500 0.137875
0.273125 0.096500 0.137875
0.330500 0.096500 0.137875
0.387875 0.096500 0.137875
0.445250 0.096500 0.137875
0.502625 0.096500 0.137875
0.560000 0.096500 0.137875
0.617375 0.096500 0.137875
0.674750 0.096500 0.137875
0.732125 0.096500 0.137875
0.789500 0.096500 0.137875
0.846875 0.096500 0.137875
0.904250 0.096500 0.137875
0.961625 0.096500 0.137875
1.000000 0.096500 0.137875
0.101000 0.150687 0.137875
0.158375 0.150687 0.137875
0.215750 0.150687 0.137875
0.273125 0.150687 0.137875
0.330500 0.150687 0.137875
0.387875 0.150687 0.137875
0.445250 0.150687 0.137875
0.502625 0.150687 0.137875
0.560000 0.150687 0.137875
0.617375 0.150687 0.137875
0.674750 0.150687 0.137875
0.732125 0.150687 0.137875
0.789500 0.150687 0.137875
0.846875 0.150687 0.137875
0.904250 0.150687 0.137875
0.961625 0.150687 0.137875
1.000000 0.150687 0.137875
0.101000 0.204875 0.137875
0.158375 0.204875 0.137875
0.215750 0.204875 0.137875
0.273125 0.204875 0.137875
0.330500 0.204875 0.137875
0.387875 0.204875 0.137875
0.445250 0.204875 0.137875
0.502625 0.204875 0.137875
0.560000 0.204875 0.137875
0.617375 0.204875 0.137875
0.674750 0.204875 0.137875
0.732125 0.204875 0.137875
0.789500 0.204875 0.137875
0.846875 0.204875 0.137875
0.904250 0.204875 0.137875
0.961625 0.204875 0.137875
1.000000 0.204875 0.137875
0.101000 0.259063 0.137875
0.158375 0.259063 0.137875
0.215750 0.259063 0.137875
0.273125 0.259063 0.137875
0.330500 0.259063 0.137875
0.387875 0.259063 0.137875
0.445250 0.259063 0.137875
0.502625 0.259063 0.137875
0.560000 0.259063 0.137875
0.617375 0.259063 0.137875
0.674750 0.259063 0.137875
0.732125 0.259063 0.137875
0.789500 0.259063 0.137875
0.846875 0.259063 0.137875
0.904250 0.259063 0.137875
0.961625 0.259063 0.137875
1.000000 0.259063 0.137875
0.101000 0.313250 0.137875
0.158375 0.313250 0.137875
0.215750 0.313250 0.137875
0.273125 0.313250 0.137875
0.330500 0.313250 0.137875
0.387875 0.313250 0.137875
0.445250 0.313250 0.137875
0.502625 0.313250 0.137875
0.560000 0.313250 0.137875
0.617375 0.313250 0.137875
0.674750 0.313250 0.137875
0.732125 0.313250 0.137875
0.789500 0.313250 0.137875
0.846875 0.313250 0.137875
0.904250 0.313250 0.137875
0.961625 0.313250 0.137875
1.000000 0.313250 0.137875
0.101000 0.367438 0.137875
0.158375 0.367438 0.137875
0.215750 0.367438 0.137875
0.273125 0.367438 0.137875
0.330500 0.367438 0.137875
0.387875 0.367438 0.137875
0.445250 0.367438 0.137875
0.502625 0.367438 0.137875
0.560000 0.367438 0.137875
0.617375 0.367438 0.137875
0.674750 0.367438 0.137875
0.732125 0.367438 0.137875
0.789500 0.367438 0.137875
0.846875 0.367438 0.137875
0.904250 0.367438 0.137875
0.961625 0.367438 0.137875
1.000000 0.367438 0.137875
0.101000 0.421625 0.137875
0.158375 0.421625 0.137875
0.215750 0.421625 0.137875
0.273125 0.421625 0.137875
0.330500 0.421625 0.137875
0.387875 0.421625 0.137875
0.445250 0.421625 0.137875
0.502625 0.421625 0.137875
0.560000 0.421625 0.137875
0.617375 0.421625 0.137875
0.674750 0.421625 0.137875
0.732125 0.421625 0.137875
0.789500 0.421625 0.137875
0.846875 0.421625 0.137875
0.904250 0.421625 0.137875
0.961625 0.421625 0.137875
1.000000 0.421625 0.137875
0.101000 0.475813 0.137875
0.158375 0.475813 0.137875
0.215750 0.475813 0.137875
0.273125 0.475813 0.137875
0.330500 0.475813 0.137875
0.387875 0.475813 0.137875
0.445250 0.475813 0.137875
0.502625 0.475813 0.137875
0.560000 0.475813 0.137875
0.617375 0.475813 0.137875
0.674750 0.475813 0.137875
0.732125 0.475813 0.137875
0.789500 0.475813 0.137875
0.846875 0.475813 0.137875
0.904250 0.475813 0.137875
0.961625 0.475813 0.137875
1.000000 0.475813 0.137875
0.101000 0.530000 0.137875
0.158375 0.530000 0.137875
0.215750 0.530000 0.137875
0.273125 0.530000 0.137875
0.330500 0.530000 0.137875
0.387875 0.530000 0.137875
0.445250 0.530000 0.137875
0.502625 0.530000 0.137875
0.560000 0.530000 0.137875
0.617375 0.530000 0.137875
0.674750 0.530000 0.137875
0.732125 0.530000 0.137875
0.789500 0.530000 0.137875
0.846875 0.530000 0.137875
0.904250 0.530000 0.137875
0.961625 0.530000 0.137875
1.000000 0.530000 0.137875
0.101000 0.584187 0.137875
0.158375 0.584187 0.137875
0.215750 0.584187 0.137875
0.273125 0.584187 0.137875
0.330500 0.584187 0.137875
0.387875 0.584187 0.137875
0.445250 0.584187 0.137875
0.502625 0.584187 0.137875
0.560000 0.584187 0.137875
0.617375 0.584187 0.137875
0.674750 0.584187 0.137875
0.732125 0.584187 0.137875
0.789500 0.584187 0.137875
0.846875 0.584187 0.137875
0.904250 0.584187 0.137875
0.961625 0.584187 0.137875
1.000000 0.584187 0.137875
0.101000 0.638375 0.137875
0.158375 0.638375 0.137875
0.215750 0.638375 0.137875
0.273125 0.638375 0.137875
0.330500 0.638375 0.137875
0.387875 0.638375 0.137875
0.445250 0.638375 0.137875
0.502625 0.638375 0.137875
0.560000 0.638375 0.137875
0.617375 0.638375 0.137875
0.674750 0.638375 0.137875
0.732125 0.638375 0.137875
0.789500 0.638375 0.137875
0.846875 0.638375 0.137875
0.904250 0.638375 0.137875
0.961625 0.638375 0.137875
1.000000 0.638375 0.137875
0.101000 0.692563 0.137875
0.158375 0.692563 0.137875
0.215750 0.692563 0.137875
0.273125 0.692563 0.137875
0.330500 0.692563 0.137875
0.387875 0.692563 0.137875
0.445250 0.692563 0.137875
0.502625 0.692563 0.137875
0.560000 0.692563 0.137875
0.617375 0.692563 0.137875
0.674750 0.692563 0.137875
0.732125 0.692563 0.137875
0.789500 0.692563 0.137875
0.846875 0.692563 0.137875
0.904250 0.692563 0.137875
0.961625 0.692563 0.137875
1.000000 0.692563 0.137875
0.101000 0.746750 0.137875
0.158375 0.746750 0.137875
0.215750 0.746750 0.137875
0.273125 0.746750 0.137875
0.330500 0.746750 0.137875
0.387875 0.746750 0.137875
0.445250 0.746750 0.137875
0.502625 0.746750 0.137875
0.560000 0.746750 0.137875
0.617375 0.746750 0.137875
0.674750 0.746750 0.137875
0.732125 0.746750 0.137875
0.789500 0.746750 0.137875
0.846875 0.746750 0.137875
0.904250 0.746750 0.137875
0.961625 0.746750 0.137875
1.000000 0.746750 0.137875
0.101000 0.800938 0.137875
0.158375 0.800938 0.137875
0.215750 0.800938 0.137875
0.273125 0.800938 0.137875
0.330500 0.800938 0.137875
0.387875 0.800938 0.137875
0.445250 0.800938 0.137875
0.502625 0.800938 0.137875
0.560000 0.800938 0.137875
0.617375 0.800938 0.137875
0.674750 0.800938 0.137875
0.732125 0.800938 0.137875
0.789500 0.800938 0.137875
0.846875 0.800938 0.137875
0.904250 0.800938 0.137875
0.961625 0.800938 0.137875
1.000000 0.800938 0.137875
0.101000 0.855125 0.137875
0.158375 0.855125 0.137875
0.215750 0.855125 0.137875
0.273125 0.855125 0.137875
0.330500 0.855125 0.137875
0.387875 0.855125 0.137875
0.445250 0.855125 0.137875
0.502625 0.855125 0.137875
0.560000 0.855125 0.137875
0.617375 0.855125 0.137875
0.674750 0.855125 0.137875
0.732125 0.855125 0.137875
0.789500 0.855125 0.137875
0.846875 0.855125 0.137875
0.904250 0.855125 0.137875
0.961625 0.855125 0.137875
1.000000 0.855125 0.137875
0.101000 0.909312 0.137875
0.158375 0.909312 0.137875
0.215750 0.909312 0.137875
0.273125 0.909312 0.137875
0.330500 0.909312 0.137875
0.387875 0.909312 0.137875
0.445250 0.909312 0.137875
0.502625 0.909312 0.137875
0.560000 0.909312 0.137875
0.617375 0.909312 0.137875
0.674750 0.909312 0.137875
0.732125 0.909312 0.137875
0.789500 0.909312 0.137875
0.846875 0.909312 0.137875
0.904250 0.909312 0.137875
0.961625 0.909312 0.137875
1.000000 0.909312 0.137875
0.101000 0.963500 0.137875
0.158375 0.963500 0.137875
0.215750 0.963500 0.137875
0.273125 0.963500 0.137875
0.330500 0.963500 0.137875
0.387875 0.963500 0.137875
0.445250 0.963500 0.137875
0.502625 0.963500 0.137875
0.560000 0.963500 0.137875
0.617375 0.963500 0.137875
0.674750 0.963500 0.137875
0.732125 0.963500 0.137875
0.789500 0.963500 0.137875
0.846875 0.963500 0.137875
0.904250 0.963500 0.137875
0.961625 0.963500 0.137875
1.000000 0.963500 0.137875
0.101000 0.096500 0.186750
0.158375 0.096500 0.186750
0.215750 0.096500 0.186750
0.273125 0.096500 0.186750
0.330500 0.096500 0.186750
0.387875 0.096500 0.186750
0.445250 0.096500 0.186750
0.502625 0.096500 0.186750
0.560000 0.096500 0.186750
0.617375 0.096500 0.186750
0.674750 0.096500 0.186750
0.732125 0.096500 0.186750
0.789500 0.096500 0.186750
0.846875 0.096500 0.186750
0.904250 0.096500 0.186750
0.961625 0.096500 0.186750
1.000000 0.096500 0.186750
0.101000 0.150687 0.186750
0.158375 0.150687 0.186750
0.215750 0.150687 0.186750
0.273125 0.150687 0.186750
0.330500 0.150687 0.186750
0.387875 0.150687 0.186750
0.445250 0.150687 0.186750
0.502625 0.150687 0.186750
0.560000 0.150687 0.186750
0.617375 0.150687 0.186750
0.674750 0.150687 0.186750
0.732125 0.150687 0.186750
0.789500 0.150687 0.186750
0.846875 0.150687 0.186750
0.904250 0.150687 0.186750
0.961625 0.150687 0.186750
1.000000 0.150687 0.186750
0.101000 0.204875 0.186750
0.158375 0.204875 0.186750
0.215750 0.204875 0.186750
0.273125 0.204875 0.186750
0.330500 0.204875 0.186750
0.387875 0.204875 0.186750
0.445250 0.204875 0.186750
0.502625 0.204875 0.186750
0.560000 0.204875 0.186750
0.617375 0.204875 0.186750
0.674750 0.204875 0.186750
0.732125 0.204875 0.186750
0.789500 0.204875 0.186750
0.846875 0.204875 0.186750
0.904250 0.204875 0.186750
0.961625 0.204875 0.186750
1.000000 0.204875 0.186750
0.101000 0.259063 0.186750
0.158375 0.259063 0.186750
0.215750 0.259063 0.186750
0.273125 0.259063 0.186750
0.330500 0.259063 0.186750
0.387875 0.259063 0.186750
0.445250 0.259063 0.186750
0.502625 0.259063 0.186750
0.560000 0.259063 0.186750
0.617375 0.259063 0.186750
0.674750 0.259063 0.186750
0.732125 0.259063 0.186750
0.789500 0.259063 0.186750
0.846875 0.259063 0.186750
0.904250 0.259063 0.186750
0.961625 0.259063 0.186750
1.000000 0.259063 0.186750
0.101000 0.313250 0.186750
0.158375 0.313250 0.186750
0.215750 0.313250 0.186750
0.273125 0.313250 0.186750
0.330500 0.313250 0.186750
0.387875 0.313250 0.186750
0.445250 0.313250 0.186750
0.502625 0.313250 0.186750
0.560000 0.313250 0.186750
0.617375 0.313250 0.186750
0.674750 0.313250 0.186750
0.732125 0.313250 0.186750
0.789500 0.313250 0.186750
0.846875 0.313250 0.186750
0.904250 0.313250 0.186750
0.961625 0.313250 0.186750
1.000000 0.313250 0.186750
0.101000 0.367438 0.186750
0.158375 0.367438 0.186750
0.215750 0.367438 0.186750
0.273125 0.367438 0.186750
0.330500 0.367438 0.186750
0.387875 0.367438 0.186750
0.445250 0.367438 0.186750
0.502625 0.367438 0.186750
0.560000 0.367438 0.186750
0.617375 0.367438 0.186750
0.674750 0.367438 0.186750
0.732125 0.367438 0.186750
0.789500 0.367438 0.186750
0.846875 0.367438 0.186750
0.904250 0.367438 0.186750
0.961625 0.367438 0.186750
1.000000 0.367438 0.186750
0.101000 0.421625 0.186750
0.158375 0.421625 0.186750
0.215750 0.421625 0.186750
0.273125 0.421625 0.186750
0.330500 0.421625 0.186750
0.387875 0.421625 0.186750
0.445250 0.421625 0.186750
0.502625 0.421625 0.186750
0.560000 0.421625 0.186750
0.617375 0.421625 0.186750
0.674750 0.421625 0.186750
0.732125 0.421625 0.186750
0.789500 0.421625 0.186750
0.846875 0.421625 0.186750
0.904250 0.421625 0.186750
0.961625 0.421625 0.186750
1.000000 0.421625 0.186750
0.101000 0.475813 0.186750
0.158375 0.475813 0.186750
0.215750 0.475813 0.186750
0.273125 0.475813 0.186750
0.330500 0.475813 0.186750
0.387875 0.475813 0.186750
0.445250 0.475813 0.186750
0.502625 0.475813 0.186750
0.560000 0.475813 0.186750
0.617375 0.475813 0.186750
0.674750 0.475813 0.186750
0.732125 0.475813 0.186750
0.789500 0.475813 0.186750
0.846875 0.475813 0.186750
0.904250 0.475813 0.186750
0.961625 0.475813 0.186750
1.000000 0.475813 0.186750
0.101000 0.530000 0.186750
0.158375 0.530000 0.186750
0.215750 0.530000 0.186750
0.273125 0.530000 0.186750
0.330500 0.530000 0.186750
0.387875 0.530000 0.186750
0.445250 0.530000 0.186750
0.502625 0.530000 0.186750
0.560000 0.530000 0.186750
0.617375 0.530000 0.186750
0.674750 0.530000 0.186750
0.732125 0.530000 0.186750
0.789500 0.530000 0.186750
0.846875 0.530000 0.186750
0.904250 0.530000 0.186750
0.961625 0.530000 0.186750
1.000000 0.530000 0.186750
0.101000 0.584187 0.186750
0.158375 0.584187 0.186750
0.215750 0.584187 0.186750
0.273125 0.584187 0.186750
0.330500 0.584187 0.186750
0.387875 0.584187 0.186750
0.445250 0.584187 0.186750
0.502625 0.584187 0.186750
0.560000 0.584187 0.186750
0.617375 0.584187 0.186750
0.674750 0.584187 0.186750
0.732125 0.584187 0.186750
0.789500 0.584187 0.186750
0.846875 0.584187 0.186750
0.904250 0.584187 0.186750
0.961625 0.584187 0.186750
1.000000 0.584187 0.186750
0.101000 0.638375 0.186750
0.158375 0.638375 0.186750
0.215750 0.638375 0.186750
0.273125 0.638375 0.186750
0.330500 0.638375 0.186750
0.387875 0.638375 0.186750
0.445250 0.638375 0.186750
0.502625 0.638375 0.186750
0.560000 0.638375 0.186750
0.617375 0.638375 0.186750
0.674750 0.638375 0.186750
0.732125 0.638375 0.186750
0.789500 0.638375 0.186750
0.846875 0.638375 0.186750
0.904250 0.638375 0.186750
0.961625 0.638375 0.186750
1.000000 0.638375 0.186750
0.101000 0.692563 0.186750
0.158375 0.692563 0.186750
0.215750 0.692563 0.186750
0.273125 0.692563 0.186750
0.330500 0.692563 0.186750
0.387875 0.692563 0.186750
0.445250 0.692563 0.186750
0.502625 0.692563 0.186750
0.560000 0.692563 0.186750
0.617375 0.692563 0.186750
0.674750 0.692563 0.186750
0.732125 0.692563 0.186750
0.789500 0.692563 0.186750
0.846875 0.692563 0.186750
0.904250 0.692563 0.186750
0.961625 0.692563 0.186750
1.000000 0.692563 0.186750
0.101000 0.746750 0.186750
0.158375 0.746750 0.186750
0.215750 0.746750 0.186750
0.273125 0.746750 0.186750
0.330500 0.746750 0.186750
0.387875 0.746750 0.186750
0.445250 0.746750 0.186750
0.502625 0.746750 0.186750
0.560000 0.746750 0.186750
0.617375 0.746750 0.186750
0.674750 0.746750 0.186750
0.732125 0.746750 0.186750
0.789500 0.746750 0.186750
0.846875 0.746750 0.186750
0.904250 0.746750 0.186750
0.961625 0.746750 0.186750
1.000000 0.746750 0.186750
0.101000 0.800938 0.186750
0.158375 0.800938 0.186750
0.215750 0.800938 0.186750
0.273125 0.800938 0.186750
0.330500 0.800938 0.186750
0.387875 0.800938 0.186750
0.445250 0.800938 0.186750
0.502625 0.800938 0.186750
0.560000 0.800938 0.186750
0.617375 0.800938 0.186750
0.674750 0.800938 0.186750
0.732125 0.800938 0.186750
0.789500 0.800938 0.186750
0.846875 0.800938 0.186750
0.904250 0.800938 0.186750
0.961625 0.800938 0.186750
1.000000 0.800938 0.186750
0.101000 0.855125 0.186750
0.158375 0.855125 0.186750
0.215750 0.855125 0.186750
0.273125 0.855125 0.186750
0.330500 0.855125 0.186750
0.387875 0.855125 0.186750
0.445250 0.855125 0.186750
0.502625 0.855125 0.186750
0.560000 0.855125 0.186750
0.617375 0.855125 0.186750
0.674750 0.855125 0.186750
0.732125 0.855125 0.186750
0.789500 0.855125 0.186750
0.846875 0.855125 0.186750
0.904250 0.855125 0.186750
0.961625 0.855125 0.186750
1.000000 0.855125 0.186750
0.101000 0.909312 0.186750
0.158375 0.909312 0.186750
0.215750 0.909312 0.186750
0.273125 0.909312 0.186750
0.330500 0.909312 0.186750
0.387875 0.909312 0.186750
0.445250 0.909312 0.186750
0.502625 0.909312 0.186750
0.560000 0.909312 0.186750
0.617375 0.909312 0.186750
0.674750 0.909312 0.186750
0.732125 0.909312 0.186750
0.789500 0.909312 0.186750
0.846875 0.909312 0.186750
0.904250 0.909312 0.186750
0.961625 0.909312 0.186750
1.000000 0.909312 0.186750
0.101000 0.963500 0.186750
0.158375 0.963500 0.186750
0.215750 0.963500 0.186750
0.273125 0.963500 0.186750
0.330500 0.963500 0.186750
0.387875 0.963500 0.186750
0.445250 0.963500 0.186750
0.502625 0.963500 0.186750
0.560000 0.963500 0.186750
0.617375 0.963500 0.186750
0.674750 0.963500 0.186750
0.732125 0.963500 0.186750
0.789500 0.963500 0.186750
0.846875 0.963500 0.186750
0.904250 0.963500 0.186750
0.961625 0.963500 0.186750
1.000000 0.963500 0.186750
0.101000 0.096500 0.235625
0.158375 0.096500 0.235625
0.215750 0.096500 0.235625
0.273125 0.096500 0.235625
0.330500 0.096500 0.235625
0.387875 0.096500 0.235625
0.445250 0.096500 0.235625
0.502625 0.096500 0.235625
0.560000 0.096500 0.235625
0.617375 0.096500 0.235625
0.674750 0.096500 0.235625
0.732125 0.096500 0.235625
0.789500 0.096500 0.235625
0.846875 0.096500 0.235625
0.904250 0.096500 0.235625
0.961625 0.096500 0.235625
1.000000 0.096500 0.235625
0.101000 0.150687 0.235625
0.158375 0.150687 0.235625
0.215750 0.150687 0.235625
