frontend/client/public/luts/creative/vintage_film.cube
TITLE "Vintage Film"
LUT_3D_SIZE 9
0.101000 0.096500 0.089000
0.215750 0.096500 0.089000
0.330500 0.096500 0.089000
0.445250 0.096500 0.089000
0.560000 0.096500 0.089000
0.674750 0.096500 0.089000
0.789500 0.096500 0.089000
0.904250 0.096500 0.089000
1.000000 0.096500 0.089000
0.101000 0.204875 0.089000
0.215750 0.204875 0.089000
0.330500 0.204875 0.089000
0.445250 0.204875 0.089000
0.560000 0.204875 0.089000
0.674750 0.204875 0.089000
0.789500 0.204875 0.089000
0.904250 0.204875 0.089000
1.000000 0.204875 0.089000
0.101000 0.313250 0.089000
0.215750 0.313250 0.089000
0.330500 0.313250 0.089000
0.445250 0.313250 0.089000
0.560000 0.313250 0.089000
0.674750 0.313250 0.089000
0.789500 0.313250 0.089000
0.904250 0.313250 0.089000
1.000000 0.313250 0.089000
0.101000 0.421625 0.089000
0.215750 0.421625 0.089000
0.330500 0.421625 0.089000
0.445250 0.421625 0.089000
0.560000 0.421625 0.089000
0.674750 0.421625 0.089000
0.789500 0.421625 0.089000
0.904250 0.421625 0.089000
1.000000 0.421625 0.089000
0.101000 0.530000 0.089000
0.215750 0.530000 0.089000
0.330500 0.530000 0.089000
0.445250 0.530000 0.089000
0.560000 0.530000 0.089000
0.674750 0.530000 0.089000
0.789500 0.530000 0.089000
0.904250 0.530000 0.089000
1.000000 0.530000 0.089000
0.101000 0.638375 0.089000
0.215750 0.638375 0.089000
0.330500 0.638375 0.089000
0.445250 0.638375 0.089000
0.560000 0.638375 0.089000
0.674750 0.638375 0.089000
0.789500 0.638375 0.089000
0.904250 0.638375 0.089000
1.000000 0.638375 0.089000
0.101000 0.746750 0.089000
0.215750 0.746750 0.089000
0.330500 0.746750 0.089000
0.445250 0.746750 0.089000
0.560000 0.746750 0.089000
0.674750 0.746750 0.089000
0.789500 0.746750 0.089000
0.904250 0.746750 0.089000
1.000000 0.746750 0.089000
0.101000 0.855125 0.089000
0.215750 0.855125 0.089000
0.330500 0.855125 0.089000
0.445250 0.855125 0.089000
0.560000 0.855125 0.089000
0.674750 0.855125 0.089000
0.789500 0.855125 0.089000
0.904250 0.855125 0.089000
1.000000 0.855125 0.089000
0.101000 0.963500 0.089000
0.215750 0.963500 0.089000
0.330500 0.963500 0.089000
0.445250 0.963500 0.089000
0.560000 0.963500 0.089000
0.674750 0.963500 0.089000
0.789500 0.963500 0.089000
0.904250 0.963500 0.089000
1.000000 0.963500 0.089000
0.101000 0.096500 0.186750
0.215750 0.096500 0.186750
0.330500 0.096500 0.186750
0.445250 0.096500 0.186750
0.560000 0.096500 0.186750
0.674750 0.096500 0.186750
0.789500 0.096500 0.186750
0.904250 0.096500 0.186750
1.000000 0.096500 0.186750
0.101000 0.204875 0.186750
0.215750 0.204875 0.186750
0.330500 0.204875 0.186750
0.445250 0.204875 0.186750
0.560000 0.204875 0.186750
0.674750 0.204875 0.186750
0.789500 0.204875 0.186750
0.904250 0.204875 0.186750
1.000000 0.204875 0.186750
0.101000 0.313250 0.186750
0.215750 0.313250 0.186750
0.330500 0.313250 0.186750
0.445250 0.313250 0.186750
0.560000 0.313250 0.186750
0.674750 0.313250 0.186750
0.789500 0.313250 0.186750
0.904250 0.313250 0.186750
1.000000 0.313250 0.186750
0.101000 0.421625 0.186750
0.215750 0.421625 0.186750
0.330500 0.421625 0.186750
0.445250 0.421625 0.186750
0.560000 0.421625 0.186750
0.674750 0.421625 0.186750
0.789500 0.421625 0.186750
0.904250 0.421625 0.186750
1.000000 0.421625 0.186750
0.101000 0.530000 0.186750
0.215750 0.530000 0.186750
0.330500 0.530000 0.186750
0.445250 0.530000 0.186750
0.560000 0.530000 0.186750
0.674750 0.530000 0.186750
0.789500 0.530000 0.186750
0.904250 0.530000 0.186750
1.000000 0.530000 0.186750
0.101000 0.638375 0.186750
0.215750 0.638375 0.186750
0.330500 0.638375 0.186750
0.445250 0.638375 0.186750
0.560000 0.638375 0.186750
0.674750 0.638375 0.186750
0.789500 0.638375 0.186750
0.904250 0.638375 0.186750
1.000000 0.638375 0.186750
0.101000 0.746750 0.186750
0.215750 0.746750 0.186750
0.330500 0.746750 0.186750
0.445250 0.746750 0.186750
0.560000 0.746750 0.186750
0.674750 0.746750 0.186750
0.789500 0.746750 0.186750
0.904250 0.746750 0.186750
1.000000 0.746750 0.186750
0.101000 0.855125 0.186750
0.215750 0.855125 0.186750
0.330500 0.855125 0.186750
0.445250 0.855125 0.186750
0.560000 0.855125 0.186750
0.674750 0.855125 0.186750
0.789500 0.855125 0.186750
0.904250 0.855125 0.186750
1.000000 0.855125 0.186750
0.101000 0.963500 0.186750
0.215750 0.963500 0.186750
0.330500 0.963500 0.186750
0.445250 0.963500 0.186750
0.560000 0.963500 0.186750
0.674750 0.963500 0.186750
0.789500 0.963500 0.186750
0.904250 0.963500 0.186750
1.000000 0.963500 0.186750
0.101000 0.096500 0.284500
0.215750 0.096500 0.284500
0.330500 0.096500 0.284500
0.445250 0.096500 0.284500
0.560000 0.096500 0.284500
0.674750 0.096500 0.284500
0.789500 0.096500 0.284500
0.904250 0.096500 0.284500
1.000000 0.096500 0.284500
0.101000 0.204875 0.284500
0.215750 0.204875 0.284500
0.330500 0.204875 0.284500
0.445250 0.204875 0.284500
0.560000 0.204875 0.284500
0.674750 0.204875 0.284500
0.789500 0.204875 0.284500
0.904250 0.204875 0.284500
1.000000 0.204875 0.284500
0.101000 0.313250 0.284500
0.215750 0.313250 0.284500
0.330500 0.313250 0.284500
0.445250 0.313250 0.284500
0.560000 0.313250 0.284500
0.674750 0.313250 0.284500
0.789500 0.313250 0.284500
0.904250 0.313250 0.284500
1.000000 0.313250 0.284500
0.101000 0.421625 0.284500
0.215750 0.421625 0.284500
0.330500 0.421625 0.284500
0.445250 0.421625 0.284500
0.560000 0.421625 0.284500
0.674750 0.421625 0.284500
0.789500 0.421625 0.284500
0.904250 0.421625 0.284500
1.000000 0.421625 0.284500
0.101000 0.530000 0.284500
0.215750 0.530000 0.284500
0.330500 0.530000 0.284500
0.445250 0.530000 0.284500
0.560000 0.530000 0.284500
0.674750 0.530000 0.284500
0.789500 0.530000 0.284500
0.904250 0.530000 0.284500
1.000000 0.530000 0.284500
0.101000 0.638375 0.284500
0.215750 0.638375 0.284500
0.330500 0.638375 0.284500
0.445250 0.638375 0.284500
0.560000 0.638375 0.284500
0.674750 0.638375 0.284500
0.789500 0.638375 0.284500
0.904250 0.638375 0.284500
1.000000 0.638375 0.284500
0.101000 0.746750 0.284500
0.215750 0.746750 0.284500
0.330500 0.746750 0.284500
0.445250 0.746750 0.284500
0.560000 0.746750 0.284500
0.674750 0.746750 0.284500
0.789500 0.746750 0.284500
0.904250 0.746750 0.284500
1.000000 0.746750 0.284500
0.101000 0.855125 0.284500
0.215750 0.855125 0.284500
0.330500 0.855125 0.284500
0.445250 0.855125 0.284500
0.560000 0.855125 0.284500
0.674750 0.855125 0.284500
0.789500 0.855125 0.284500
0.904250 0.855125 0.284500
1.000000 0.855125 0.284500
0.101000 0.963500 0.284500
0.215750 0.963500 0.284500
0.330500 0.963500 0.284500
0.445250 0.963500 0.284500
0.560000 0.963500 0.284500
0.674750 0.963500 0.284500
0.789500 0.963500 0.284500
0.904250 0.963500 0.284500
1.000000 0.963500 0.284500
0.101000 0.096500 0.382250
0.215750 0.096500 0.382250
0.330500 0.096500 0.382250
0.445250 0.096500 0.382250
0.560000 0.096500 0.382250
0.674750 0.096500 0.382250
0.789500 0.096500 0.382250
0.904250 0.096500 0.382250
1.000000 0.096500 0.382250
0.101000 0.204875 0.382250
0.215750 0.204875 0.382250
0.330500 0.204875 0.382250
0.445250 0.204875 0.382250
0.560000 0.204875 0.382250
0.674750 0.204875 0.382250
0.789500 0.204875 0.382250
0.904250 0.204875 0.382250
1.000000 0.204875 0.382250
0.101000 0.313250 0.382250
0.215750 0.313250 0.382250
0.330500 0.313250 0.382250
0.445250 0.313250 0.382250
0.560000 0.313250 0.382250
0.674750 0.313250 0.382250
0.789500 0.313250 0.382250
0.904250 0.313250 0.382250
1.000000 0.313250 0.382250
0.101000 0.421625 0.382250
0.215750 0.421625 0.382250
0.330500 0.421625 0.382250
0.445250 0.421625 0.382250
0.560000 0.421625 0.382250
0.674750 0.421625 0.382250
0.789500 0.421625 0.382250
0.904250 0.421625 0.382250
1.000000 0.421625 0.382250
0.101000 0.530000 0.382250
0.215750 0.530000 0.382250
0.330500 0.530000 0.382250
0.445250 0.530000 0.382250
0.560000 0.530000 0.382250
0.674750 0.530000 0.382250
0.789500 0.530000 0.382250
0.904250 0.530000 0.382250
1.000000 0.530000 0.382250
0.101000 0.638375 0.382250
0.215750 0.638375 0.382250
0.330500 0.638375 0.382250
0.445250 0.638375 0.382250
0.560000 0.638375 0.382250
0.674750 0.638375 0.382250
0.789500 0.638375 0.382250
0.904250 0.638375 0.382250
1.000000 0.638375 0.382250
0.101000 0.746750 0.382250
0.215750 0.746750 0.382250
0.330500 0.746750 0.382250
0.445250 0.746750 0.382250
0.560000 0.746750 0.382250
0.674750 0.746750 0.382250
0.789500 0.746750 0.382250
0.904250 0.746750 0.382250
1.000000 0.746750 0.382250
0.101000 0.855125 0.382250
0.215750 0.855125 0.382250
0.330500 0.855125 0.382250
0.445250 0.855125 0.382250
0.560000 0.855125 0.382250
0.674750 0.855125 0.382250
0.789500 0.855125 0.382250
0.904250 0.855125 0.382250
1.000000 0.855125 0.382250
0.101000 0.963500 0.382250
0.215750 0.963500 0.382250
0.330500 0.963500 0.382250
0.445250 0.963500 0.382250
0.560000 0.963500 0.382250
0.674750 0.963500 0.382250
0.789500 0.963500 0.382250
0.904250 0.963500 0.382250
1.000000 0.963500 0.382250
0.101000 0.096500 0.480000
0.215750 0.096500 0.480000
0.330500 0.096500 0.480000
0.445250 0.096500 0.480000
0.560000 0.096500 0.480000
0.674750 0.096500 0.480000
0.789500 0.096500 0.480000
0.904250 0.096500 0.480000
1.000000 0.096500 0.480000
0.101000 0.204875 0.480000
0.215750 0.204875 0.480000
0.330500 0.204875 0.480000
0.445250 0.204875 0.480000
0.560000 0.204875 0.480000
0.674750 0.204875 0.480000
0.789500 0.204875 0.480000
0.904250 0.204875 0.480000
1.000000 0.204875 0.480000
0.101000 0.313250 0.480000
0.215750 0.313250 0.480000
0.330500 0.313250 0.480000
0.445250 0.313250 0.480000
0.560000 0.313250 0.480000
0.674750 0.313250 0.480000
0.789500 0.313250 0.480000
0.904250 0.313250 0.480000
1.000000 0.313250 0.480000
0.101000 0.421625 0.480000
0.215750 0.421625 0.480000
0.330500 0.421625 0.480000
0.445250 0.421625 0.480000
0.560000 0.421625 0.480000
0.674750 0.421625 0.480000
0.789500 0.421625 0.480000
0.904250 0.421625 0.480000
1.000000 0.421625 0.480000
0.101000 0.530000 0.480000
0.215750 0.530000 0.480000
0.330500 0.530000 0.480000
0.445250 0.530000 0.480000
0.560000 0.530000 0.480000
0.674750 0.530000 0.480000
0.789500 0.530000 0.480000
0.904250 0.530000 0.480000
1.000000 0.530000 0.480000
0.101000 0.638375 0.480000
0.215750 0.638375 0.480000
0.330500 0.638375 0.480000
0.445250 0.638375 0.480000
0.560000 0.638375 0.480000
0.674750 0.638375 0.480000
0.789500 0.638375 0.480000
0.904250 0.638375 0.480000
1.000000 0.638375 0.480000
0.101000 0.746750 0.480000
0.215750 0.746750 0.480000
0.330500 0.746750 0.480000
0.445250 0.746750 0.480000
0.560000 0.746750 0.480000
0.674750 0.746750 0.480000
0.789500 0.746750 0.480000
0.904250 0.746750 0.480000
1.000000 0.746750 0.480000
0.101000 0.855125 0.480000
0.215750 0.855125 0.480000
0.330500 0.855125 0.480000
0.445250 0.855125 0.480000
0.560000 0.855125 0.480000
0.674750 0.855125 0.480000
0.789500 0.855125 0.480000
0.904250 0.855125 0.480000
1.000000 0.855125 0.480000
0.101000 0.963500 0.480000
0.215750 0.963500 0.480000
0.330500 0.963500 0.480000
0.445250 0.963500 0.480000
0.560000 0.963500 0.480000
0.674750 0.963500 0.480000
0.789500 0.963500 0.480000
0.904250 0.963500 0.480000
1.000000 0.963500 0.480000
0.101000 0.096500 0.577750
0.215750 0.096500 0.577750
0.330500 0.096500 0.577750
0.445250 0.096500 0.577750
0.560000 0.096500 0.577750
0.674750 0.096500 0.577750
0.789500 0.096500 0.577750
0.904250 0.096500 0.577750
1.000000 0.096500 0.577750
0.101000 0.204875 0.577750
0.215750 0.204875 0.577750
0.330500 0.204875 0.577750
0.445250 0.204875 0.577750
0.560000 0.204875 0.577750
0.674750 0.204875 0.577750
0.789500 0.204875 0.577750
0.904250 0.204875 0.577750
1.000000 0.204875 0.577750
0.101000 0.313250 0.577750
0.215750 0.313250 0.577750
0.330500 0.313250 0.577750
0.445250 0.313250 0.577750
0.560000 0.313250 0.577750
0.674750 0.313250 0.577750
0.789500 0.313250 0.577750
0.904250 0.313250 0.577750
1.000000 0.313250 0.577750
0.101000 0.421625 0.577750
0.215750 0.421625 0.577750
0.330500 0.421625 0.577750
0.445250 0.421625 0.577750
0.560000 0.421625 0.577750
0.674750 0.421625 0.577750
0.789500 0.421625 0.577750
0.904250 0.421625 0.577750
1.000000 0.421625 0.577750
0.101000 0.530000 0.577750
0.215750 0.530000 0.577750
0.330500 0.530000 0.577750
0.445250 0.530000 0.577750
0.560000 0.530000 0.577750
0.674750 0.530000 0.577750
0.789500 0.530000 0.577750
0.904250 0.530000 0.577750
1.000000 0.530000 0.577750
0.101000 0.638375 0.577750
0.215750 0.638375 0.577750
0.330500 0.638375 0.577750
0.445250 0.638375 0.577750
0.560000 0.638375 0.577750
0.674750 0.638375 0.577750
0.789500 0.638375 0.577750
0.904250 0.638375 0.577750
1.000000 0.638375 0.577750
0.101000 0.746750 0.577750
0.215750 0.746750 0.577750
0.330500 0.746750 0.577750
0.445250 0.746750 0.577750
0.560000 0.746750 0.577750
0.674750 0.746750 0.577750
0.789500 0.746750 0.577750
0.904250 0.746750 0.577750
1.000000 0.746750 0.577750
0.101000 0.855125 0.577750
0.215750 0.855125 0.577750
0.330500 0.855125 0.577750
0.445250 0.855125 0.577750
0.560000 0.855125 0.577750
0.674750 0.855125 0.577750
0.789500 0.855125 0.577750
0.904250 0.855125 0.577750
1.000000 0.855125 0.577750
0.101000 0.963500 0.577750
0.215750 0.963500 0.577750
0.330500 0.963500 0.577750
0.445250 0.963500 0.577750
0.560000 0.963500 0.577750
0.674750 0.963500 0.577750
0.789500 0.963500 0.577750
0.904250 0.963500 0.577750
1.000000 0.963500 0.577750
0.101000 0.096500 0.675500
0.215750 0.096500 0.675500
0.330500 0.096500 0.675500
0.445250 0.096500 0.675500
0.560000 0.096500 0.675500
0.674750 0.096500 0.675500
0.789500 0.096500 0.675500
0.904250 0.096500 0.675500
1.000000 0.096500 0.675500
0.101000 0.204875 0.675500
0.215750 0.204875 0.675500
0.330500 0.204875 0.675500
0.445250 0.204875 0.675500
0.560000 0.204875 0.675500
0.674750 0.204875 0.675500
0.789500 0.204875 0.675500
0.904250 0.204875 0.675500
1.000000 0.204875 0.675500
0.101000 0.313250 0.675500
0.215750 0.313250 0.675500
0.330500 0.313250 0.675500
0.445250 0.313250 0.675500
0.560000 0.313250 0.675500
0.674750 0.313250 0.675500
0.789500 0.313250 0.675500
0.904250 0.313250 0.675500
1.000000 0.313250 0.675500
0.101000 0.421625 0.675500
0.215750 0.421625 0.675500
0.330500 0.421625 0.675500
0.445250 0.421625 0.675500
0.560000 0.421625 0.675500
0.674750 0.421625 0.675500
0.789500 0.421625 0.675500
0.904250 0.421625 0.675500
1.000000 0.421625 0.675500
0.101000 0.530000 0.675500
0.215750 0.530000 0.675500
0.330500 0.530000 0.675500
0.445250 0.530000 0.675500
0.560000 0.530000 0.675500
0.674750 0.530000 0.675500
0.789500 0.530000 0.675500
0.904250 0.530000 0.675500
1.000000 0.530000 0.675500
0.101000 0.638375 0.675500
0.215750 0.638375 0.675500
0.330500 0.638375 0.675500
0.445250 0.638375 0.675500
0.560000 0.638375 0.675500
0.674750 0.638375 0.675500
0.789500 0.638375 0.675500
0.904250 0.638375 0.675500
1.000000 0.638375 0.675500
0.101000 0.746750 0.675500
0.215750 0.746750 0.675500
0.330500 0.746750 0.675500
0.445250 0.746750 0.675500
0.560000 0.746750 0.675500
0.674750 0.746750 0.675500
0.789500 0.746750 0.675500
0.904250 0.746750 0.675500
1.000000 0.746750 0.675500
0.101000 0.855125 0.675500
0.215750 0.855125 0.675500
0.330500 0.855125 0.675500
0.445250 0.855125 0.675500
0.560000 0.855125 0.675500
0.674750 0.855125 0.675500
0.789500 0.855125 0.675500
0.904250 0.855125 0.675500
1.000000 0.855125 0.675500
0.101000 0.963500 0.675500
0.215750 0.963500 0.675500
0.330500 0.963500 0.675500
0.445250 0.963500 0.675500
0.560000 0.963500 0.675500
0.674750 0.963500 0.675500
0.789500 0.963500 0.675500
0.904250 0.963500 0.675500
1.000000 0.963500 0.675500
0.101000 0.096500 0.773250
0.215750 0.096500 0.773250
0.330500 0.096500 0.773250
0.445250 0.096500 0.773250
0.560000 0.096500 0.773250
0.674750 0.096500 0.773250
0.789500 0.096500 0.773250
0.904250 0.096500 0.773250
1.000000 0.096500 0.773250
0.101000 0.204875 0.773250
0.215750 0.204875 0.773250
0.330500 0.204875 0.773250
0.445250 0.204875 0.773250
0.560000 0.204875 0.773250
0.674750 0.204875 0.773250
0.789500 0.204875 0.773250
0.904250 0.204875 0.773250
1.000000 0.204875 0.773250
0.101000 0.313250 0.773250
0.215750 0.313250 0.773250
0.330500 0.313250 0.773250
0.445250 0.313250 0.773250
0.560000 0.313250 0.773250
0.674750 0.313250 0.773250
0.789500 0.313250 0.773250
0.904250 0.313250 0.773250
1.000000 0.313250 0.773250
0.101000 0.421625 0.773250
0.215750 0.421625 0.773250
0.330500 0.421625 0.773250
0.445250 0.421625 0.773250
0.560000 0.421625 0.773250
0.674750 0.421625 0.773250
0.789500 0.421625 0.773250
0.904250 0.421625 0.773250
1.000000 0.421625 0.773250
0.101000 0.530000 0.773250
0.215750 0.530000 0.773250
0.330500 0.530000 0.773250
0.445250 0.530000 0.773250
0.560000 0.530000 0.773250
0.674750 0.530000 0.773250
0.789500 0.530000 0.773250
0.904250 0.530000 0.773250
1.000000 0.530000 0.773250
0.101000 0.638375 0.773250
0.215750 0.638375 0.773250
0.330500 0.638375 0.773250
0.445250 0.638375 0.773250
0.560000 0.638375 0.773250
0.674750 0.638375 0.773250
0.789500 0.638375 0.773250
0.904250 0.638375 0.773250
1.000000 0.638375 0.773250
0.101000 0.746750 0.773250
0.215750 0.746750 0.773250
0.330500 0.746750 0.773250
0.445250 0.746750 0.773250
0.560000 0.746750 0.773250
0.674750 0.746750 0.773250
0.789500 0.746750 0.773250
0.904250 0.746750 0.773250
1.000000 0.746750 0.773250
0.101000 0.855125 0.773250
0.215750 0.855125 0.773250
0.330500 0.855125 0.773250
0.445250 0.855125 0.773250
0.560000 0.855125 0.773250
0.674750 0.855125 0.773250
0.789500 0.855125 0.773250
0.904250 0.855125 0.773250
1.000000 0.855125 0.773250
0.101000 0.963500 0.773250
0.215750 0.963500 0.773250
0.330500 0.963500 0.773250
0.445250 0.963500 0.773250
0.560000 0.963500 0.773250
0.674750 0.963500 0.773250
0.789500 0.963500 0.773250
0.904250 0.963500 0.773250
1.000000 0.963500 0.773250
0.101000 0.096500 0.871000
0.215750 0.096500 0.871000
0.330500 0.096500 0.871000
0.445250 0.096500 0.871000
0.560000 0.096500 0.871000
0.674750 0.096500 0.871000
0.789500 0.096500 0.871000
0.904250 0.096500 0.871000
1.000000 0.096500 0.871000
0.101000 0.204875 0.871000
0.215750 0.204875 0.871000
0.330500 0.204875 0.871000
0.445250 0.204875 0.871000
0.560000 0.204875 0.871000
0.674750 0.204875 0.871000
0.789500 0.204875 0.871000
0.904250 0.204875 0.871000
1.000000 0.204875 0.871000
0.101000 0.313250 0.871000
0.215750 0.313250 0.871000
0.330500 0.313250 0.871000
0.445250 0.313250 0.871000
0.560000 0.313250 0.871000
0.674750 0.313250 0.871000
0.789500 0.313250 0.871000
0.904250 0.313250 0.871000
1.000000 0.313250 0.871000
0.101000 0.421625 0.871000
0.215750 0.421625 0.871000
0.330500 0.421625 0.871000
0.445250 0.421625 0.871000
0.560000 0.421625 0.871000
0.674750 0.421625 0.871000
0.789500 0.421625 0.871000
0.904250 0.421625 0.871000
1.000000 0.421625 0.871000
0.101000 0.530000 0.871000
0.215750 0.530000 0.871000
0.330500 0.530000 0.871000
0.445250 0.530000 0.871000
0.560000 0.530000 0.871000
0.674750 0.530000 0.871000
0.789500 0.530000 0.871000
0.904250 0.530000 0.871000
1.000000 0.530000 0.871000
0.101000 0.638375 0.871000
0.215750 0.638375 0.871000
0.330500 0.638375 0.871000
0.445250 0.638375 0.871000
0.560000 0.638375 0.871000
0.674750 0.638375 0.871000
0.789500 0.638375 0.871000
0.904250 0.638375 0.871000
1.000000 0.638375 0.871000
0.101000 0.746750 0.871000
0.215750 0.746750 0.871000
0.330500 0.746750 0.871000
0.445250 0.746750 0.871000
0.560000 0.746750 0.871000
0.674750 0.746750 0.871000
0.789500 0.746750 0.871000
0.904250 0.746750 0.871000
1.000000 0.746750 0.871000
0.101000 0.855125 0.871000
0.215750 0.855125 0.871000
0.330500 0.855125 0.871000
0.445250 0.855125 0.871000
0.560000 0.855125 0.871000
0.674750 0.855125 0.871000
0.789500 0.855125 0.871000
0.904250 0.855125 0.871000
1.000000 0.855125 0.871000
0.101000 0.963500 0.871000
0.215750 0.963500 0.871000
0.330500 0.963500 0.871000
0.445250 0.963500 0.871000
0.560000 0.963500 0.871000
0.674750 0.963500 0.871000
0.789500 0.963500 0.871000
0.904250 0.963500 0.871000
1.000000 0.963500 0.871000
