frontend/client/public/luts/creative/vintage_film.cube
TITLE "Vintage Film"
LUT_3D_SIZE 5
0.101000 0.096500 0.089000
0.330500 0.096500 0.089000
0.560000 0.096500 0.089000
0.789500 0.096500 0.089000
1.000000 0.096500 0.089000
0.101000 0.313250 0.089000
0.330500 0.313250 0.089000
0.560000 0.313250 0.089000
0.789500 0.313250 0.089000
1.000000 0.313250 0.089000
0.101000 0.530000 0.089000
0.330500 0.530000 0.089000
0.560000 0.530000 0.089000
0.789500 0.530000 0.089000
1.000000 0.530000 0.089000
0.101000 0.746750 0.089000
0.330500 0.746750 0.089000
0.560000 0.746750 0.089000
0.789500 0.746750 0.089000
1.000000 0.746750 0.089000
0.101000 0.963500 0.089000
0.330500 0.963500 0.089000
0.560000 0.963500 0.089000
0.789500 0.963500 0.089000
1.000000 0.963500 0.089000
0.101000 0.096500 0.284500
0.330500 0.096500 0.284500
0.560000 0.096500 0.284500
0.789500 0.096500 0.284500
1.000000 0.096500 0.284500
0.101000 0.313250 0.284500
0.330500 0.313250 0.284500
0.560000 0.313250 0.284500
0.789500 0.313250 0.284500
1.000000 0.313250 0.284500
0.101000 0.530000 0.284500
0.330500 0.530000 0.284500
0.560000 0.530000 0.284500
0.789500 0.530000 0.284500
1.000000 0.530000 0.284500
0.101000 0.746750 0.284500
0.330500 0.746750 0.284500
0.560000 0.746750 0.284500
0.789500 0.746750 0.284500
1.000000 0.746750 0.284500
0.101000 0.963500 0.284500
0.330500 0.963500 0.284500
0.560000 0.963500 0.284500
0.789500 0.963500 0.284500
1.000000 0.963500 0.284500
0.101000 0.096500 0.480000
0.330500 0.096500 0.480000
0.560000 0.096500 0.480000
0.789500 0.096500 0.480000
1.000000 0.096500 0.480000
0.101000 0.313250 0.480000
0.330500 0.313250 0.480000
0.560000 0.313250 0.480000
0.789500 0.313250 0.480000
1.000000 0.313250 0.480000
0.101000 0.530000 0.480000
0.330500 0.530000 0.480000
0.560000 0.530000 0.480000
0.789500 0.530000 0.480000
1.000000 0.530000 0.480000
0.101000 0.746750 0.480000
0.330500 0.746750 0.480000
0.560000 0.746750 0.480000
0.789500 0.746750 0.480000
1.000000 0.746750 0.480000
0.101000 0.963500 0.480000
0.330500 0.963500 0.480000
0.560000 0.963500 0.480000
0.789500 0.963500 0.480000
1.000000 0.963500 0.480000
0.101000 0.096500 0.675500
0.330500 0.096500 0.675500
0.560000 0.096500 0.675500
0.789500 0.096500 0.675500
1.000000 0.096500 0.675500
0.101000 0.313250 0.675500
0.330500 0.313250 0.675500
0.560000 0.313250 0.675500
0.789500 0.313250 0.675500
1.000000 0.313250 0.675500
0.101000 0.530000 0.675500
0.330500 0.530000 0.675500
0.560000 0.530000 0.675500
0.789500 0.530000 0.675500
1.000000 0.530000 0.675500
0.101000 0.746750 0.675500
0.330500 0.746750 0.675500
0.560000 0.746750 0.675500
0.789500 0.746750 0.675500
1.000000 0.746750 0.675500
0.101000 0.963500 0.675500
0.330500 0.963500 0.675500
0.560000 0.963500 0.675500
0.789500 0.963500 0.675500
1.000000 0.963500 0.675500
0.101000 0.096500 0.871000
0.330500 0.096500 0.871000
0.560000 0.096500 0.871000
0.789500 0.096500 0.871000
1.000000 0.096500 0.871000
0.101000 0.313250 0.871000
0.330500 0.313250 0.871000
0.560000 0.313250 0.871000
0.789500 0.313250 0.871000
1.000000 0.313250 0.871000
0.101000 0.530000 0.871000
0.330500 0.530000 0.871000
0.560000 0.530000 0.871000
0.789500 0.530000 0.871000
1.000000 0.530000 0.871000
0.101000 0.746750 0.871000
0.330500 0.746750 0.871000
0.560000 0.746750 0.871000
0.789500 0.746750 0.871000
1.000000 0.746750 0.871000
0.101000 0.963500 0.871000
0.330500 0.963500 0.871000
0.560000 0.963500 0.871000
0.789500 0.963500 0.871000
1.000000 0.963500 0.871000
