frontend/client/public/luts/script/arri_logc_rec709.cube
TITLE "ARRI Log-C to Rec.709"
LUT_3D_SIZE 17
0.020000 0.020000 0.020000
0.108305 0.020000 0.020000
0.181174 0.020000 0.020000
0.249166 0.020000 0.020000
0.314174 0.020000 0.020000
0.377049 0.020000 0.020000
0.438275 0.020000 0.020000
0.498162 0.020000 0.020000
0.556927 0.020000 0.020000
0.614728 0.020000 0.020000
0.671686 0.020000 0.020000
0.727896 0.020000 0.020000
0.783435 0.020000 0.020000
0.838366 0.020000 0.020000
0.892742 0.020000 0.020000
0.946607 0.020000 0.020000
1.000000 0.020000 0.020000
0.020000 0.108305 0.020000
0.108305 0.108305 0.020000
0.181174 0.108305 0.020000
0.249166 0.108305 0.020000
0.314174 0.108305 0.020000
0.377049 0.108305 0.020000
0.438275 0.108305 0.020000
0.498162 0.108305 0.020000
0.556927 0.108305 0.020000
0.614728 0.108305 0.020000
0.671686 0.108305 0.020000
0.727896 0.108305 0.020000
0.783435 0.108305 0.020000
0.838366 0.108305 0.020000
0.892742 0.108305 0.020000
0.946607 0.108305 0.020000
1.000000 0.108305 0.020000
0.020000 0.181174 0.020000
0.108305 0.181174 0.020000
0.181174 0.181174 0.020000
0.249166 0.181174 0.020000
0.314174 0.181174 0.020000
0.377049 0.181174 0.020000
0.438275 0.181174 0.020000
0.498162 0.181174 0.020000
0.556927 0.181174 0.020000
0.614728 0.181174 0.020000
0.671686 0.181174 0.020000
0.727896 0.181174 0.020000
0.783435 0.181174 0.020000
0.838366 0.181174 0.020000
0.892742 0.181174 0.020000
0.946607 0.181174 0.020000
1.000000 0.181174 0.020000
0.020000 0.249166 0.020000
0.108305 0.249166 0.020000
0.181174 0.249166 0.020000
0.249166 0.249166 0.020000
0.314174 0.249166 0.020000
0.377049 0.249166 0.020000
0.438275 0.249166 0.020000
0.498162 0.249166 0.020000
0.556927 0.249166 0.020000
0.614728 0.249166 0.020000
0.671686 0.249166 0.020000
0.727896 0.249166 0.020000
0.783435 0.249166 0.020000
0.838366 0.249166 0.020000
0.892742 0.249166 0.020000
0.946607 0.249166 0.020000
1.000000 0.249166 0.020000
0.020000 0.314174 0.020000
0.108305 0.314174 0.020000
0.181174 0.314174 0.020000
0.249166 0.314174 0.020000
0.314174 0.314174 0.020000
0.377049 0.314174 0.020000
0.438275 0.314174 0.020000
0.498162 0.314174 0.020000
0.556927 0.314174 0.020000
0.614728 0.314174 0.020000
0.671686 0.314174 0.020000
0.727896 0.314174 0.020000
0.783435 0.314174 0.020000
0.838366 0.314174 0.020000
0.892742 0.314174 0.020000
0.946607 0.314174 0.020000
1.000000 0.314174 0.020000
0.020000 0.377049 0.020000
0.108305 0.377049 0.020000
0.181174 0.377049 0.020000
0.249166 0.377049 0.020000
0.314174 0.377049 0.020000
0.377049 0.377049 0.020000
0.438275 0.377049 0.020000
0.498162 0.377049 0.020000
0.556927 0.377049 0.020000
0.614728 0.377049 0.020000
0.671686 0.377049 0.020000
0.727896 0.377049 0.020000
0.783435 0.377049 0.020000
0.838366 0.377049 0.020000
0.892742 0.377049 0.020000
0.946607 0.377049 0.020000
1.000000 0.377049 0.020000
0.020000 0.438275 0.020000
0.108305 0.438275 0.020000
0.181174 0.438275 0.020000
0.249166 0.438275 0.020000
0.314174 0.438275 0.020000
0.377049 0.438275 0.020000
0.438275 0.438275 0.020000
0.498162 0.438275 0.020000
0.556927 0.438275 0.020000
0.614728 0.438275 0.020000
0.671686 0.438275 0.020000
0.727896 0.438275 0.020000
0.783435 0.438275 0.020000
0.838366 0.438275 0.020000
0.892742 0.438275 0.020000
0.946607 0.438275 0.020000
1.000000 0.438275 0.020000
0.020000 0.498162 0.020000
0.108305 0.498162 0.020000
0.181174 0.498162 0.020000
0.249166 0.498162 0.020000
0.314174 0.498162 0.020000
0.377049 0.498162 0.020000
0.438275 0.498162 0.020000
0.498162 0.498162 0.020000
0.556927 0.498162 0.020000
0.614728 0.498162 0.020000
0.671686 0.498162 0.020000
0.727896 0.498162 0.020000
0.783435 0.498162 0.020000
0.838366 0.498162 0.020000
0.892742 0.498162 0.020000
0.946607 0.498162 0.020000
1.000000 0.498162 0.020000
0.020000 0.556927 0.020000
0.108305 0.556927 0.020000
0.181174 0.556927 0.020000
0.249166 0.556927 0.020000
0.314174 0.556927 0.020000
0.377049 0.556927 0.020000
0.438275 0.556927 0.020000
0.498162 0.556927 0.020000
0.556927 0.556927 0.020000
0.614728 0.556927 0.020000
0.671686 0.556927 0.020000
0.727896 0.556927 0.020000
0.783435 0.556927 0.020000
0.838366 0.556927 0.020000
0.892742 0.556927 0.020000
0.946607 0.556927 0.020000
1.000000 0.556927 0.020000
0.020000 0.614728 0.020000
0.108305 0.614728 0.020000
0.181174 0.614728 0.020000
0.249166 0.614728 0.020000
0.314174 0.614728 0.020000
0.377049 0.614728 0.020000
0.438275 0.614728 0.020000
0.498162 0.614728 0.020000
0.556927 0.614728 0.020000
0.614728 0.614728 0.020000
0.671686 0.614728 0.020000
0.727896 0.614728 0.020000
0.783435 0.614728 0.020000
0.838366 0.614728 0.020000
0.892742 0.614728 0.020000
0.946607 0.614728 0.020000
1.000000 0.614728 0.020000
0.020000 0.671686 0.020000
0.108305 0.671686 0.020000
0.181174 0.671686 0.020000
0.249166 0.671686 0.020000
0.314174 0.671686 0.020000
0.377049 0.671686 0.020000
0.438275 0.671686 0.020000
0.498162 0.671686 0.020000
0.556927 0.671686 0.020000
0.614728 0.671686 0.020000
0.671686 0.671686 0.020000
0.727896 0.671686 0.020000
0.783435 0.671686 0.020000
0.838366 0.671686 0.020000
0.892742 0.671686 0.020000
0.946607 0.671686 0.020000
1.000000 0.671686 0.020000
0.020000 0.727896 0.020000
0.108305 0.727896 0.020000
0.181174 0.727896 0.020000
0.249166 0.727896 0.020000
0.314174 0.727896 0.020000
0.377049 0.727896 0.020000
0.438275 0.727896 0.020000
0.498162 0.727896 0.020000
0.556927 0.727896 0.020000
0.614728 0.727896 0.020000
0.671686 0.727896 0.020000
0.727896 0.727896 0.020000
0.783435 0.727896 0.020000
0.838366 0.727896 0.020000
0.892742 0.727896 0.020000
0.946607 0.727896 0.020000
1.000000 0.727896 0.020000
0.020000 0.783435 0.020000
0.108305 0.783435 0.020000
0.181174 0.783435 0.020000
0.249166 0.783435 0.020000
0.314174 0.783435 0.020000
0.377049 0.783435 0.020000
0.438275 0.783435 0.020000
0.498162 0.783435 0.020000
0.556927 0.783435 0.020000
0.614728 0.783435 0.020000
0.671686 0.783435 0.020000
0.727896 0.783435 0.020000
0.783435 0.783435 0.020000
0.838366 0.783435 0.020000
0.892742 0.783435 0.020000
0.946607 0.783435 0.020000
1.000000 0.783435 0.020000
0.020000 0.838366 0.020000
0.108305 0.838366 0.020000
0.181174 0.838366 0.020000
0.249166 0.838366 0.020000
0.314174 0.838366 0.020000
0.377049 0.838366 0.020000
0.438275 0.838366 0.020000
0.498162 0.838366 0.020000
0.556927 0.838366 0.020000
0.614728 0.838366 0.020000
0.671686 0.838366 0.020000
0.727896 0.838366 0.020000
0.783435 0.838366 0.020000
0.838366 0.838366 0.020000
0.892742 0.838366 0.020000
0.946607 0.838366 0.020000
1.000000 0.838366 0.020000
0.020000 0.892742 0.020000
0.108305 0.892742 0.020000
0.181174 0.892742 0.020000
0.249166 0.892742 0.020000
0.314174 0.892742 0.020000
0.377049 0.892742 0.020000
0.438275 0.892742 0.020000
0.498162 0.892742 0.020000
0.556927 0.892742 0.020000
0.614728 0.892742 0.020000
0.671686 0.892742 0.020000
0.727896 0.892742 0.020000
0.783435 0.892742 0.020000
0.838366 0.892742 0.020000
0.892742 0.892742 0.020000
0.946607 0.892742 0.020000
1.000000 0.892742 0.020000
0.020000 0.946607 0.020000
0.108305 0.946607 0.020000
0.181174 0.946607 0.020000
0.249166 0.946607 0.020000
0.314174 0.946607 0.020000
0.377049 0.946607 0.020000
0.438275 0.946607 0.020000
0.498162 0.946607 0.020000
0.556927 0.946607 0.020000
0.614728 0.946607 0.020000
0.671686 0.946607 0.020000
0.727896 0.946607 0.020000
0.783435 0.946607 0.020000
0.838366 0.946607 0.020000
0.892742 0.946607 0.020000
0.946607 0.946607 0.020000
1.000000 0.946607 0.020000
0.020000 1.000000 0.020000
0.108305 1.000000 0.020000
0.181174 1.000000 0.020000
0.249166 1.000000 0.020000
0.314174 1.000000 0.020000
0.377049 1.000000 0.020000
0.438275 1.000000 0.020000
0.498162 1.000000 0.020000
0.556927 1.000000 0.020000
0.614728 1.000000 0.020000
0.671686 1.000000 0.020000
0.727896 1.000000 0.020000
0.783435 1.000000 0.020000
0.838366 1.000000 0.020000
0.892742 1.000000 0.020000
0.946607 1.000000 0.020000
1.000000 1.000000 0.020000
0.020000 0.020000 0.108305
0.108305 0.020000 0.108305
0.181174 0.020000 0.108305
0.249166 0.020000 0.108305
0.314174 0.020000 0.108305
0.377049 0.020000 0.108305
0.438275 0.020000 0.108305
0.498162 0.020000 0.108305
0.556927 0.020000 0.108305
0.614728 0.020000 0.108305
0.671686 0.020000 0.108305
0.727896 0.020000 0.108305
0.783435 0.020000 0.108305
0.838366 0.020000 0.108305
0.892742 0.020000 0.108305
0.946607 0.020000 0.108305
1.000000 0.020000 0.108305
0.020000 0.108305 0.108305
0.108305 0.108305 0.108305
0.181174 0.108305 0.108305
0.249166 0.108305 0.108305
0.314174 0.108305 0.108305
0.377049 0.108305 0.108305
0.438275 0.108305 0.108305
0.498162 0.108305 0.108305
0.556927 0.108305 0.108305
0.614728 0.108305 0.108305
0.671686 0.108305 0.108305
0.727896 0.108305 0.108305
0.783435 0.108305 0.108305
0.838366 0.108305 0.108305
0.892742 0.108305 0.108305
0.946607 0.108305 0.108305
1.000000 0.108305 0.108305
0.020000 0.181174 0.108305
0.108305 0.181174 0.108305
0.181174 0.181174 0.108305
0.249166 0.181174 0.108305
0.314174 0.181174 0.108305
0.377049 0.181174 0.108305
0.438275 0.181174 0.108305
0.498162 0.181174 0.108305
0.556927 0.181174 0.108305
0.614728 0.181174 0.108305
0.671686 0.181174 0.108305
0.727896 0.181174 0.108305
0.783435 0.181174 0.108305
0.838366 0.181174 0.108305
0.892742 0.181174 0.108305
0.946607 0.181174 0.108305
1.000000 0.181174 0.108305
0.020000 0.249166 0.108305
0.108305 0.249166 0.108305
0.181174 0.249166 0.108305
0.249166 0.249166 0.108305
0.314174 0.249166 0.108305
0.377049 0.249166 0.108305
0.438275 0.249166 0.108305
0.498162 0.249166 0.108305
0.556927 0.249166 0.108305
0.614728 0.249166 0.108305
0.671686 0.249166 0.108305
0.727896 0.249166 0.108305
0.783435 0.249166 0.108305
0.838366 0.249166 0.108305
0.892742 0.249166 0.108305
0.946607 0.249166 0.108305
1.000000 0.249166 0.108305
0.020000 0.314174 0.108305
0.108305 0.314174 0.108305
0.181174 0.314174 0.108305
0.249166 0.314174 0.108305
0.314174 0.314174 0.108305
0.377049 0.314174 0.108305
0.438275 0.314174 0.108305
0.498162 0.314174 0.108305
0.556927 0.314174 0.108305
0.614728 0.314174 0.108305
0.671686 0.314174 0.108305
0.727896 0.314174 0.108305
0.783435 0.314174 0.108305
0.838366 0.314174 0.108305
0.892742 0.314174 0.108305
0.946607 0.314174 0.108305
1.000000 0.314174 0.108305
0.020000 0.377049 0.108305
0.108305 0.377049 0.108305
0.181174 0.377049 0.108305
0.249166 0.377049 0.108305
0.314174 0.377049 0.108305
0.377049 0.377049 0.108305
0.438275 0.377049 0.108305
0.498162 0.377049 0.108305
0.556927 0.377049 0.108305
0.614728 0.377049 0.108305
0.671686 0.377049 0.108305
0.727896 0.377049 0.108305
0.783435 0.377049 0.108305
0.838366 0.377049 0.108305
0.892742 0.377049 0.108305
0.946607 0.377049 0.108305
1.000000 0.377049 0.108305
0.020000 0.438275 0.108305
0.108305 0.438275 0.108305
0.181174 0.438275 0.108305
0.249166 0.438275 0.108305
0.314174 0.438275 0.108305
0.377049 0.438275 0.108305
0.438275 0.438275 0.108305
0.498162 0.438275 0.108305
0.556927 0.438275 0.108305
0.614728 0.438275 0.108305
0.671686 0.438275 0.108305
0.727896 0.438275 0.108305
0.783435 0.438275 0.108305
0.838366 0.438275 0.108305
0.892742 0.438275 0.108305
0.946607 0.438275 0.108305
1.000000 0.438275 0.108305
0.020000 0.498162 0.108305
0.108305 0.498162 0.108305
0.181174 0.498162 0.108305
0.249166 0.498162 0.108305
0.314174 0.498162 0.108305
0.377049 0.498162 0.108305
0.438275 0.498162 0.108305
0.498162 0.498162 0.108305
0.556927 0.498162 0.108305
0.614728 0.498162 0.108305
0.671686 0.498162 0.108305
0.727896 0.498162 0.108305
0.783435 0.498162 0.108305
0.838366 0.498162 0.108305
0.892742 0.498162 0.108305
0.946607 0.498162 0.108305
1.000000 0.498162 0.108305
0.020000 0.556927 0.108305
0.108305 0.556927 0.108305
0.181174 0.556927 0.108305
0.249166 0.556927 0.108305
0.314174 0.556927 0.108305
0.377049 0.556927 0.108305
0.438275 0.556927 0.108305
0.498162 0.556927 0.108305
0.556927 0.556927 0.108305
0.614728 0.556927 0.108305
0.671686 0.556927 0.108305
0.727896 0.556927 0.108305
0.783435 0.556927 0.108305
0.838366 0.556927 0.108305
0.892742 0.556927 0.108305
0.946607 0.556927 0.108305
1.000000 0.556927 0.108305
0.020000 0.614728 0.108305
0.108305 0.614728 0.108305
0.181174 0.614728 0.108305
0.249166 0.614728 0.108305
0.314174 0.614728 0.108305
0.377049 0.614728 0.108305
0.438275 0.614728 0.108305
0.498162 0.614728 0.108305
0.556927 0.614728 0.108305
0.614728 0.614728 0.108305
0.671686 0.614728 0.108305
0.727896 0.614728 0.108305
0.783435 0.614728 0.108305
0.838366 0.614728 0.108305
0.892742 0.614728 0.108305
0.946607 0.614728 0.108305
1.000000 0.614728 0.108305
0.020000 0.671686 0.108305
0.108305 0.671686 0.108305
0.181174 0.671686 0.108305
0.249166 0.671686 0.108305
0.314174 0.671686 0.108305
0.377049 0.671686 0.108305
0.438275 0.671686 0.108305
0.498162 0.671686 0.108305
0.556927 0.671686 0.108305
0.614728 0.671686 0.108305
0.671686 0.671686 0.108305
0.727896 0.671686 0.108305
0.783435 0.671686 0.108305
0.838366 0.671686 0.108305
0.892742 0.671686 0.108305
0.946607 0.671686 0.108305
1.000000 0.671686 0.108305
0.020000 0.727896 0.108305
0.108305 0.727896 0.108305
0.181174 0.727896 0.108305
0.249166 0.727896 0.108305
0.314174 0.727896 0.108305
0.377049 0.727896 0.108305
0.438275 0.727896 0.108305
0.498162 0.727896 0.108305
0.556927 0.727896 0.108305
0.614728 0.727896 0.108305
0.671686 0.727896 0.108305
0.727896 0.727896 0.108305
0.783435 0.727896 0.108305
0.838366 0.727896 0.108305
0.892742 0.727896 0.108305
0.946607 0.727896 0.108305
1.000000 0.727896 0.108305
0.020000 0.783435 0.108305
0.108305 0.783435 0.108305
0.181174 0.783435 0.108305
0.249166 0.783435 0.108305
0.314174 0.783435 0.108305
0.377049 0.783435 0.108305
0.438275 0.783435 0.108305
0.498162 0.783435 0.108305
0.556927 0.783435 0.108305
0.614728 0.783435 0.108305
0.671686 0.783435 0.108305
0.727896 0.783435 0.108305
0.783435 0.783435 0.108305
0.838366 0.783435 0.108305
0.892742 0.783435 0.108305
0.946607 0.783435 0.108305
1.000000 0.783435 0.108305
0.020000 0.838366 0.108305
0.108305 0.838366 0.108305
0.181174 0.838366 0.108305
0.249166 0.838366 0.108305
0.314174 0.838366 0.108305
0.377049 0.838366 0.108305
0.438275 0.838366 0.108305
0.498162 0.838366 0.108305
0.556927 0.838366 0.108305
0.614728 0.838366 0.108305
0.671686 0.838366 0.108305
0.727896 0.838366 0.108305
0.783435 0.838366 0.108305
0.838366 0.838366 0.108305
0.892742 0.838366 0.108305
0.946607 0.838366 0.108305
1.000000 0.838366 0.108305
0.020000 0.892742 0.108305
0.108305 0.892742 0.108305
0.181174 0.892742 0.108305
0.249166 0.892742 0.108305
0.314174 0.892742 0.108305
0.377049 0.892742 0.108305
0.438275 0.892742 0.108305
0.498162 0.892742 0.108305
0.556927 0.892742 0.108305
0.614728 0.892742 0.108305
0.671686 0.892742 0.108305
0.727896 0.892742 0.108305
0.783435 0.892742 0.108305
0.838366 0.892742 0.108305
0.892742 0.892742 0.108305
0.946607 0.892742 0.108305
1.000000 0.892742 0.108305
0.020000 0.946607 0.108305
0.108305 0.946607 0.108305
0.181174 0.946607 0.108305
0.249166 0.946607 0.108305
0.314174 0.946607 0.108305
0.377049 0.946607 0.108305
0.438275 0.946607 0.108305
0.498162 0.946607 0.108305
0.556927 0.946607 0.108305
0.614728 0.946607 0.108305
0.671686 0.946607 0.108305
0.727896 0.946607 0.108305
0.783435 0.946607 0.108305
0.838366 0.946607 0.108305
0.892742 0.946607 0.108305
0.946607 0.946607 0.108305
1.000000 0.946607 0.108305
0.020000 1.000000 0.108305
0.108305 1.000000 0.108305
0.181174 1.000000 0.108305
0.249166 1.000000 0.108305
0.314174 1.000000 0.108305
0.377049 1.000000 0.108305
0.438275 1.000000 0.108305
0.498162 1.000000 0.108305
0.556927 1.000000 0.108305
0.614728 1.000000 0.108305
0.671686 1.000000 0.108305
0.727896 1.000000 0.108305
0.783435 1.000000 0.108305
0.838366 1.000000 0.108305
0.892742 1.000000 0.108305
0.946607 1.000000 0.108305
1.000000 1.000000 0.108305
0.020000 0.020000 0.181174
0.108305 0.020000 0.181174
0.181174 0.020000 0.181174
0.249166 0.020000 0.181174
0.314174 0.020000 0.181174
0.377049 0.020000 0.181174
0.438275 0.020000 0.181174
0.498162 0.020000 0.181174
0.556927 0.020000 0.181174
0.614728 0.020000 0.181174
0.671686 0.020000 0.181174
0.727896 0.020000 0.181174
0.783435 0.020000 0.181174
0.838366 0.020000 0.181174
0.892742 0.020000 0.181174
0.946607 0.020000 0.181174
1.000000 0.020000 0.181174
0.020000 0.108305 0.181174
0.108305 0.108305 0.181174
0.181174 0.108305 0.181174
0.249166 0.108305 0.181174
0.314174 0.108305 0.181174
0.377049 0.108305 0.181174
0.438275 0.108305 0.181174
0.498162 0.108305 0.181174
0.556927 0.108305 0.181174
0.614728 0.108305 0.181174
0.671686 0.108305 0.181174
0.727896 0.108305 0.181174
0.783435 0.108305 0.181174
0.838366 0.108305 0.181174
0.892742 0.108305 0.181174
0.946607 0.108305 0.181174
1.000000 0.108305 0.181174
0.020000 0.181174 0.181174
0.108305 0.181174 0.181174
0.181174 0.181174 0.181174
0.249166 0.181174 0.181174
0.314174 0.181174 0.181174
0.377049 0.181174 0.181174
0.438275 0.181174 0.181174
0.498162 0.181174 0.181174
0.556927 0.181174 0.181174
0.614728 0.181174 0.181174
0.671686 0.181174 0.181174
0.727896 0.181174 0.181174
0.783435 0.181174 0.181174
0.838366 0.181174 0.181174
0.892742 0.181174 0.181174
0.946607 0.181174 0.181174
1.000000 0.181174 0.181174
0.020000 0.249166 0.181174
0.108305 0.249166 0.181174
0.181174 0.249166 0.181174
0.249166 0.249166 0.181174
0.314174 0.249166 0.181174
0.377049 0.249166 0.181174
0.438275 0.249166 0.181174
0.498162 0.249166 0.181174
0.556927 0.249166 0.181174
0.614728 0.249166 0.181174
0.671686 0.249166 0.181174
0.727896 0.249166 0.181174
0.783435 0.249166 0.181174
0.838366 0.249166 0.181174
0.892742 0.249166 0.181174
0.946607 0.249166 0.181174
1.000000 0.249166 0.181174
0.020000 0.314174 0.181174
0.108305 0.314174 0.181174
0.181174 0.314174 0.181174
0.249166 0.314174 0.181174
0.314174 0.314174 0.181174
0.377049 0.314174 0.181174
0.438275 0.314174 0.181174
0.498162 0.314174 0.181174
0.556927 0.314174 0.181174
0.614728 0.314174 0.181174
0.671686 0.314174 0.181174
0.727896 0.314174 0.181174
0.783435 0.314174 0.181174
0.838366 0.314174 0.181174
0.892742 0.314174 0.181174
0.946607 0.314174 0.181174
1.000000 0.314174 0.181174
0.020000 0.377049 0.181174
0.108305 0.377049 0.181174
0.181174 0.377049 0.181174
0.249166 0.377049 0.181174
0.314174 0.377049 0.181174
0.377049 0.377049 0.181174
0.438275 0.377049 0.181174
0.498162 0.377049 0.181174
0.556927 0.377049 0.181174
0.614728 0.377049 0.181174
0.671686 0.377049 0.181174
0.727896 0.377049 0.181174
0.783435 0.377049 0.181174
0.838366 0.377049 0.181174
0.892742 0.377049 0.181174
0.946607 0.377049 0.181174
1.000000 0.377049 0.181174
0.020000 0.438275 0.181174
0.108305 0.438275 0.181174
0.181174 0.438275 0.181174
0.249166 0.438275 0.181174
0.314174 0.438275 0.181174
0.377049 0.438275 0.181174
0.438275 0.438275 0.181174
0.498162 0.438275 0.181174
0.556927 0.438275 0.181174
0.614728 0.438275 0.181174
0.671686 0.438275 0.181174
0.727896 0.438275 0.181174
0.783435 0.438275 0.181174
0.838366 0.438275 0.181174
0.892742 0.438275 0.181174
0.946607 0.438275 0.181174
1.000000 0.438275 0.181174
0.020000 0.498162 0.181174
0.108305 0.498162 0.181174
0.181174 0.498162 0.181174
0.249166 0.498162 0.181174
0.314174 0.498162 0.181174
0.377049 0.498162 0.181174
0.438275 0.498162 0.181174
0.498162 0.498162 0.181174
0.556927 0.498162 0.181174
0.614728 0.498162 0.181174
0.671686 0.498162 0.181174
0.727896 0.498162 0.181174
0.783435 0.498162 0.181174
0.838366 0.498162 0.181174
0.892742 0.498162 0.181174
0.946607 0.498162 0.181174
1.000000 0.498162 0.181174
0.020000 0.556927 0.181174
0.108305 0.556927 0.181174
0.181174 0.556927 0.181174
0.249166 0.556927 0.181174
0.314174 0.556927 0.181174
0.377049 0.556927 0.181174
0.438275 0.556927 0.181174
0.498162 0.556927 0.181174
0.556927 0.556927 0.181174
0.614728 0.556927 0.181174
0.671686 0.556927 0.181174
0.727896 0.556927 0.181174
0.783435 0.556927 0.181174
0.838366 0.556927 0.181174
0.892742 0.556927 0.181174
0.946607 0.556927 0.181174
1.000000 0.556927 0.181174
0.020000 0.614728 0.181174
0.108305 0.614728 0.181174
0.181174 0.614728 0.181174
0.249166 0.614728 0.181174
0.314174 0.614728 0.181174
0.377049 0.614728 0.181174
0.438275 0.614728 0.181174
0.498162 0.614728 0.181174
0.556927 0.614728 0.181174
0.614728 0.614728 0.181174
0.671686 0.614728 0.181174
0.727896 0.614728 0.181174
0.783435 0.614728 0.181174
0.838366 0.614728 0.181174
0.892742 0.614728 0.181174
0.946607 0.614728 0.181174
1.000000 0.614728 0.181174
0.020000 0.671686 0.181174
0.108305 0.671686 0.181174
0.181174 0.671686 0.181174
0.249166 0.671686 0.181174
0.314174 0.671686 0.181174
0.377049 0.671686 0.181174
0.438275 0.671686 0.181174
0.498162 0.671686 0.181174
0.556927 0.671686 0.181174
0.614728 0.671686 0.181174
0.671686 0.671686 0.181174
0.727896 0.671686 0.181174
0.783435 0.671686 0.181174
0.838366 0.671686 0.181174
0.892742 0.671686 0.181174
0.946607 0.671686 0.181174
1.000000 0.671686 0.181174
0.020000 0.727896 0.181174
0.108305 0.727896 0.181174
0.181174 0.727896 0.181174
0.249166 0.727896 0.181174
0.314174 0.727896 0.181174
0.377049 0.727896 0.181174
0.438275 0.727896 0.181174
0.498162 0.727896 0.181174
0.556927 0.727896 0.181174
0.614728 0.727896 0.181174
0.671686 0.727896 0.181174
0.727896 0.727896 0.181174
0.783435 0.727896 0.181174
0.838366 0.727896 0.181174
0.892742 0.727896 0.181174
0.946607 0.727896 0.181174
1.000000 0.727896 0.181174
0.020000 0.783435 0.181174
0.108305 0.783435 0.181174
0.181174 0.783435 0.181174
0.249166 0.783435 0.181174
0.314174 0.783435 0.181174
0.377049 0.783435 0.181174
0.438275 0.783435 0.181174
0.498162 0.783435 0.181174
0.556927 0.783435 0.181174
0.614728 0.783435 0.181174
0.671686 0.783435 0.181174
0.727896 0.783435 0.181174
0.783435 0.783435 0.181174
0.838366 0.783435 0.181174
0.892742 0.783435 0.181174
0.946607 0.783435 0.181174
1.000000 0.783435 0.181174
0.020000 0.838366 0.181174
0.108305 0.838366 0.181174
0.181174 0.838366 0.181174
0.249166 0.838366 0.181174
0.314174 0.838366 0.181174
0.377049 0.838366 0.181174
0.438275 0.838366 0.181174
0.498162 0.838366 0.181174
0.556927 0.838366 0.181174
0.614728 0.838366 0.181174
0.671686 0.838366 0.181174
0.727896 0.838366 0.181174
0.783435 0.838366 0.181174
0.838366 0.838366 0.181174
0.892742 0.838366 0.181174
0.946607 0.838366 0.181174
1.000000 0.838366 0.181174
0.020000 0.892742 0.181174
0.108305 0.892742 0.181174
0.181174 0.892742 0.181174
0.249166 0.892742 0.181174
0.314174 0.892742 0.181174
0.377049 0.892742 0.181174
0.438275 0.892742 0.181174
0.498162 0.892742 0.181174
0.556927 0.892742 0.181174
0.614728 0.892742 0.181174
0.671686 0.892742 0.181174
0.727896 0.892742 0.181174
0.783435 0.892742 0.181174
0.838366 0.892742 0.181174
0.892742 0.892742 0.181174
0.946607 0.892742 0.181174
1.000000 0.892742 0.181174
0.020000 0.946607 0.181174
0.108305 0.946607 0.181174
0.181174 0.946607 0.181174
0.249166 0.946607 0.181174
0.314174 0.946607 0.181174
0.377049 0.946607 0.181174
0.438275 0.946607 0.181174
0.498162 0.946607 0.181174
0.556927 0.946607 0.181174
0.614728 0.946607 0.181174
0.671686 0.946607 0.181174
0.727896 0.946607 0.181174
0.783435 0.946607 0.181174
0.838366 0.946607 0.181174
0.892742 0.946607 0.181174
0.946607 0.946607 0.181174
1.000000 0.946607 0.181174
0.020000 1.000000 0.181174
0.108305 1.000000 0.181174
0.181174 1.000000 0.181174
0.249166 1.000000 0.181174
0.314174 1.000000 0.181174
0.377049 1.000000 0.181174
0.438275 1.000000 0.181174
0.498162 1.000000 0.181174
0.556927 1.000000 0.181174
0.614728 1.000000 0.181174
0.671686 1.000000 0.181174
0.727896 1.000000 0.181174
0.783435 1.000000 0.181174
0.838366 1.000000 0.181174
0.892742 1.000000 0.181174
0.946607 1.000000 0.181174
1.000000 1.000000 0.181174
0.020000 0.020000 0.249166
0.108305 0.020000 0.249166
0.181174 0.020000 0.249166
0.249166 0.020000 0.249166
0.314174 0.020000 0.249166
0.377049 0.020000 0.249166
0.438275 0.020000 0.249166
0.498162 0.020000 0.249166
0.556927 0.020000 0.249166
0.614728 0.020000 0.249166
0.671686 0.020000 0.249166
0.727896 0.020000 0.249166
0.783435 0.020000 0.249166
0.838366 0.020000 0.249166
0.892742 0.020000 0.249166
0.946607 0.020000 0.249166
1.000000 0.020000 0.249166
0.020000 0.108305 0.249166
0.108305 0.108305 0.249166
0.181174 0.108305 0.249166
