frontend/client/public/luts/script/arri_logc_rec709.cube
TITLE "ARRI Log-C to Rec.709"
LUT_3D_SIZE 9
0.020000 0.020000 0.020000
0.181174 0.020000 0.020000
0.314174 0.020000 0.020000
0.438275 0.020000 0.020000
0.556927 0.020000 0.020000
0.671686 0.020000 0.020000
0.783435 0.020000 0.020000
0.892742 0.020000 0.020000
1.000000 0.020000 0.020000
0.020000 0.181174 0.020000
0.181174 0.181174 0.020000
0.314174 0.181174 0.020000
0.438275 0.181174 0.020000
0.556927 0.181174 0.020000
0.671686 0.181174 0.020000
0.783435 0.181174 0.020000
0.892742 0.181174 0.020000
1.000000 0.181174 0.020000
0.020000 0.314174 0.020000
0.181174 0.314174 0.020000
0.314174 0.314174 0.020000
0.438275 0.314174 0.020000
0.556927 0.314174 0.020000
0.671686 0.314174 0.020000
0.783435 0.314174 0.020000
0.892742 0.314174 0.020000
1.000000 0.314174 0.020000
0.020000 0.438275 0.020000
0.181174 0.438275 0.020000
0.314174 0.438275 0.020000
0.438275 0.438275 0.020000
0.556927 0.438275 0.020000
0.671686 0.438275 0.020000
0.783435 0.438275 0.020000
0.892742 0.438275 0.020000
1.000000 0.438275 0.020000
0.020000 0.556927 0.020000
0.181174 0.556927 0.020000
0.314174 0.556927 0.020000
0.438275 0.556927 0.020000
0.556927 0.556927 0.020000
0.671686 0.556927 0.020000
0.783435 0.556927 0.020000
0.892742 0.556927 0.020000
1.000000 0.556927 0.020000
0.020000 0.671686 0.020000
0.181174 0.671686 0.020000
0.314174 0.671686 0.020000
0.438275 0.671686 0.020000
0.556927 0.671686 0.020000
0.671686 0.671686 0.020000
0.783435 0.671686 0.020000
0.892742 0.671686 0.020000
1.000000 0.671686 0.020000
0.020000 0.783435 0.020000
0.181174 0.783435 0.020000
0.314174 0.783435 0.020000
0.438275 0.783435 0.020000
0.556927 0.783435 0.020000
0.671686 0.783435 0.020000
0.783435 0.783435 0.020000
0.892742 0.783435 0.020000
1.000000 0.783435 0.020000
0.020000 0.892742 0.020000
0.181174 0.892742 0.020000
0.314174 0.892742 0.020000
0.438275 0.892742 0.020000
0.556927 0.892742 0.020000
0.671686 0.892742 0.020000
0.783435 0.892742 0.020000
0.892742 0.892742 0.020000
1.000000 0.892742 0.020000
0.020000 1.000000 0.020000
0.181174 1.000000 0.020000
0.314174 1.000000 0.020000
0.438275 1.000000 0.020000
0.556927 1.000000 0.020000
0.671686 1.000000 0.020000
0.783435 1.000000 0.020000
0.892742 1.000000 0.020000
1.000000 1.000000 0.020000
0.020000 0.020000 0.181174
0.181174 0.020000 0.181174
0.314174 0.020000 0.181174
0.438275 0.020000 0.181174
0.556927 0.020000 0.181174
0.671686 0.020000 0.181174
0.783435 0.020000 0.181174
0.892742 0.020000 0.181174
1.000000 0.020000 0.181174
0.020000 0.181174 0.181174
0.181174 0.181174 0.181174
0.314174 0.181174 0.181174
0.438275 0.181174 0.181174
0.556927 0.181174 0.181174
0.671686 0.181174 0.181174
0.783435 0.181174 0.181174
0.892742 0.181174 0.181174
1.000000 0.181174 0.181174
0.020000 0.314174 0.181174
0.181174 0.314174 0.181174
0.314174 0.314174 0.181174
0.438275 0.314174 0.181174
0.556927 0.314174 0.181174
0.671686 0.314174 0.181174
0.783435 0.314174 0.181174
0.892742 0.314174 0.181174
1.000000 0.314174 0.181174
0.020000 0.438275 0.181174
0.181174 0.438275 0.181174
0.314174 0.438275 0.181174
0.438275 0.438275 0.181174
0.556927 0.438275 0.181174
0.671686 0.438275 0.181174
0.783435 0.438275 0.181174
0.892742 0.438275 0.181174
1.000000 0.438275 0.181174
0.020000 0.556927 0.181174
0.181174 0.556927 0.181174
0.314174 0.556927 0.181174
0.438275 0.556927 0.181174
0.556927 0.556927 0.181174
0.671686 0.556927 0.181174
0.783435 0.556927 0.181174
0.892742 0.556927 0.181174
1.000000 0.556927 0.181174
0.020000 0.671686 0.181174
0.181174 0.671686 0.181174
0.314174 0.671686 0.181174
0.438275 0.671686 0.181174
0.556927 0.671686 0.181174
0.671686 0.671686 0.181174
0.783435 0.671686 0.181174
0.892742 0.671686 0.181174
1.000000 0.671686 0.181174
0.020000 0.783435 0.181174
0.181174 0.783435 0.181174
0.314174 0.783435 0.181174
0.438275 0.783435 0.181174
0.556927 0.783435 0.181174
0.671686 0.783435 0.181174
0.783435 0.783435 0.181174
0.892742 0.783435 0.181174
1.000000 0.783435 0.181174
0.020000 0.892742 0.181174
0.181174 0.892742 0.181174
0.314174 0.892742 0.181174
0.438275 0.892742 0.181174
0.556927 0.892742 0.181174
0.671686 0.892742 0.181174
0.783435 0.892742 0.181174
0.892742 0.892742 0.181174
1.000000 0.892742 0.181174
0.020000 1.000000 0.181174
0.181174 1.000000 0.181174
0.314174 1.000000 0.181174
0.438275 1.000000 0.181174
0.556927 1.000000 0.181174
0.671686 1.000000 0.181174
0.783435 1.000000 0.181174
0.892742 1.000000 0.181174
1.000000 1.000000 0.181174
0.020000 0.020000 0.314174
0.181174 0.020000 0.314174
0.314174 0.020000 0.314174
0.438275 0.020000 0.314174
0.556927 0.020000 0.314174
0.671686 0.020000 0.314174
0.783435 0.020000 0.314174
0.892742 0.020000 0.314174
1.000000 0.020000 0.314174
0.020000 0.181174 0.314174
0.181174 0.181174 0.314174
0.314174 0.181174 0.314174
0.438275 0.181174 0.314174
0.556927 0.181174 0.314174
0.671686 0.181174 0.314174
0.783435 0.181174 0.314174
0.892742 0.181174 0.314174
1.000000 0.181174 0.314174
0.020000 0.314174 0.314174
0.181174 0.314174 0.314174
0.314174 0.314174 0.314174
0.438275 0.314174 0.314174
0.556927 0.314174 0.314174
0.671686 0.314174 0.314174
0.783435 0.314174 0.314174
0.892742 0.314174 0.314174
1.000000 0.314174 0.314174
0.020000 0.438275 0.314174
0.181174 0.438275 0.314174
0.314174 0.438275 0.314174
0.438275 0.438275 0.314174
0.556927 0.438275 0.314174
0.671686 0.438275 0.314174
0.783435 0.438275 0.314174
0.892742 0.438275 0.314174
1.000000 0.438275 0.314174
0.020000 0.556927 0.314174
0.181174 0.556927 0.314174
0.314174 0.556927 0.314174
0.438275 0.556927 0.314174
0.556927 0.556927 0.314174
0.671686 0.556927 0.314174
0.783435 0.556927 0.314174
0.892742 0.556927 0.314174
1.000000 0.556927 0.314174
0.020000 0.671686 0.314174
0.181174 0.671686 0.314174
0.314174 0.671686 0.314174
0.438275 0.671686 0.314174
0.556927 0.671686 0.314174
0.671686 0.671686 0.314174
0.783435 0.671686 0.314174
0.892742 0.671686 0.314174
1.000000 0.671686 0.314174
0.020000 0.783435 0.314174
0.181174 0.783435 0.314174
0.314174 0.783435 0.314174
0.438275 0.783435 0.314174
0.556927 0.783435 0.314174
0.671686 0.783435 0.314174
0.783435 0.783435 0.314174
0.892742 0.783435 0.314174
1.000000 0.783435 0.314174
0.020000 0.892742 0.314174
0.181174 0.892742 0.314174
0.314174 0.892742 0.314174
0.438275 0.892742 0.314174
0.556927 0.892742 0.314174
0.671686 0.892742 0.314174
0.783435 0.892742 0.314174
0.892742 0.892742 0.314174
1.000000 0.892742 0.314174
0.020000 1.000000 0.314174
0.181174 1.000000 0.314174
0.314174 1.000000 0.314174
0.438275 1.000000 0.314174
0.556927 1.000000 0.314174
0.671686 1.000000 0.314174
0.783435 1.000000 0.314174
0.892742 1.000000 0.314174
1.000000 1.000000 0.314174
0.020000 0.020000 0.438275
0.181174 0.020000 0.438275
0.314174 0.020000 0.438275
0.438275 0.020000 0.438275
0.556927 0.020000 0.438275
0.671686 0.020000 0.438275
0.783435 0.020000 0.438275
0.892742 0.020000 0.438275
1.000000 0.020000 0.438275
0.020000 0.181174 0.438275
0.181174 0.181174 0.438275
0.314174 0.181174 0.438275
0.438275 0.181174 0.438275
0.556927 0.181174 0.438275
0.671686 0.181174 0.438275
0.783435 0.181174 0.438275
0.892742 0.181174 0.438275
1.000000 0.181174 0.438275
0.020000 0.314174 0.438275
0.181174 0.314174 0.438275
0.314174 0.314174 0.438275
0.438275 0.314174 0.438275
0.556927 0.314174 0.438275
0.671686 0.314174 0.438275
0.783435 0.314174 0.438275
0.892742 0.314174 0.438275
1.000000 0.314174 0.438275
0.020000 0.438275 0.438275
0.181174 0.438275 0.438275
0.314174 0.438275 0.438275
0.438275 0.438275 0.438275
0.556927 0.438275 0.438275
0.671686 0.438275 0.438275
0.783435 0.438275 0.438275
0.892742 0.438275 0.438275
1.000000 0.438275 0.438275
0.020000 0.556927 0.438275
0.181174 0.556927 0.438275
0.314174 0.556927 0.438275
0.438275 0.556927 0.438275
0.556927 0.556927 0.438275
0.671686 0.556927 0.438275
0.783435 0.556927 0.438275
0.892742 0.556927 0.438275
1.000000 0.556927 0.438275
0.020000 0.671686 0.438275
0.181174 0.671686 0.438275
0.314174 0.671686 0.438275
0.438275 0.671686 0.438275
0.556927 0.671686 0.438275
0.671686 0.671686 0.438275
0.783435 0.671686 0.438275
0.892742 0.671686 0.438275
1.000000 0.671686 0.438275
0.020000 0.783435 0.438275
0.181174 0.783435 0.438275
0.314174 0.783435 0.438275
0.438275 0.783435 0.438275
0.556927 0.783435 0.438275
0.671686 0.783435 0.438275
0.783435 0.783435 0.438275
0.892742 0.783435 0.438275
1.000000 0.783435 0.438275
0.020000 0.892742 0.438275
0.181174 0.892742 0.438275
0.314174 0.892742 0.438275
0.438275 0.892742 0.438275
0.556927 0.892742 0.438275
0.671686 0.892742 0.438275
0.783435 0.892742 0.438275
0.892742 0.892742 0.438275
1.000000 0.892742 0.438275
0.020000 1.000000 0.438275
0.181174 1.000000 0.438275
0.314174 1.000000 0.438275
0.438275 1.000000 0.438275
0.556927 1.000000 0.438275
0.671686 1.000000 0.438275
0.783435 1.000000 0.438275
0.892742 1.000000 0.438275
1.000000 1.000000 0.438275
0.020000 0.020000 0.556927
0.181174 0.020000 0.556927
0.314174 0.020000 0.556927
0.438275 0.020000 0.556927
0.556927 0.020000 0.556927
0.671686 0.020000 0.556927
0.783435 0.020000 0.556927
0.892742 0.020000 0.556927
1.000000 0.020000 0.556927
0.020000 0.181174 0.556927
0.181174 0.181174 0.556927
0.314174 0.181174 0.556927
0.438275 0.181174 0.556927
0.556927 0.181174 0.556927
0.671686 0.181174 0.556927
0.783435 0.181174 0.556927
0.892742 0.181174 0.556927
1.000000 0.181174 0.556927
0.020000 0.314174 0.556927
0.181174 0.314174 0.556927
0.314174 0.314174 0.556927
0.438275 0.314174 0.556927
0.556927 0.314174 0.556927
0.671686 0.314174 0.556927
0.783435 0.314174 0.556927
0.892742 0.314174 0.556927
1.000000 0.314174 0.556927
0.020000 0.438275 0.556927
0.181174 0.438275 0.556927
0.314174 0.438275 0.556927
0.438275 0.438275 0.556927
0.556927 0.438275 0.556927
0.671686 0.438275 0.556927
0.783435 0.438275 0.556927
0.892742 0.438275 0.556927
1.000000 0.438275 0.556927
0.020000 0.556927 0.556927
0.181174 0.556927 0.556927
0.314174 0.556927 0.556927
0.438275 0.556927 0.556927
0.556927 0.556927 0.556927
0.671686 0.556927 0.556927
0.783435 0.556927 0.556927
0.892742 0.556927 0.556927
1.000000 0.556927 0.556927
0.020000 0.671686 0.556927
0.181174 0.671686 0.556927
0.314174 0.671686 0.556927
0.438275 0.671686 0.556927
0.556927 0.671686 0.556927
0.671686 0.671686 0.556927
0.783435 0.671686 0.556927
0.892742 0.671686 0.556927
1.000000 0.671686 0.556927
0.020000 0.783435 0.556927
0.181174 0.783435 0.556927
0.314174 0.783435 0.556927
0.438275 0.783435 0.556927
0.556927 0.783435 0.556927
0.671686 0.783435 0.556927
0.783435 0.783435 0.556927
0.892742 0.783435 0.556927
1.000000 0.783435 0.556927
0.020000 0.892742 0.556927
0.181174 0.892742 0.556927
0.314174 0.892742 0.556927
0.438275 0.892742 0.556927
0.556927 0.892742 0.556927
0.671686 0.892742 0.556927
0.783435 0.892742 0.556927
0.892742 0.892742 0.556927
1.000000 0.892742 0.556927
0.020000 1.000000 0.556927
0.181174 1.000000 0.556927
0.314174 1.000000 0.556927
0.438275 1.000000 0.556927
0.556927 1.000000 0.556927
0.671686 1.000000 0.556927
0.783435 1.000000 0.556927
0.892742 1.000000 0.556927
1.000000 1.000000 0.556927
0.020000 0.020000 0.671686
0.181174 0.020000 0.671686
0.314174 0.020000 0.671686
0.438275 0.020000 0.671686
0.556927 0.020000 0.671686
0.671686 0.020000 0.671686
0.783435 0.020000 0.671686
0.892742 0.020000 0.671686
1.000000 0.020000 0.671686
0.020000 0.181174 0.671686
0.181174 0.181174 0.671686
0.314174 0.181174 0.671686
0.438275 0.181174 0.671686
0.556927 0.181174 0.671686
0.671686 0.181174 0.671686
0.783435 0.181174 0.671686
0.892742 0.181174 0.671686
1.000000 0.181174 0.671686
0.020000 0.314174 0.671686
0.181174 0.314174 0.671686
0.314174 0.314174 0.671686
0.438275 0.314174 0.671686
0.556927 0.314174 0.671686
0.671686 0.314174 0.671686
0.783435 0.314174 0.671686
0.892742 0.314174 0.671686
1.000000 0.314174 0.671686
0.020000 0.438275 0.671686
0.181174 0.438275 0.671686
0.314174 0.438275 0.671686
0.438275 0.438275 0.671686
0.556927 0.438275 0.671686
0.671686 0.438275 0.671686
0.783435 0.438275 0.671686
0.892742 0.438275 0.671686
1.000000 0.438275 0.671686
0.020000 0.556927 0.671686
0.181174 0.556927 0.671686
0.314174 0.556927 0.671686
0.438275 0.556927 0.671686
0.556927 0.556927 0.671686
0.671686 0.556927 0.671686
0.783435 0.556927 0.671686
0.892742 0.556927 0.671686
1.000000 0.556927 0.671686
0.020000 0.671686 0.671686
0.181174 0.671686 0.671686
0.314174 0.671686 0.671686
0.438275 0.671686 0.671686
0.556927 0.671686 0.671686
0.671686 0.671686 0.671686
0.783435 0.671686 0.671686
0.892742 0.671686 0.671686
1.000000 0.671686 0.671686
0.020000 0.783435 0.671686
0.181174 0.783435 0.671686
0.314174 0.783435 0.671686
0.438275 0.783435 0.671686
0.556927 0.783435 0.671686
0.671686 0.783435 0.671686
0.783435 0.783435 0.671686
0.892742 0.783435 0.671686
1.000000 0.783435 0.671686
0.020000 0.892742 0.671686
0.181174 0.892742 0.671686
0.314174 0.892742 0.671686
0.438275 0.892742 0.671686
0.556927 0.892742 0.671686
0.671686 0.892742 0.671686
0.783435 0.892742 0.671686
0.892742 0.892742 0.671686
1.000000 0.892742 0.671686
0.020000 1.000000 0.671686
0.181174 1.000000 0.671686
0.314174 1.000000 0.671686
0.438275 1.000000 0.671686
0.556927 1.000000 0.671686
0.671686 1.000000 0.671686
0.783435 1.000000 0.671686
0.892742 1.000000 0.671686
1.000000 1.000000 0.671686
0.020000 0.020000 0.783435
0.181174 0.020000 0.783435
0.314174 0.020000 0.783435
0.438275 0.020000 0.783435
0.556927 0.020000 0.783435
0.671686 0.020000 0.783435
0.783435 0.020000 0.783435
0.892742 0.020000 0.783435
1.000000 0.020000 0.783435
0.020000 0.181174 0.783435
0.181174 0.181174 0.783435
0.314174 0.181174 0.783435
0.438275 0.181174 0.783435
0.556927 0.181174 0.783435
0.671686 0.181174 0.783435
0.783435 0.181174 0.783435
0.892742 0.181174 0.783435
1.000000 0.181174 0.783435
0.020000 0.314174 0.783435
0.181174 0.314174 0.783435
0.314174 0.314174 0.783435
0.438275 0.314174 0.783435
0.556927 0.314174 0.783435
0.671686 0.314174 0.783435
0.783435 0.314174 0.783435
0.892742 0.314174 0.783435
1.000000 0.314174 0.783435
0.020000 0.438275 0.783435
0.181174 0.438275 0.783435
0.314174 0.438275 0.783435
0.438275 0.438275 0.783435
0.556927 0.438275 0.783435
0.671686 0.438275 0.783435
0.783435 0.438275 0.783435
0.892742 0.438275 0.783435
1.000000 0.438275 0.783435
0.020000 0.556927 0.783435
0.181174 0.556927 0.783435
0.314174 0.556927 0.783435
0.438275 0.556927 0.783435
0.556927 0.556927 0.783435
0.671686 0.556927 0.783435
0.783435 0.556927 0.783435
0.892742 0.556927 0.783435
1.000000 0.556927 0.783435
0.020000 0.671686 0.783435
0.181174 0.671686 0.783435
0.314174 0.671686 0.783435
0.438275 0.671686 0.783435
0.556927 0.671686 0.783435
0.671686 0.671686 0.783435
0.783435 0.671686 0.783435
0.892742 0.671686 0.783435
1.000000 0.671686 0.783435
0.020000 0.783435 0.783435
0.181174 0.783435 0.783435
0.314174 0.783435 0.783435
0.438275 0.783435 0.783435
0.556927 0.783435 0.783435
0.671686 0.783435 0.783435
0.783435 0.783435 0.783435
0.892742 0.783435 0.783435
1.000000 0.783435 0.783435
0.020000 0.892742 0.783435
0.181174 0.892742 0.783435
0.314174 0.892742 0.783435
0.438275 0.892742 0.783435
0.556927 0.892742 0.783435
0.671686 0.892742 0.783435
0.783435 0.892742 0.783435
0.892742 0.892742 0.783435
1.000000 0.892742 0.783435
0.020000 1.000000 0.783435
0.181174 1.000000 0.783435
0.314174 1.000000 0.783435
0.438275 1.000000 0.783435
0.556927 1.000000 0.783435
0.671686 1.000000 0.783435
0.783435 1.000000 0.783435
0.892742 1.000000 0.783435
1.000000 1.000000 0.783435
0.020000 0.020000 0.892742
0.181174 0.020000 0.892742
0.314174 0.020000 0.892742
0.438275 0.020000 0.892742
0.556927 0.020000 0.892742
0.671686 0.020000 0.892742
0.783435 0.020000 0.892742
0.892742 0.020000 0.892742
1.000000 0.020000 0.892742
0.020000 0.181174 0.892742
0.181174 0.181174 0.892742
0.314174 0.181174 0.892742
0.438275 0.181174 0.892742
0.556927 0.181174 0.892742
0.671686 0.181174 0.892742
0.783435 0.181174 0.892742
0.892742 0.181174 0.892742
1.000000 0.181174 0.892742
0.020000 0.314174 0.892742
0.181174 0.314174 0.892742
0.314174 0.314174 0.892742
0.438275 0.314174 0.892742
0.556927 0.314174 0.892742
0.671686 0.314174 0.892742
0.783435 0.314174 0.892742
0.892742 0.314174 0.892742
1.000000 0.314174 0.892742
0.020000 0.438275 0.892742
0.181174 0.438275 0.892742
0.314174 0.438275 0.892742
0.438275 0.438275 0.892742
0.556927 0.438275 0.892742
0.671686 0.438275 0.892742
0.783435 0.438275 0.892742
0.892742 0.438275 0.892742
1.000000 0.438275 0.892742
0.020000 0.556927 0.892742
0.181174 0.556927 0.892742
0.314174 0.556927 0.892742
0.438275 0.556927 0.892742
0.556927 0.556927 0.892742
0.671686 0.556927 0.892742
0.783435 0.556927 0.892742
0.892742 0.556927 0.892742
1.000000 0.556927 0.892742
0.020000 0.671686 0.892742
0.181174 0.671686 0.892742
0.314174 0.671686 0.892742
0.438275 0.671686 0.892742
0.556927 0.671686 0.892742
0.671686 0.671686 0.892742
0.783435 0.671686 0.892742
0.892742 0.671686 0.892742
1.000000 0.671686 0.892742
0.020000 0.783435 0.892742
0.181174 0.783435 0.892742
0.314174 0.783435 0.892742
0.438275 0.783435 0.892742
0.556927 0.783435 0.892742
0.671686 0.783435 0.892742
0.783435 0.783435 0.892742
0.892742 0.783435 0.892742
1.000000 0.783435 0.892742
0.020000 0.892742 0.892742
0.181174 0.892742 0.892742
0.314174 0.892742 0.892742
0.438275 0.892742 0.892742
0.556927 0.892742 0.892742
0.671686 0.892742 0.892742
0.783435 0.892742 0.892742
0.892742 0.892742 0.892742
1.000000 0.892742 0.892742
0.020000 1.000000 0.892742
0.181174 1.000000 0.892742
0.314174 1.000000 0.892742
0.438275 1.000000 0.892742
0.556927 1.000000 0.892742
0.671686 1.000000 0.892742
0.783435 1.000000 0.892742
0.892742 1.000000 0.892742
1.000000 1.000000 0.892742
0.020000 0.020000 1.000000
0.181174 0.020000 1.000000
0.314174 0.020000 1.000000
0.438275 0.020000 1.000000
0.556927 0.020000 1.000000
0.671686 0.020000 1.000000
0.783435 0.020000 1.000000
0.892742 0.020000 1.000000
1.000000 0.020000 1.000000
0.020000 0.181174 1.000000
0.181174 0.181174 1.000000
0.314174 0.181174 1.000000
0.438275 0.181174 1.000000
0.556927 0.181174 1.000000
0.671686 0.181174 1.000000
0.783435 0.181174 1.000000
0.892742 0.181174 1.000000
1.000000 0.181174 1.000000
0.020000 0.314174 1.000000
0.181174 0.314174 1.000000
0.314174 0.314174 1.000000
0.438275 0.314174 1.000000
0.556927 0.314174 1.000000
0.671686 0.314174 1.000000
0.783435 0.314174 1.000000
0.892742 0.314174 1.000000
1.000000 0.314174 1.000000
0.020000 0.438275 1.000000
0.181174 0.438275 1.000000
0.314174 0.438275 1.000000
0.438275 0.438275 1.000000
0.556927 0.438275 1.000000
0.671686 0.438275 1.000000
0.783435 0.438275 1.000000
0.892742 0.438275 1.000000
1.000000 0.438275 1.000000
0.020000 0.556927 1.000000
0.181174 0.556927 1.000000
0.314174 0.556927 1.000000
0.438275 0.556927 1.000000
0.556927 0.556927 1.000000
0.671686 0.556927 1.000000
0.783435 0.556927 1.000000
0.892742 0.556927 1.000000
1.000000 0.556927 1.000000
0.020000 0.671686 1.000000
0.181174 0.671686 1.000000
0.314174 0.671686 1.000000
0.438275 0.671686 1.000000
0.556927 0.671686 1.000000
0.671686 0.671686 1.000000
0.783435 0.671686 1.000000
0.892742 0.671686 1.000000
1.000000 0.671686 1.000000
0.020000 0.783435 1.000000
0.181174 0.783435 1.000000
0.314174 0.783435 1.000000
0.438275 0.783435 1.000000
0.556927 0.783435 1.000000
0.671686 0.783435 1.000000
0.783435 0.783435 1.000000
0.892742 0.783435 1.000000
1.000000 0.783435 1.000000
0.020000 0.892742 1.000000
0.181174 0.892742 1.000000
0.314174 0.892742 1.000000
0.438275 0.892742 1.000000
0.556927 0.892742 1.000000
0.671686 0.892742 1.000000
0.783435 0.892742 1.000000
0.892742 0.892742 1.000000
1.000000 0.892742 1.000000
0.020000 1.000000 1.000000
0.181174 1.000000 1.000000
0.314174 1.000000 1.000000
0.438275 1.000000 1.000000
0.556927 1.000000 1.000000
0.671686 1.000000 1.000000
0.783435 1.000000 1.000000
0.892742 1.000000 1.000000
1.000000 1.000000 1.000000
