frontend/client/public/luts/script/arri_logc_rec709.cube
TITLE "ARRI Log-C to Rec.709"
LUT_3D_SIZE 5
0.020000 0.020000 0.020000
0.314174 0.020000 0.020000
0.556927 0.020000 0.020000
0.783435 0.020000 0.020000
1.000000 0.020000 0.020000
0.020000 0.314174 0.020000
0.314174 0.314174 0.020000
0.556927 0.314174 0.020000
0.783435 0.314174 0.020000
1.000000 0.314174 0.020000
0.020000 0.556927 0.020000
0.314174 0.556927 0.020000
0.556927 0.556927 0.020000
0.783435 0.556927 0.020000
1.000000 0.556927 0.020000
0.020000 0.783435 0.020000
0.314174 0.783435 0.020000
0.556927 0.783435 0.020000
0.783435 0.783435 0.020000
1.000000 0.783435 0.020000
0.020000 1.000000 0.020000
0.314174 1.000000 0.020000
0.556927 1.000000 0.020000
0.783435 1.000000 0.020000
1.000000 1.000000 0.020000
0.020000 0.020000 0.314174
0.314174 0.020000 0.314174
0.556927 0.020000 0.314174
0.783435 0.020000 0.314174
1.000000 0.020000 0.314174
0.020000 0.314174 0.314174
0.314174 0.314174 0.314174
0.556927 0.314174 0.314174
0.783435 0.314174 0.314174
1.000000 0.314174 0.314174
0.020000 0.556927 0.314174
0.314174 0.556927 0.314174
0.556927 0.556927 0.314174
0.783435 0.556927 0.314174
1.000000 0.556927 0.314174
0.020000 0.783435 0.314174
0.314174 0.783435 0.314174
0.556927 0.783435 0.314174
0.783435 0.783435 0.314174
1.000000 0.783435 0.314174
0.020000 1.000000 0.314174
0.314174 1.000000 0.314174
0.556927 1.000000 0.314174
0.783435 1.000000 0.314174
1.000000 1.000000 0.314174
0.020000 0.020000 0.556927
0.314174 0.020000 0.556927
0.556927 0.020000 0.556927
0.783435 0.020000 0.556927
1.000000 0.020000 0.556927
0.020000 0.314174 0.556927
0.314174 0.314174 0.556927
0.556927 0.314174 0.556927
0.783435 0.314174 0.556927
1.000000 0.314174 0.556927
0.020000 0.556927 0.556927
0.314174 0.556927 0.556927
0.556927 0.556927 0.556927
0.783435 0.556927 0.556927
1.000000 0.556927 0.556927
0.020000 0.783435 0.556927
0.314174 0.783435 0.556927
0.556927 0.783435 0.556927
0.783435 0.783435 0.556927
1.000000 0.783435 0.556927
0.020000 1.000000 0.556927
0.314174 1.000000 0.556927
0.556927 1.000000 0.556927
0.783435 1.000000 0.556927
1.000000 1.000000 0.556927
0.020000 0.020000 0.783435
0.314174 0.020000 0.783435
0.556927 0.020000 0.783435
0.783435 0.020000 0.783435
1.000000 0.020000 0.783435
0.020000 0.314174 0.783435
0.314174 0.314174 0.783435
0.556927 0.314174 0.783435
0.783435 0.314174 0.783435
1.000000 0.314174 0.783435
0.020000 0.556927 0.783435
0.314174 0.556927 0.783435
0.556927 0.556927 0.783435
0.783435 0.556927 0.783435
1.000000 0.556927 0.783435
0.020000 0.783435 0.783435
0.314174 0.783435 0.783435
0.556927 0.783435 0.783435
0.783435 0.783435 0.783435
1.000000 0.783435 0.783435
0.020000 1.000000 0.783435
0.314174 1.000000 0.783435
0.556927 1.000000 0.783435
0.783435 1.000000 0.783435
1.000000 1.000000 0.783435
0.020000 0.020000 1.000000
0.314174 0.020000 1.000000
0.556927 0.020000 1.000000
0.783435 0.020000 1.000000
1.000000 0.020000 1.000000
0.020000 0.314174 1.000000
0.314174 0.314174 1.000000
0.556927 0.314174 1.000000
0.783435 0.314174 1.000000
1.000000 0.314174 1.000000
0.020000 0.556927 1.000000
0.314174 0.556927 1.000000
0.556927 0.556927 1.000000
0.783435 0.556927 1.000000
1.000000 0.556927 1.000000
0.020000 0.783435 1.000000
0.314174 0.783435 1.000000
0.556927 0.783435 1.000000
0.783435 0.783435 1.000000
1.000000 0.783435 1.000000
0.020000 1.000000 1.000000
0.314174 1.000000 1.000000
0.556927 1.000000 1.000000
0.783435 1.000000 1.000000
1.000000 1.000000 1.000000
