frontend/client/public/luts/script/canon_clog_rec709.cube
TITLE "Canon C-Log to Rec.709"
LUT_3D_SIZE 17
0.070000 0.070000 0.070000
0.144787 0.070000 0.070000
0.210440 0.070000 0.070000
0.273037 0.070000 0.070000
0.333728 0.070000 0.070000
0.393040 0.070000 0.070000
0.451275 0.070000 0.070000
0.508631 0.070000 0.070000
0.565244 0.070000 0.070000
0.621216 0.070000 0.070000
0.676624 0.070000 0.070000
0.731529 0.070000 0.070000
0.785982 0.070000 0.070000
0.840024 0.070000 0.070000
0.893688 0.070000 0.070000
0.947005 0.070000 0.070000
1.000000 0.070000 0.070000
0.070000 0.144787 0.070000
0.144787 0.144787 0.070000
0.210440 0.144787 0.070000
0.273037 0.144787 0.070000
0.333728 0.144787 0.070000
0.393040 0.144787 0.070000
0.451275 0.144787 0.070000
0.508631 0.144787 0.070000
0.565244 0.144787 0.070000
0.621216 0.144787 0.070000
0.676624 0.144787 0.070000
0.731529 0.144787 0.070000
0.785982 0.144787 0.070000
0.840024 0.144787 0.070000
0.893688 0.144787 0.070000
0.947005 0.144787 0.070000
1.000000 0.144787 0.070000
0.070000 0.210440 0.070000
0.144787 0.210440 0.070000
0.210440 0.210440 0.070000
0.273037 0.210440 0.070000
0.333728 0.210440 0.070000
0.393040 0.210440 0.070000
0.451275 0.210440 0.070000
0.508631 0.210440 0.070000
0.565244 0.210440 0.070000
0.621216 0.210440 0.070000
0.676624 0.210440 0.070000
0.731529 0.210440 0.070000
0.785982 0.210440 0.070000
0.840024 0.210440 0.070000
0.893688 0.210440 0.070000
0.947005 0.210440 0.070000
1.000000 0.210440 0.070000
0.070000 0.273037 0.070000
0.144787 0.273037 0.070000
0.210440 0.273037 0.070000
0.273037 0.273037 0.070000
0.333728 0.273037 0.070000
0.393040 0.273037 0.070000
0.451275 0.273037 0.070000
0.508631 0.273037 0.070000
0.565244 0.273037 0.070000
0.621216 0.273037 0.070000
0.676624 0.273037 0.070000
0.731529 0.273037 0.070000
0.785982 0.273037 0.070000
0.840024 0.273037 0.070000
0.893688 0.273037 0.070000
0.947005 0.273037 0.070000
1.000000 0.273037 0.070000
0.070000 0.333728 0.070000
0.144787 0.333728 0.070000
0.210440 0.333728 0.070000
0.273037 0.333728 0.070000
0.333728 0.333728 0.070000
0.393040 0.333728 0.070000
0.451275 0.333728 0.070000
0.508631 0.333728 0.070000
0.565244 0.333728 0.070000
0.621216 0.333728 0.070000
0.676624 0.333728 0.070000
0.731529 0.333728 0.070000
0.785982 0.333728 0.070000
0.840024 0.333728 0.070000
0.893688 0.333728 0.070000
0.947005 0.333728 0.070000
1.000000 0.333728 0.070000
0.070000 0.393040 0.070000
0.144787 0.393040 0.070000
0.210440 0.393040 0.070000
0.273037 0.393040 0.070000
0.333728 0.393040 0.070000
0.393040 0.393040 0.070000
0.451275 0.393040 0.070000
0.508631 0.393040 0.070000
0.565244 0.393040 0.070000
0.621216 0.393040 0.070000
0.676624 0.393040 0.070000
0.731529 0.393040 0.070000
0.785982 0.393040 0.070000
0.840024 0.393040 0.070000
0.893688 0.393040 0.070000
0.947005 0.393040 0.070000
1.000000 0.393040 0.070000
0.070000 0.451275 0.070000
0.144787 0.451275 0.070000
0.210440 0.451275 0.070000
0.273037 0.451275 0.070000
0.333728 0.451275 0.070000
0.393040 0.451275 0.070000
0.451275 0.451275 0.070000
0.508631 0.451275 0.070000
0.565244 0.451275 0.070000
0.621216 0.451275 0.070000
0.676624 0.451275 0.070000
0.731529 0.451275 0.070000
0.785982 0.451275 0.070000
0.840024 0.451275 0.070000
0.893688 0.451275 0.070000
0.947005 0.451275 0.070000
1.000000 0.451275 0.070000
0.070000 0.508631 0.070000
0.144787 0.508631 0.070000
0.210440 0.508631 0.070000
0.273037 0.508631 0.070000
0.333728 0.508631 0.070000
0.393040 0.508631 0.070000
0.451275 0.508631 0.070000
0.508631 0.508631 0.070000
0.565244 0.508631 0.070000
0.621216 0.508631 0.070000
0.676624 0.508631 0.070000
0.731529 0.508631 0.070000
0.785982 0.508631 0.070000
0.840024 0.508631 0.070000
0.893688 0.508631 0.070000
0.947005 0.508631 0.070000
1.000000 0.508631 0.070000
0.070000 0.565244 0.070000
0.144787 0.565244 0.070000
0.210440 0.565244 0.070000
0.273037 0.565244 0.070000
0.333728 0.565244 0.070000
0.393040 0.565244 0.070000
0.451275 0.565244 0.070000
0.508631 0.565244 0.070000
0.565244 0.565244 0.070000
0.621216 0.565244 0.070000
0.676624 0.565244 0.070000
0.731529 0.565244 0.070000
0.785982 0.565244 0.070000
0.840024 0.565244 0.070000
0.893688 0.565244 0.070000
0.947005 0.565244 0.070000
1.000000 0.565244 0.070000
0.070000 0.621216 0.070000
0.144787 0.621216 0.070000
0.210440 0.621216 0.070000
0.273037 0.621216 0.070000
0.333728 0.621216 0.070000
0.393040 0.621216 0.070000
0.451275 0.621216 0.070000
0.508631 0.621216 0.070000
0.565244 0.621216 0.070000
0.621216 0.621216 0.070000
0.676624 0.621216 0.070000
0.731529 0.621216 0.070000
0.785982 0.621216 0.070000
0.840024 0.621216 0.070000
0.893688 0.621216 0.070000
0.947005 0.621216 0.070000
1.000000 0.621216 0.070000
0.070000 0.676624 0.070000
0.144787 0.676624 0.070000
0.210440 0.676624 0.070000
0.273037 0.676624 0.070000
0.333728 0.676624 0.070000
0.393040 0.676624 0.070000
0.451275 0.676624 0.070000
0.508631 0.676624 0.070000
0.565244 0.676624 0.070000
0.621216 0.676624 0.070000
0.676624 0.676624 0.070000
0.731529 0.676624 0.070000
0.785982 0.676624 0.070000
0.840024 0.676624 0.070000
0.893688 0.676624 0.070000
0.947005 0.676624 0.070000
1.000000 0.676624 0.070000
0.070000 0.731529 0.070000
0.144787 0.731529 0.070000
0.210440 0.731529 0.070000
0.273037 0.731529 0.070000
0.333728 0.731529 0.070000
0.393040 0.731529 0.070000
0.451275 0.731529 0.070000
0.508631 0.731529 0.070000
0.565244 0.731529 0.070000
0.621216 0.731529 0.070000
0.676624 0.731529 0.070000
0.731529 0.731529 0.070000
0.785982 0.731529 0.070000
0.840024 0.731529 0.070000
0.893688 0.731529 0.070000
0.947005 0.731529 0.070000
1.000000 0.731529 0.070000
0.070000 0.785982 0.070000
0.144787 0.785982 0.070000
0.210440 0.785982 0.070000
0.273037 0.785982 0.070000
0.333728 0.785982 0.070000
0.393040 0.785982 0.070000
0.451275 0.785982 0.070000
0.508631 0.785982 0.070000
0.565244 0.785982 0.070000
0.621216 0.785982 0.070000
0.676624 0.785982 0.070000
0.731529 0.785982 0.070000
0.785982 0.785982 0.070000
0.840024 0.785982 0.070000
0.893688 0.785982 0.070000
0.947005 0.785982 0.070000
1.000000 0.785982 0.070000
0.070000 0.840024 0.070000
0.144787 0.840024 0.070000
0.210440 0.840024 0.070000
0.273037 0.840024 0.070000
0.333728 0.840024 0.070000
0.393040 0.840024 0.070000
0.451275 0.840024 0.070000
0.508631 0.840024 0.070000
0.565244 0.840024 0.070000
0.621216 0.840024 0.070000
0.676624 0.840024 0.070000
0.731529 0.840024 0.070000
0.785982 0.840024 0.070000
0.840024 0.840024 0.070000
0.893688 0.840024 0.070000
0.947005 0.840024 0.070000
1.000000 0.840024 0.070000
0.070000 0.893688 0.070000
0.144787 0.893688 0.070000
0.210440 0.893688 0.070000
0.273037 0.893688 0.070000
0.333728 0.893688 0.070000
0.393040 0.893688 0.070000
0.451275 0.893688 0.070000
0.508631 0.893688 0.070000
0.565244 0.893688 0.070000
0.621216 0.893688 0.070000
0.676624 0.893688 0.070000
0.731529 0.893688 0.070000
0.785982 0.893688 0.070000
0.840024 0.893688 0.070000
0.893688 0.893688 0.070000
0.947005 0.893688 0.070000
1.000000 0.893688 0.070000
0.070000 0.947005 0.070000
0.144787 0.947005 0.070000
0.210440 0.947005 0.070000
0.273037 0.947005 0.070000
0.333728 0.947005 0.070000
0.393040 0.947005 0.070000
0.451275 0.947005 0.070000
0.508631 0.947005 0.070000
0.565244 0.947005 0.070000
0.621216 0.947005 0.070000
0.676624 0.947005 0.070000
0.731529 0.947005 0.070000
0.785982 0.947005 0.070000
0.840024 0.947005 0.070000
0.893688 0.947005 0.070000
0.947005 0.947005 0.070000
1.000000 0.947005 0.070000
0.070000 1.000000 0.070000
0.144787 1.000000 0.070000
0.210440 1.000000 0.070000
0.273037 1.000000 0.070000
0.333728 1.000000 0.070000
0.393040 1.000000 0.070000
0.451275 1.000000 0.070000
0.508631 1.000000 0.070000
0.565244 1.000000 0.070000
0.621216 1.000000 0.070000
0.676624 1.000000 0.070000
0.731529 1.000000 0.070000
0.785982 1.000000 0.070000
0.840024 1.000000 0.070000
0.893688 1.000000 0.070000
0.947005 1.000000 0.070000
1.000000 1.000000 0.070000
0.070000 0.070000 0.144787
0.144787 0.070000 0.144787
0.210440 0.070000 0.144787
0.273037 0.070000 0.144787
0.333728 0.070000 0.144787
0.393040 0.070000 0.144787
0.451275 0.070000 0.144787
0.508631 0.070000 0.144787
0.565244 0.070000 0.144787
0.621216 0.070000 0.144787
0.676624 0.070000 0.144787
0.731529 0.070000 0.144787
0.785982 0.070000 0.144787
0.840024 0.070000 0.144787
0.893688 0.070000 0.144787
0.947005 0.070000 0.144787
1.000000 0.070000 0.144787
0.070000 0.144787 0.144787
0.144787 0.144787 0.144787
0.210440 0.144787 0.144787
0.273037 0.144787 0.144787
0.333728 0.144787 0.144787
0.393040 0.144787 0.144787
0.451275 0.144787 0.144787
0.508631 0.144787 0.144787
0.565244 0.144787 0.144787
0.621216 0.144787 0.144787
0.676624 0.144787 0.144787
0.731529 0.144787 0.144787
0.785982 0.144787 0.144787
0.840024 0.144787 0.144787
0.893688 0.144787 0.144787
0.947005 0.144787 0.144787
1.000000 0.144787 0.144787
0.070000 0.210440 0.144787
0.144787 0.210440 0.144787
0.210440 0.210440 0.144787
0.273037 0.210440 0.144787
0.333728 0.210440 0.144787
0.393040 0.210440 0.144787
0.451275 0.210440 0.144787
0.508631 0.210440 0.144787
0.565244 0.210440 0.144787
0.621216 0.210440 0.144787
0.676624 0.210440 0.144787
0.731529 0.210440 0.144787
0.785982 0.210440 0.144787
0.840024 0.210440 0.144787
0.893688 0.210440 0.144787
0.947005 0.210440 0.144787
1.000000 0.210440 0.144787
0.070000 0.273037 0.144787
0.144787 0.273037 0.144787
0.210440 0.273037 0.144787
0.273037 0.273037 0.144787
0.333728 0.273037 0.144787
0.393040 0.273037 0.144787
0.451275 0.273037 0.144787
0.508631 0.273037 0.144787
0.565244 0.273037 0.144787
0.621216 0.273037 0.144787
0.676624 0.273037 0.144787
0.731529 0.273037 0.144787
0.785982 0.273037 0.144787
0.840024 0.273037 0.144787
0.893688 0.273037 0.144787
0.947005 0.273037 0.144787
1.000000 0.273037 0.144787
0.070000 0.333728 0.144787
0.144787 0.333728 0.144787
0.210440 0.333728 0.144787
0.273037 0.333728 0.144787
0.333728 0.333728 0.144787
0.393040 0.333728 0.144787
0.451275 0.333728 0.144787
0.508631 0.333728 0.144787
0.565244 0.333728 0.144787
0.621216 0.333728 0.144787
0.676624 0.333728 0.144787
0.731529 0.333728 0.144787
0.785982 0.333728 0.144787
0.840024 0.333728 0.144787
0.893688 0.333728 0.144787
0.947005 0.333728 0.144787
1.000000 0.333728 0.144787
0.070000 0.393040 0.144787
0.144787 0.393040 0.144787
0.210440 0.393040 0.144787
0.273037 0.393040 0.144787
0.333728 0.393040 0.144787
0.393040 0.393040 0.144787
0.451275 0.393040 0.144787
0.508631 0.393040 0.144787
0.565244 0.393040 0.144787
0.621216 0.393040 0.144787
0.676624 0.393040 0.144787
0.731529 0.393040 0.144787
0.785982 0.393040 0.144787
0.840024 0.393040 0.144787
0.893688 0.393040 0.144787
0.947005 0.393040 0.144787
1.000000 0.393040 0.144787
0.070000 0.451275 0.144787
0.144787 0.451275 0.144787
0.210440 0.451275 0.144787
0.273037 0.451275 0.144787
0.333728 0.451275 0.144787
0.393040 0.451275 0.144787
0.451275 0.451275 0.144787
0.508631 0.451275 0.144787
0.565244 0.451275 0.144787
0.621216 0.451275 0.144787
0.676624 0.451275 0.144787
0.731529 0.451275 0.144787
0.785982 0.451275 0.144787
0.840024 0.451275 0.144787
0.893688 0.451275 0.144787
0.947005 0.451275 0.144787
1.000000 0.451275 0.144787
0.070000 0.508631 0.144787
0.144787 0.508631 0.144787
0.210440 0.508631 0.144787
0.273037 0.508631 0.144787
0.333728 0.508631 0.144787
0.393040 0.508631 0.144787
0.451275 0.508631 0.144787
0.508631 0.508631 0.144787
0.565244 0.508631 0.144787
0.621216 0.508631 0.144787
0.676624 0.508631 0.144787
0.731529 0.508631 0.144787
0.785982 0.508631 0.144787
0.840024 0.508631 0.144787
0.893688 0.508631 0.144787
0.947005 0.508631 0.144787
1.000000 0.508631 0.144787
0.070000 0.565244 0.144787
0.144787 0.565244 0.144787
0.210440 0.565244 0.144787
0.273037 0.565244 0.144787
0.333728 0.565244 0.144787
0.393040 0.565244 0.144787
0.451275 0.565244 0.144787
0.508631 0.565244 0.144787
0.565244 0.565244 0.144787
0.621216 0.565244 0.144787
0.676624 0.565244 0.144787
0.731529 0.565244 0.144787
0.785982 0.565244 0.144787
0.840024 0.565244 0.144787
0.893688 0.565244 0.144787
0.947005 0.565244 0.144787
1.000000 0.565244 0.144787
0.070000 0.621216 0.144787
0.144787 0.621216 0.144787
0.210440 0.621216 0.144787
0.273037 0.621216 0.144787
0.333728 0.621216 0.144787
0.393040 0.621216 0.144787
0.451275 0.621216 0.144787
0.508631 0.621216 0.144787
0.565244 0.621216 0.144787
0.621216 0.621216 0.144787
0.676624 0.621216 0.144787
0.731529 0.621216 0.144787
0.785982 0.621216 0.144787
0.840024 0.621216 0.144787
0.893688 0.621216 0.144787
0.947005 0.621216 0.144787
1.000000 0.621216 0.144787
0.070000 0.676624 0.144787
0.144787 0.676624 0.144787
0.210440 0.676624 0.144787
0.273037 0.676624 0.144787
0.333728 0.676624 0.144787
0.393040 0.676624 0.144787
0.451275 0.676624 0.144787
0.508631 0.676624 0.144787
0.565244 0.676624 0.144787
0.621216 0.676624 0.144787
0.676624 0.676624 0.144787
0.731529 0.676624 0.144787
0.785982 0.676624 0.144787
0.840024 0.676624 0.144787
0.893688 0.676624 0.144787
0.947005 0.676624 0.144787
1.000000 0.676624 0.144787
0.070000 0.731529 0.144787
0.144787 0.731529 0.144787
0.210440 0.731529 0.144787
0.273037 0.731529 0.144787
0.333728 0.731529 0.144787
0.393040 0.731529 0.144787
0.451275 0.731529 0.144787
0.508631 0.731529 0.144787
0.565244 0.731529 0.144787
0.621216 0.731529 0.144787
0.676624 0.731529 0.144787
0.731529 0.731529 0.144787
0.785982 0.731529 0.144787
0.840024 0.731529 0.144787
0.893688 0.731529 0.144787
0.947005 0.731529 0.144787
1.000000 0.731529 0.144787
0.070000 0.785982 0.144787
0.144787 0.785982 0.144787
0.210440 0.785982 0.144787
0.273037 0.785982 0.144787
0.333728 0.785982 0.144787
0.393040 0.785982 0.144787
0.451275 0.785982 0.144787
0.508631 0.785982 0.144787
0.565244 0.785982 0.144787
0.621216 0.785982 0.144787
0.676624 0.785982 0.144787
0.731529 0.785982 0.144787
0.785982 0.785982 0.144787
0.840024 0.785982 0.144787
0.893688 0.785982 0.144787
0.947005 0.785982 0.144787
1.000000 0.785982 0.144787
0.070000 0.840024 0.144787
0.144787 0.840024 0.144787
0.210440 0.840024 0.144787
0.273037 0.840024 0.144787
0.333728 0.840024 0.144787
0.393040 0.840024 0.144787
0.451275 0.840024 0.144787
0.508631 0.840024 0.144787
0.565244 0.840024 0.144787
0.621216 0.840024 0.144787
0.676624 0.840024 0.144787
0.731529 0.840024 0.144787
0.785982 0.840024 0.144787
0.840024 0.840024 0.144787
0.893688 0.840024 0.144787
0.947005 0.840024 0.144787
1.000000 0.840024 0.144787
0.070000 0.893688 0.144787
0.144787 0.893688 0.144787
0.210440 0.893688 0.144787
0.273037 0.893688 0.144787
0.333728 0.893688 0.144787
0.393040 0.893688 0.144787
0.451275 0.893688 0.144787
0.508631 0.893688 0.144787
0.565244 0.893688 0.144787
0.621216 0.893688 0.144787
0.676624 0.893688 0.144787
0.731529 0.893688 0.144787
0.785982 0.893688 0.144787
0.840024 0.893688 0.144787
0.893688 0.893688 0.144787
0.947005 0.893688 0.144787
1.000000 0.893688 0.144787
0.070000 0.947005 0.144787
0.144787 0.947005 0.144787
0.210440 0.947005 0.144787
0.273037 0.947005 0.144787
0.333728 0.947005 0.144787
0.393040 0.947005 0.144787
0.451275 0.947005 0.144787
0.508631 0.947005 0.144787
0.565244 0.947005 0.144787
0.621216 0.947005 0.144787
0.676624 0.947005 0.144787
0.731529 0.947005 0.144787
0.785982 0.947005 0.144787
0.840024 0.947005 0.144787
0.893688 0.947005 0.144787
0.947005 0.947005 0.144787
1.000000 0.947005 0.144787
0.070000 1.000000 0.144787
0.144787 1.000000 0.144787
0.210440 1.000000 0.144787
0.273037 1.000000 0.144787
0.333728 1.000000 0.144787
0.393040 1.000000 0.144787
0.451275 1.000000 0.144787
0.508631 1.000000 0.144787
0.565244 1.000000 0.144787
0.621216 1.000000 0.144787
0.676624 1.000000 0.144787
0.731529 1.000000 0.144787
0.785982 1.000000 0.144787
0.840024 1.000000 0.144787
0.893688 1.000000 0.144787
0.947005 1.000000 0.144787
1.000000 1.000000 0.144787
0.070000 0.070000 0.210440
0.144787 0.070000 0.210440
0.210440 0.070000 0.210440
0.273037 0.070000 0.210440
0.333728 0.070000 0.210440
0.393040 0.070000 0.210440
0.451275 0.070000 0.210440
0.508631 0.070000 0.210440
0.565244 0.070000 0.210440
0.621216 0.070000 0.210440
0.676624 0.070000 0.210440
0.731529 0.070000 0.210440
0.785982 0.070000 0.210440
0.840024 0.070000 0.210440
0.893688 0.070000 0.210440
0.947005 0.070000 0.210440
1.000000 0.070000 0.210440
0.070000 0.144787 0.210440
0.144787 0.144787 0.210440
0.210440 0.144787 0.210440
0.273037 0.144787 0.210440
0.333728 0.144787 0.210440
0.393040 0.144787 0.210440
0.451275 0.144787 0.210440
0.508631 0.144787 0.210440
0.565244 0.144787 0.210440
0.621216 0.144787 0.210440
0.676624 0.144787 0.210440
0.731529 0.144787 0.210440
0.785982 0.144787 0.210440
0.840024 0.144787 0.210440
0.893688 0.144787 0.210440
0.947005 0.144787 0.210440
1.000000 0.144787 0.210440
0.070000 0.210440 0.210440
0.144787 0.210440 0.210440
0.210440 0.210440 0.210440
0.273037 0.210440 0.210440
0.333728 0.210440 0.210440
0.393040 0.210440 0.210440
0.451275 0.210440 0.210440
0.508631 0.210440 0.210440
0.565244 0.210440 0.210440
0.621216 0.210440 0.210440
0.676624 0.210440 0.210440
0.731529 0.210440 0.210440
0.785982 0.210440 0.210440
0.840024 0.210440 0.210440
0.893688 0.210440 0.210440
0.947005 0.210440 0.210440
1.000000 0.210440 0.210440
0.070000 0.273037 0.210440
0.144787 0.273037 0.210440
0.210440 0.273037 0.210440
0.273037 0.273037 0.210440
0.333728 0.273037 0.210440
0.393040 0.273037 0.210440
0.451275 0.273037 0.210440
0.508631 0.273037 0.210440
0.565244 0.273037 0.210440
0.621216 0.273037 0.210440
0.676624 0.273037 0.210440
0.731529 0.273037 0.210440
0.785982 0.273037 0.210440
0.840024 0.273037 0.210440
0.893688 0.273037 0.210440
0.947005 0.273037 0.210440
1.000000 0.273037 0.210440
0.070000 0.333728 0.210440
0.144787 0.333728 0.210440
0.210440 0.333728 0.210440
0.273037 0.333728 0.210440
0.333728 0.333728 0.210440
0.393040 0.333728 0.210440
0.451275 0.333728 0.210440
0.508631 0.333728 0.210440
0.565244 0.333728 0.210440
0.621216 0.333728 0.210440
0.676624 0.333728 0.210440
0.731529 0.333728 0.210440
0.785982 0.333728 0.210440
0.840024 0.333728 0.210440
0.893688 0.333728 0.210440
0.947005 0.333728 0.210440
1.000000 0.333728 0.210440
0.070000 0.393040 0.210440
0.144787 0.393040 0.210440
0.210440 0.393040 0.210440
0.273037 0.393040 0.210440
0.333728 0.393040 0.210440
0.393040 0.393040 0.210440
0.451275 0.393040 0.210440
0.508631 0.393040 0.210440
0.565244 0.393040 0.210440
0.621216 0.393040 0.210440
0.676624 0.393040 0.210440
0.731529 0.393040 0.210440
0.785982 0.393040 0.210440
0.840024 0.393040 0.210440
0.893688 0.393040 0.210440
0.947005 0.393040 0.210440
1.000000 0.393040 0.210440
0.070000 0.451275 0.210440
0.144787 0.451275 0.210440
0.210440 0.451275 0.210440
0.273037 0.451275 0.210440
0.333728 0.451275 0.210440
0.393040 0.451275 0.210440
0.451275 0.451275 0.210440
0.508631 0.451275 0.210440
0.565244 0.451275 0.210440
0.621216 0.451275 0.210440
0.676624 0.451275 0.210440
0.731529 0.451275 0.210440
0.785982 0.451275 0.210440
0.840024 0.451275 0.210440
0.893688 0.451275 0.210440
0.947005 0.451275 0.210440
1.000000 0.451275 0.210440
0.070000 0.508631 0.210440
0.144787 0.508631 0.210440
0.210440 0.508631 0.210440
0.273037 0.508631 0.210440
0.333728 0.508631 0.210440
0.393040 0.508631 0.210440
0.451275 0.508631 0.210440
0.508631 0.508631 0.210440
0.565244 0.508631 0.210440
0.621216 0.508631 0.210440
0.676624 0.508631 0.210440
0.731529 0.508631 0.210440
0.785982 0.508631 0.210440
0.840024 0.508631 0.210440
0.893688 0.508631 0.210440
0.947005 0.508631 0.210440
1.000000 0.508631 0.210440
0.070000 0.565244 0.210440
0.144787 0.565244 0.210440
0.210440 0.565244 0.210440
0.273037 0.565244 0.210440
0.333728 0.565244 0.210440
0.393040 0.565244 0.210440
0.451275 0.565244 0.210440
0.508631 0.565244 0.210440
0.565244 0.565244 0.210440
0.621216 0.565244 0.210440
0.676624 0.565244 0.210440
0.731529 0.565244 0.210440
0.785982 0.565244 0.210440
0.840024 0.565244 0.210440
0.893688 0.565244 0.210440
0.947005 0.565244 0.210440
1.000000 0.565244 0.210440
0.070000 0.621216 0.210440
0.144787 0.621216 0.210440
0.210440 0.621216 0.210440
0.273037 0.621216 0.210440
0.333728 0.621216 0.210440
0.393040 0.621216 0.210440
0.451275 0.621216 0.210440
0.508631 0.621216 0.210440
0.565244 0.621216 0.210440
0.621216 0.621216 0.210440
0.676624 0.621216 0.210440
0.731529 0.621216 0.210440
0.785982 0.621216 0.210440
0.840024 0.621216 0.210440
0.893688 0.621216 0.210440
0.947005 0.621216 0.210440
1.000000 0.621216 0.210440
0.070000 0.676624 0.210440
0.144787 0.676624 0.210440
0.210440 0.676624 0.210440
0.273037 0.676624 0.210440
0.333728 0.676624 0.210440
0.393040 0.676624 0.210440
0.451275 0.676624 0.210440
0.508631 0.676624 0.210440
0.565244 0.676624 0.210440
0.621216 0.676624 0.210440
0.676624 0.676624 0.210440
0.731529 0.676624 0.210440
0.785982 0.676624 0.210440
0.840024 0.676624 0.210440
0.893688 0.676624 0.210440
0.947005 0.676624 0.210440
1.000000 0.676624 0.210440
0.070000 0.731529 0.210440
0.144787 0.731529 0.210440
0.210440 0.731529 0.210440
0.273037 0.731529 0.210440
0.333728 0.731529 0.210440
0.393040 0.731529 0.210440
0.451275 0.731529 0.210440
0.508631 0.731529 0.210440
0.565244 0.731529 0.210440
0.621216 0.731529 0.210440
0.676624 0.731529 0.210440
0.731529 0.731529 0.210440
0.785982 0.731529 0.210440
0.840024 0.731529 0.210440
0.893688 0.731529 0.210440
0.947005 0.731529 0.210440
1.000000 0.731529 0.210440
0.070000 0.785982 0.210440
0.144787 0.785982 0.210440
0.210440 0.785982 0.210440
0.273037 0.785982 0.210440
0.333728 0.785982 0.210440
0.393040 0.785982 0.210440
0.451275 0.785982 0.210440
0.508631 0.785982 0.210440
0.565244 0.785982 0.210440
0.621216 0.785982 0.210440
0.676624 0.785982 0.210440
0.731529 0.785982 0.210440
0.785982 0.785982 0.210440
0.840024 0.785982 0.210440
0.893688 0.785982 0.210440
0.947005 0.785982 0.210440
1.000000 0.785982 0.210440
0.070000 0.840024 0.210440
0.144787 0.840024 0.210440
0.210440 0.840024 0.210440
0.273037 0.840024 0.210440
0.333728 0.840024 0.210440
0.393040 0.840024 0.210440
0.451275 0.840024 0.210440
0.508631 0.840024 0.210440
0.565244 0.840024 0.210440
0.621216 0.840024 0.210440
0.676624 0.840024 0.210440
0.731529 0.840024 0.210440
0.785982 0.840024 0.210440
0.840024 0.840024 0.210440
0.893688 0.840024 0.210440
0.947005 0.840024 0.210440
1.000000 0.840024 0.210440
0.070000 0.893688 0.210440
0.144787 0.893688 0.210440
0.210440 0.893688 0.210440
0.273037 0.893688 0.210440
0.333728 0.893688 0.210440
0.393040 0.893688 0.210440
0.451275 0.893688 0.210440
0.508631 0.893688 0.210440
0.565244 0.893688 0.210440
0.621216 0.893688 0.210440
0.676624 0.893688 0.210440
0.731529 0.893688 0.210440
0.785982 0.893688 0.210440
0.840024 0.893688 0.210440
0.893688 0.893688 0.210440
0.947005 0.893688 0.210440
1.000000 0.893688 0.210440
0.070000 0.947005 0.210440
0.144787 0.947005 0.210440
0.210440 0.947005 0.210440
0.273037 0.947005 0.210440
0.333728 0.947005 0.210440
0.393040 0.947005 0.210440
0.451275 0.947005 0.210440
0.508631 0.947005 0.210440
0.565244 0.947005 0.210440
0.621216 0.947005 0.210440
0.676624 0.947005 0.210440
0.731529 0.947005 0.210440
0.785982 0.947005 0.210440
0.840024 0.947005 0.210440
0.893688 0.947005 0.210440
0.947005 0.947005 0.210440
1.000000 0.947005 0.210440
0.070000 1.000000 0.210440
0.144787 1.000000 0.210440
0.210440 1.000000 0.210440
0.273037 1.000000 0.210440
0.333728 1.000000 0.210440
0.393040 1.000000 0.210440
0.451275 1.000000 0.210440
0.508631 1.000000 0.210440
0.565244 1.000000 0.210440
0.621216 1.000000 0.210440
0.676624 1.000000 0.210440
0.731529 1.000000 0.210440
0.785982 1.000000 0.210440
0.840024 1.000000 0.210440
0.893688 1.000000 0.210440
0.947005 1.000000 0.210440
1.000000 1.000000 0.210440
0.070000 0.070000 0.273037
0.144787 0.070000 0.273037
0.210440 0.070000 0.273037
0.273037 0.070000 0.273037
0.333728 0.070000 0.273037
0.393040 0.070000 0.273037
0.451275 0.070000 0.273037
0.508631 0.070000 0.273037
0.565244 0.070000 0.273037
0.621216 0.070000 0.273037
0.676624 0.070000 0.273037
0.731529 0.070000 0.273037
0.785982 0.070000 0.273037
0.840024 0.070000 0.273037
0.893688 0.070000 0.273037
0.947005 0.070000 0.273037
1.000000 0.070000 0.273037
0.070000 0.144787 0.273037
0.144787 0.144787 0.273037
0.210440 0.144787 0.273037
