frontend/client/public/luts/script/canon_clog_rec709.cube
TITLE "Canon C-Log to Rec.709"
LUT_3D_SIZE 5
0.070000 0.070000 0.070000
0.333728 0.070000 0.070000
0.565244 0.070000 0.070000
0.785982 0.070000 0.070000
1.000000 0.070000 0.070000
0.070000 0.333728 0.070000
0.333728 0.333728 0.070000
0.565244 0.333728 0.070000
0.785982 0.333728 0.070000
1.000000 0.333728 0.070000
0.070000 0.565244 0.070000
0.333728 0.565244 0.070000
0.565244 0.565244 0.070000
0.785982 0.565244 0.070000
1.000000 0.565244 0.070000
0.070000 0.785982 0.070000
0.333728 0.785982 0.070000
0.565244 0.785982 0.070000
0.785982 0.785982 0.070000
1.000000 0.785982 0.070000
0.070000 1.000000 0.070000
0.333728 1.000000 0.070000
0.565244 1.000000 0.070000
0.785982 1.000000 0.070000
1.000000 1.000000 0.070000
0.070000 0.070000 0.333728
0.333728 0.070000 0.333728
0.565244 0.070000 0.333728
0.785982 0.070000 0.333728
1.000000 0.070000 0.333728
0.070000 0.333728 0.333728
0.333728 0.333728 0.333728
0.565244 0.333728 0.333728
0.785982 0.333728 0.333728
1.000000 0.333728 0.333728
0.070000 0.565244 0.333728
0.333728 0.565244 0.333728
0.565244 0.565244 0.333728
0.785982 0.565244 0.333728
1.000000 0.565244 0.333728
0.070000 0.785982 0.333728
0.333728 0.785982 0.333728
0.565244 0.785982 0.333728
0.785982 0.785982 0.333728
1.000000 0.785982 0.333728
0.070000 1.000000 0.333728
0.333728 1.000000 0.333728
0.565244 1.000000 0.333728
0.785982 1.000000 0.333728
1.000000 1.000000 0.333728
0.070000 0.070000 0.565244
0.333728 0.070000 0.565244
0.565244 0.070000 0.565244
0.785982 0.070000 0.565244
1.000000 0.070000 0.565244
0.070000 0.333728 0.565244
0.333728 0.333728 0.565244
0.565244 0.333728 0.565244
0.785982 0.333728 0.565244
1.000000 0.333728 0.565244
0.070000 0.565244 0.565244
0.333728 0.565244 0.565244
0.565244 0.565244 0.565244
0.785982 0.565244 0.565244
1.000000 0.565244 0.565244
0.070000 0.785982 0.565244
0.333728 0.785982 0.565244
0.565244 0.785982 0.565244
0.785982 0.785982 0.565244
1.000000 0.785982 0.565244
0.070000 1.000000 0.565244
0.333728 1.000000 0.565244
0.565244 1.000000 0.565244
0.785982 1.000000 0.565244
1.000000 1.000000 0.565244
0.070000 0.070000 0.785982
0.333728 0.070000 0.785982
0.565244 0.070000 0.785982
0.785982 0.070000 0.785982
1.000000 0.070000 0.785982
0.070000 0.333728 0.785982
0.333728 0.333728 0.785982
0.565244 0.333728 0.785982
0.785982 0.333728 0.785982
1.000000 0.333728 0.785982
0.070000 0.565244 0.785982
0.333728 0.565244 0.785982
0.565244 0.565244 0.785982
0.785982 0.565244 0.785982
1.000000 0.565244 0.785982
0.070000 0.785982 0.785982
0.333728 0.785982 0.785982
0.565244 0.785982 0.785982
0.785982 0.785982 0.785982
1.000000 0.785982 0.785982
0.070000 1.000000 0.785982
0.333728 1.000000 0.785982
0.565244 1.000000 0.785982
0.785982 1.000000 0.785982
1.000000 1.000000 0.785982
0.070000 0.070000 1.000000
0.333728 0.070000 1.000000
0.565244 0.070000 1.000000
0.785982 0.070000 1.000000
1.000000 0.070000 1.000000
0.070000 0.333728 1.000000
0.333728 0.333728 1.000000
0.565244 0.333728 1.000000
0.785982 0.333728 1.000000
1.000000 0.333728 1.000000
0.070000 0.565244 1.000000
0.333728 0.565244 1.000000
0.565244 0.565244 1.000000
0.785982 0.565244 1.000000
1.000000 0.565244 1.000000
0.070000 0.785982 1.000000
0.333728 0.785982 1.000000
0.565244 0.785982 1.000000
0.785982 0.785982 1.000000
1.000000 0.785982 1.000000
0.070000 1.000000 1.000000
0.333728 1.000000 1.000000
0.565244 1.000000 1.000000
0.785982 1.000000 1.000000
1.000000 1.000000 1.000000
