frontend/client/public/luts/script/canon_clog_rec709.cube
TITLE "Canon C-Log to Rec.709"
LUT_3D_SIZE 9
0.070000 0.070000 0.070000
0.210440 0.070000 0.070000
0.333728 0.070000 0.070000
0.451275 0.070000 0.070000
0.565244 0.070000 0.070000
0.676624 0.070000 0.070000
0.785982 0.070000 0.070000
0.893688 0.070000 0.070000
1.000000 0.070000 0.070000
0.070000 0.210440 0.070000
0.210440 0.210440 0.070000
0.333728 0.210440 0.070000
0.451275 0.210440 0.070000
0.565244 0.210440 0.070000
0.676624 0.210440 0.070000
0.785982 0.210440 0.070000
0.893688 0.210440 0.070000
1.000000 0.210440 0.070000
0.070000 0.333728 0.070000
0.210440 0.333728 0.070000
0.333728 0.333728 0.070000
0.451275 0.333728 0.070000
0.565244 0.333728 0.070000
0.676624 0.333728 0.070000
0.785982 0.333728 0.070000
0.893688 0.333728 0.070000
1.000000 0.333728 0.070000
0.070000 0.451275 0.070000
0.210440 0.451275 0.070000
0.333728 0.451275 0.070000
0.451275 0.451275 0.070000
0.565244 0.451275 0.070000
0.676624 0.451275 0.070000
0.785982 0.451275 0.070000
0.893688 0.451275 0.070000
1.000000 0.451275 0.070000
0.070000 0.565244 0.070000
0.210440 0.565244 0.070000
0.333728 0.565244 0.070000
0.451275 0.565244 0.070000
0.565244 0.565244 0.070000
0.676624 0.565244 0.070000
0.785982 0.565244 0.070000
0.893688 0.565244 0.070000
1.000000 0.565244 0.070000
0.070000 0.676624 0.070000
0.210440 0.676624 0.070000
0.333728 0.676624 0.070000
0.451275 0.676624 0.070000
0.565244 0.676624 0.070000
0.676624 0.676624 0.070000
0.785982 0.676624 0.070000
0.893688 0.676624 0.070000
1.000000 0.676624 0.070000
0.070000 0.785982 0.070000
0.210440 0.785982 0.070000
0.333728 0.785982 0.070000
0.451275 0.785982 0.070000
0.565244 0.785982 0.070000
0.676624 0.785982 0.070000
0.785982 0.785982 0.070000
0.893688 0.785982 0.070000
1.000000 0.785982 0.070000
0.070000 0.893688 0.070000
0.210440 0.893688 0.070000
0.333728 0.893688 0.070000
0.451275 0.893688 0.070000
0.565244 0.893688 0.070000
0.676624 0.893688 0.070000
0.785982 0.893688 0.070000
0.893688 0.893688 0.070000
1.000000 0.893688 0.070000
0.070000 1.000000 0.070000
0.210440 1.000000 0.070000
0.333728 1.000000 0.070000
0.451275 1.000000 0.070000
0.565244 1.000000 0.070000
0.676624 1.000000 0.070000
0.785982 1.000000 0.070000
0.893688 1.000000 0.070000
1.000000 1.000000 0.070000
0.070000 0.070000 0.210440
0.210440 0.070000 0.210440
0.333728 0.070000 0.210440
0.451275 0.070000 0.210440
0.565244 0.070000 0.210440
0.676624 0.070000 0.210440
0.785982 0.070000 0.210440
0.893688 0.070000 0.210440
1.000000 0.070000 0.210440
0.070000 0.210440 0.210440
0.210440 0.210440 0.210440
0.333728 0.210440 0.210440
0.451275 0.210440 0.210440
0.565244 0.210440 0.210440
0.676624 0.210440 0.210440
0.785982 0.210440 0.210440
0.893688 0.210440 0.210440
1.000000 0.210440 0.210440
0.070000 0.333728 0.210440
0.210440 0.333728 0.210440
0.333728 0.333728 0.210440
0.451275 0.333728 0.210440
0.565244 0.333728 0.210440
0.676624 0.333728 0.210440
0.785982 0.333728 0.210440
0.893688 0.333728 0.210440
1.000000 0.333728 0.210440
0.070000 0.451275 0.210440
0.210440 0.451275 0.210440
0.333728 0.451275 0.210440
0.451275 0.451275 0.210440
0.565244 0.451275 0.210440
0.676624 0.451275 0.210440
0.785982 0.451275 0.210440
0.893688 0.451275 0.210440
1.000000 0.451275 0.210440
0.070000 0.565244 0.210440
0.210440 0.565244 0.210440
0.333728 0.565244 0.210440
0.451275 0.565244 0.210440
0.565244 0.565244 0.210440
0.676624 0.565244 0.210440
0.785982 0.565244 0.210440
0.893688 0.565244 0.210440
1.000000 0.565244 0.210440
0.070000 0.676624 0.210440
0.210440 0.676624 0.210440
0.333728 0.676624 0.210440
0.451275 0.676624 0.210440
0.565244 0.676624 0.210440
0.676624 0.676624 0.210440
0.785982 0.676624 0.210440
0.893688 0.676624 0.210440
1.000000 0.676624 0.210440
0.070000 0.785982 0.210440
0.210440 0.785982 0.210440
0.333728 0.785982 0.210440
0.451275 0.785982 0.210440
0.565244 0.785982 0.210440
0.676624 0.785982 0.210440
0.785982 0.785982 0.210440
0.893688 0.785982 0.210440
1.000000 0.785982 0.210440
0.070000 0.893688 0.210440
0.210440 0.893688 0.210440
0.333728 0.893688 0.210440
0.451275 0.893688 0.210440
0.565244 0.893688 0.210440
0.676624 0.893688 0.210440
0.785982 0.893688 0.210440
0.893688 0.893688 0.210440
1.000000 0.893688 0.210440
0.070000 1.000000 0.210440
0.210440 1.000000 0.210440
0.333728 1.000000 0.210440
0.451275 1.000000 0.210440
0.565244 1.000000 0.210440
0.676624 1.000000 0.210440
0.785982 1.000000 0.210440
0.893688 1.000000 0.210440
1.000000 1.000000 0.210440
0.070000 0.070000 0.333728
0.210440 0.070000 0.333728
0.333728 0.070000 0.333728
0.451275 0.070000 0.333728
0.565244 0.070000 0.333728
0.676624 0.070000 0.333728
0.785982 0.070000 0.333728
0.893688 0.070000 0.333728
1.000000 0.070000 0.333728
0.070000 0.210440 0.333728
0.210440 0.210440 0.333728
0.333728 0.210440 0.333728
0.451275 0.210440 0.333728
0.565244 0.210440 0.333728
0.676624 0.210440 0.333728
0.785982 0.210440 0.333728
0.893688 0.210440 0.333728
1.000000 0.210440 0.333728
0.070000 0.333728 0.333728
0.210440 0.333728 0.333728
0.333728 0.333728 0.333728
0.451275 0.333728 0.333728
0.565244 0.333728 0.333728
0.676624 0.333728 0.333728
0.785982 0.333728 0.333728
0.893688 0.333728 0.333728
1.000000 0.333728 0.333728
0.070000 0.451275 0.333728
0.210440 0.451275 0.333728
0.333728 0.451275 0.333728
0.451275 0.451275 0.333728
0.565244 0.451275 0.333728
0.676624 0.451275 0.333728
0.785982 0.451275 0.333728
0.893688 0.451275 0.333728
1.000000 0.451275 0.333728
0.070000 0.565244 0.333728
0.210440 0.565244 0.333728
0.333728 0.565244 0.333728
0.451275 0.565244 0.333728
0.565244 0.565244 0.333728
0.676624 0.565244 0.333728
0.785982 0.565244 0.333728
0.893688 0.565244 0.333728
1.000000 0.565244 0.333728
0.070000 0.676624 0.333728
0.210440 0.676624 0.333728
0.333728 0.676624 0.333728
0.451275 0.676624 0.333728
0.565244 0.676624 0.333728
0.676624 0.676624 0.333728
0.785982 0.676624 0.333728
0.893688 0.676624 0.333728
1.000000 0.676624 0.333728
0.070000 0.785982 0.333728
0.210440 0.785982 0.333728
0.333728 0.785982 0.333728
0.451275 0.785982 0.333728
0.565244 0.785982 0.333728
0.676624 0.785982 0.333728
0.785982 0.785982 0.333728
0.893688 0.785982 0.333728
1.000000 0.785982 0.333728
0.070000 0.893688 0.333728
0.210440 0.893688 0.333728
0.333728 0.893688 0.333728
0.451275 0.893688 0.333728
0.565244 0.893688 0.333728
0.676624 0.893688 0.333728
0.785982 0.893688 0.333728
0.893688 0.893688 0.333728
1.000000 0.893688 0.333728
0.070000 1.000000 0.333728
0.210440 1.000000 0.333728
0.333728 1.000000 0.333728
0.451275 1.000000 0.333728
0.565244 1.000000 0.333728
0.676624 1.000000 0.333728
0.785982 1.000000 0.333728
0.893688 1.000000 0.333728
1.000000 1.000000 0.333728
0.070000 0.070000 0.451275
0.210440 0.070000 0.451275
0.333728 0.070000 0.451275
0.451275 0.070000 0.451275
0.565244 0.070000 0.451275
0.676624 0.070000 0.451275
0.785982 0.070000 0.451275
0.893688 0.070000 0.451275
1.000000 0.070000 0.451275
0.070000 0.210440 0.451275
0.210440 0.210440 0.451275
0.333728 0.210440 0.451275
0.451275 0.210440 0.451275
0.565244 0.210440 0.451275
0.676624 0.210440 0.451275
0.785982 0.210440 0.451275
0.893688 0.210440 0.451275
1.000000 0.210440 0.451275
0.070000 0.333728 0.451275
0.210440 0.333728 0.451275
0.333728 0.333728 0.451275
0.451275 0.333728 0.451275
0.565244 0.333728 0.451275
0.676624 0.333728 0.451275
0.785982 0.333728 0.451275
0.893688 0.333728 0.451275
1.000000 0.333728 0.451275
0.070000 0.451275 0.451275
0.210440 0.451275 0.451275
0.333728 0.451275 0.451275
0.451275 0.451275 0.451275
0.565244 0.451275 0.451275
0.676624 0.451275 0.451275
0.785982 0.451275 0.451275
0.893688 0.451275 0.451275
1.000000 0.451275 0.451275
0.070000 0.565244 0.451275
0.210440 0.565244 0.451275
0.333728 0.565244 0.451275
0.451275 0.565244 0.451275
0.565244 0.565244 0.451275
0.676624 0.565244 0.451275
0.785982 0.565244 0.451275
0.893688 0.565244 0.451275
1.000000 0.565244 0.451275
0.070000 0.676624 0.451275
0.210440 0.676624 0.451275
0.333728 0.676624 0.451275
0.451275 0.676624 0.451275
0.565244 0.676624 0.451275
0.676624 0.676624 0.451275
0.785982 0.676624 0.451275
0.893688 0.676624 0.451275
1.000000 0.676624 0.451275
0.070000 0.785982 0.451275
0.210440 0.785982 0.451275
0.333728 0.785982 0.451275
0.451275 0.785982 0.451275
0.565244 0.785982 0.451275
0.676624 0.785982 0.451275
0.785982 0.785982 0.451275
0.893688 0.785982 0.451275
1.000000 0.785982 0.451275
0.070000 0.893688 0.451275
0.210440 0.893688 0.451275
0.333728 0.893688 0.451275
0.451275 0.893688 0.451275
0.565244 0.893688 0.451275
0.676624 0.893688 0.451275
0.785982 0.893688 0.451275
0.893688 0.893688 0.451275
1.000000 0.893688 0.451275
0.070000 1.000000 0.451275
0.210440 1.000000 0.451275
0.333728 1.000000 0.451275
0.451275 1.000000 0.451275
0.565244 1.000000 0.451275
0.676624 1.000000 0.451275
0.785982 1.000000 0.451275
0.893688 1.000000 0.451275
1.000000 1.000000 0.451275
0.070000 0.070000 0.565244
0.210440 0.070000 0.565244
0.333728 0.070000 0.565244
0.451275 0.070000 0.565244
0.565244 0.070000 0.565244
0.676624 0.070000 0.565244
0.785982 0.070000 0.565244
0.893688 0.070000 0.565244
1.000000 0.070000 0.565244
0.070000 0.210440 0.565244
0.210440 0.210440 0.565244
0.333728 0.210440 0.565244
0.451275 0.210440 0.565244
0.565244 0.210440 0.565244
0.676624 0.210440 0.565244
0.785982 0.210440 0.565244
0.893688 0.210440 0.565244
1.000000 0.210440 0.565244
0.070000 0.333728 0.565244
0.210440 0.333728 0.565244
0.333728 0.333728 0.565244
0.451275 0.333728 0.565244
0.565244 0.333728 0.565244
0.676624 0.333728 0.565244
0.785982 0.333728 0.565244
0.893688 0.333728 0.565244
1.000000 0.333728 0.565244
0.070000 0.451275 0.565244
0.210440 0.451275 0.565244
0.333728 0.451275 0.565244
0.451275 0.451275 0.565244
0.565244 0.451275 0.565244
0.676624 0.451275 0.565244
0.785982 0.451275 0.565244
0.893688 0.451275 0.565244
1.000000 0.451275 0.565244
0.070000 0.565244 0.565244
0.210440 0.565244 0.565244
0.333728 0.565244 0.565244
0.451275 0.565244 0.565244
0.565244 0.565244 0.565244
0.676624 0.565244 0.565244
0.785982 0.565244 0.565244
0.893688 0.565244 0.565244
1.000000 0.565244 0.565244
0.070000 0.676624 0.565244
0.210440 0.676624 0.565244
0.333728 0.676624 0.565244
0.451275 0.676624 0.565244
0.565244 0.676624 0.565244
0.676624 0.676624 0.565244
0.785982 0.676624 0.565244
0.893688 0.676624 0.565244
1.000000 0.676624 0.565244
0.070000 0.785982 0.565244
0.210440 0.785982 0.565244
0.333728 0.785982 0.565244
0.451275 0.785982 0.565244
0.565244 0.785982 0.565244
0.676624 0.785982 0.565244
0.785982 0.785982 0.565244
0.893688 0.785982 0.565244
1.000000 0.785982 0.565244
0.070000 0.893688 0.565244
0.210440 0.893688 0.565244
0.333728 0.893688 0.565244
0.451275 0.893688 0.565244
0.565244 0.893688 0.565244
0.676624 0.893688 0.565244
0.785982 0.893688 0.565244
0.893688 0.893688 0.565244
1.000000 0.893688 0.565244
0.070000 1.000000 0.565244
0.210440 1.000000 0.565244
0.333728 1.000000 0.565244
0.451275 1.000000 0.565244
0.565244 1.000000 0.565244
0.676624 1.000000 0.565244
0.785982 1.000000 0.565244
0.893688 1.000000 0.565244
1.000000 1.000000 0.565244
0.070000 0.070000 0.676624
0.210440 0.070000 0.676624
0.333728 0.070000 0.676624
0.451275 0.070000 0.676624
0.565244 0.070000 0.676624
0.676624 0.070000 0.676624
0.785982 0.070000 0.676624
0.893688 0.070000 0.676624
1.000000 0.070000 0.676624
0.070000 0.210440 0.676624
0.210440 0.210440 0.676624
0.333728 0.210440 0.676624
0.451275 0.210440 0.676624
0.565244 0.210440 0.676624
0.676624 0.210440 0.676624
0.785982 0.210440 0.676624
0.893688 0.210440 0.676624
1.000000 0.210440 0.676624
0.070000 0.333728 0.676624
0.210440 0.333728 0.676624
0.333728 0.333728 0.676624
0.451275 0.333728 0.676624
0.565244 0.333728 0.676624
0.676624 0.333728 0.676624
0.785982 0.333728 0.676624
0.893688 0.333728 0.676624
1.000000 0.333728 0.676624
0.070000 0.451275 0.676624
0.210440 0.451275 0.676624
0.333728 0.451275 0.676624
0.451275 0.451275 0.676624
0.565244 0.451275 0.676624
0.676624 0.451275 0.676624
0.785982 0.451275 0.676624
0.893688 0.451275 0.676624
1.000000 0.451275 0.676624
0.070000 0.565244 0.676624
0.210440 0.565244 0.676624
0.333728 0.565244 0.676624
0.451275 0.565244 0.676624
0.565244 0.565244 0.676624
0.676624 0.565244 0.676624
0.785982 0.565244 0.676624
0.893688 0.565244 0.676624
1.000000 0.565244 0.676624
0.070000 0.676624 0.676624
0.210440 0.676624 0.676624
0.333728 0.676624 0.676624
0.451275 0.676624 0.676624
0.565244 0.676624 0.676624
0.676624 0.676624 0.676624
0.785982 0.676624 0.676624
0.893688 0.676624 0.676624
1.000000 0.676624 0.676624
0.070000 0.785982 0.676624
0.210440 0.785982 0.676624
0.333728 0.785982 0.676624
0.451275 0.785982 0.676624
0.565244 0.785982 0.676624
0.676624 0.785982 0.676624
0.785982 0.785982 0.676624
0.893688 0.785982 0.676624
1.000000 0.785982 0.676624
0.070000 0.893688 0.676624
0.210440 0.893688 0.676624
0.333728 0.893688 0.676624
0.451275 0.893688 0.676624
0.565244 0.893688 0.676624
0.676624 0.893688 0.676624
0.785982 0.893688 0.676624
0.893688 0.893688 0.676624
1.000000 0.893688 0.676624
0.070000 1.000000 0.676624
0.210440 1.000000 0.676624
0.333728 1.000000 0.676624
0.451275 1.000000 0.676624
0.565244 1.000000 0.676624
0.676624 1.000000 0.676624
0.785982 1.000000 0.676624
0.893688 1.000000 0.676624
1.000000 1.000000 0.676624
0.070000 0.070000 0.785982
0.210440 0.070000 0.785982
0.333728 0.070000 0.785982
0.451275 0.070000 0.785982
0.565244 0.070000 0.785982
0.676624 0.070000 0.785982
0.785982 0.070000 0.785982
0.893688 0.070000 0.785982
1.000000 0.070000 0.785982
0.070000 0.210440 0.785982
0.210440 0.210440 0.785982
0.333728 0.210440 0.785982
0.451275 0.210440 0.785982
0.565244 0.210440 0.785982
0.676624 0.210440 0.785982
0.785982 0.210440 0.785982
0.893688 0.210440 0.785982
1.000000 0.210440 0.785982
0.070000 0.333728 0.785982
0.210440 0.333728 0.785982
0.333728 0.333728 0.785982
0.451275 0.333728 0.785982
0.565244 0.333728 0.785982
0.676624 0.333728 0.785982
0.785982 0.333728 0.785982
0.893688 0.333728 0.785982
1.000000 0.333728 0.785982
0.070000 0.451275 0.785982
0.210440 0.451275 0.785982
0.333728 0.451275 0.785982
0.451275 0.451275 0.785982
0.565244 0.451275 0.785982
0.676624 0.451275 0.785982
0.785982 0.451275 0.785982
0.893688 0.451275 0.785982
1.000000 0.451275 0.785982
0.070000 0.565244 0.785982
0.210440 0.565244 0.785982
0.333728 0.565244 0.785982
0.451275 0.565244 0.785982
0.565244 0.565244 0.785982
0.676624 0.565244 0.785982
0.785982 0.565244 0.785982
0.893688 0.565244 0.785982
1.000000 0.565244 0.785982
0.070000 0.676624 0.785982
0.210440 0.676624 0.785982
0.333728 0.676624 0.785982
0.451275 0.676624 0.785982
0.565244 0.676624 0.785982
0.676624 0.676624 0.785982
0.785982 0.676624 0.785982
0.893688 0.676624 0.785982
1.000000 0.676624 0.785982
0.070000 0.785982 0.785982
0.210440 0.785982 0.785982
0.333728 0.785982 0.785982
0.451275 0.785982 0.785982
0.565244 0.785982 0.785982
0.676624 0.785982 0.785982
0.785982 0.785982 0.785982
0.893688 0.785982 0.785982
1.000000 0.785982 0.785982
0.070000 0.893688 0.785982
0.210440 0.893688 0.785982
0.333728 0.893688 0.785982
0.451275 0.893688 0.785982
0.565244 0.893688 0.785982
0.676624 0.893688 0.785982
0.785982 0.893688 0.785982
0.893688 0.893688 0.785982
1.000000 0.893688 0.785982
0.070000 1.000000 0.785982
0.210440 1.000000 0.785982
0.333728 1.000000 0.785982
0.451275 1.000000 0.785982
0.565244 1.000000 0.785982
0.676624 1.000000 0.785982
0.785982 1.000000 0.785982
0.893688 1.000000 0.785982
1.000000 1.000000 0.785982
0.070000 0.070000 0.893688
0.210440 0.070000 0.893688
0.333728 0.070000 0.893688
0.451275 0.070000 0.893688
0.565244 0.070000 0.893688
0.676624 0.070000 0.893688
0.785982 0.070000 0.893688
0.893688 0.070000 0.893688
1.000000 0.070000 0.893688
0.070000 0.210440 0.893688
0.210440 0.210440 0.893688
0.333728 0.210440 0.893688
0.451275 0.210440 0.893688
0.565244 0.210440 0.893688
0.676624 0.210440 0.893688
0.785982 0.210440 0.893688
0.893688 0.210440 0.893688
1.000000 0.210440 0.893688
0.070000 0.333728 0.893688
0.210440 0.333728 0.893688
0.333728 0.333728 0.893688
0.451275 0.333728 0.893688
0.565244 0.333728 0.893688
0.676624 0.333728 0.893688
0.785982 0.333728 0.893688
0.893688 0.333728 0.893688
1.000000 0.333728 0.893688
0.070000 0.451275 0.893688
0.210440 0.451275 0.893688
0.333728 0.451275 0.893688
0.451275 0.451275 0.893688
0.565244 0.451275 0.893688
0.676624 0.451275 0.893688
0.785982 0.451275 0.893688
0.893688 0.451275 0.893688
1.000000 0.451275 0.893688
0.070000 0.565244 0.893688
0.210440 0.565244 0.893688
0.333728 0.565244 0.893688
0.451275 0.565244 0.893688
0.565244 0.565244 0.893688
0.676624 0.565244 0.893688
0.785982 0.565244 0.893688
0.893688 0.565244 0.893688
1.000000 0.565244 0.893688
0.070000 0.676624 0.893688
0.210440 0.676624 0.893688
0.333728 0.676624 0.893688
0.451275 0.676624 0.893688
0.565244 0.676624 0.893688
0.676624 0.676624 0.893688
0.785982 0.676624 0.893688
0.893688 0.676624 0.893688
1.000000 0.676624 0.893688
0.070000 0.785982 0.893688
0.210440 0.785982 0.893688
0.333728 0.785982 0.893688
0.451275 0.785982 0.893688
0.565244 0.785982 0.893688
0.676624 0.785982 0.893688
0.785982 0.785982 0.893688
0.893688 0.785982 0.893688
1.000000 0.785982 0.893688
0.070000 0.893688 0.893688
0.210440 0.893688 0.893688
0.333728 0.893688 0.893688
0.451275 0.893688 0.893688
0.565244 0.893688 0.893688
0.676624 0.893688 0.893688
0.785982 0.893688 0.893688
0.893688 0.893688 0.893688
1.000000 0.893688 0.893688
0.070000 1.000000 0.893688
0.210440 1.000000 0.893688
0.333728 1.000000 0.893688
0.451275 1.000000 0.893688
0.565244 1.000000 0.893688
0.676624 1.000000 0.893688
0.785982 1.000000 0.893688
0.893688 1.000000 0.893688
1.000000 1.000000 0.893688
0.070000 0.070000 1.000000
0.210440 0.070000 1.000000
0.333728 0.070000 1.000000
0.451275 0.070000 1.000000
0.565244 0.070000 1.000000
0.676624 0.070000 1.000000
0.785982 0.070000 1.000000
0.893688 0.070000 1.000000
1.000000 0.070000 1.000000
0.070000 0.210440 1.000000
0.210440 0.210440 1.000000
0.333728 0.210440 1.000000
0.451275 0.210440 1.000000
0.565244 0.210440 1.000000
0.676624 0.210440 1.000000
0.785982 0.210440 1.000000
0.893688 0.210440 1.000000
1.000000 0.210440 1.000000
0.070000 0.333728 1.000000
0.210440 0.333728 1.000000
0.333728 0.333728 1.000000
0.451275 0.333728 1.000000
0.565244 0.333728 1.000000
0.676624 0.333728 1.000000
0.785982 0.333728 1.000000
0.893688 0.333728 1.000000
1.000000 0.333728 1.000000
0.070000 0.451275 1.000000
0.210440 0.451275 1.000000
0.333728 0.451275 1.000000
0.451275 0.451275 1.000000
0.565244 0.451275 1.000000
0.676624 0.451275 1.000000
0.785982 0.451275 1.000000
0.893688 0.451275 1.000000
1.000000 0.451275 1.000000
0.070000 0.565244 1.000000
0.210440 0.565244 1.000000
0.333728 0.565244 1.000000
0.451275 0.565244 1.000000
0.565244 0.565244 1.000000
0.676624 0.565244 1.000000
0.785982 0.565244 1.000000
0.893688 0.565244 1.000000
1.000000 0.565244 1.000000
0.070000 0.676624 1.000000
0.210440 0.676624 1.000000
0.333728 0.676624 1.000000
0.451275 0.676624 1.000000
0.565244 0.676624 1.000000
0.676624 0.676624 1.000000
0.785982 0.676624 1.000000
0.893688 0.676624 1.000000
1.000000 0.676624 1.000000
0.070000 0.785982 1.000000
0.210440 0.785982 1.000000
0.333728 0.785982 1.000000
0.451275 0.785982 1.000000
0.565244 0.785982 1.000000
0.676624 0.785982 1.000000
0.785982 0.785982 1.000000
0.893688 0.785982 1.000000
1.000000 0.785982 1.000000
0.070000 0.893688 1.000000
0.210440 0.893688 1.000000
0.333728 0.893688 1.000000
0.451275 0.893688 1.000000
0.565244 0.893688 1.000000
0.676624 0.893688 1.000000
0.785982 0.893688 1.000000
0.893688 0.893688 1.000000
1.000000 0.893688 1.000000
0.070000 1.000000 1.000000
0.210440 1.000000 1.000000
0.333728 1.000000 1.000000
0.451275 1.000000 1.000000
0.565244 1.000000 1.000000
0.676624 1.000000 1.000000
0.785982 1.000000 1.000000
0.893688 1.000000 1.000000
1.000000 1.000000 1.000000
