frontend/client/public/luts/script/sony_slog3_rec709.cube
TITLE "Sony S-Log3 to Rec.709"
LUT_3D_SIZE 9
0.050000 0.050000 0.050000
0.188525 0.050000 0.050000
0.313185 0.050000 0.050000
0.433096 0.050000 0.050000
0.550025 0.050000 0.050000
0.664786 0.050000 0.050000
0.777846 0.050000 0.050000
0.889513 0.050000 0.050000
1.000000 0.050000 0.050000
0.050000 0.188525 0.050000
0.188525 0.188525 0.050000
0.313185 0.188525 0.050000
0.433096 0.188525 0.050000
0.550025 0.188525 0.050000
0.664786 0.188525 0.050000
0.777846 0.188525 0.050000
0.889513 0.188525 0.050000
1.000000 0.188525 0.050000
0.050000 0.313185 0.050000
0.188525 0.313185 0.050000
0.313185 0.313185 0.050000
0.433096 0.313185 0.050000
0.550025 0.313185 0.050000
0.664786 0.313185 0.050000
0.777846 0.313185 0.050000
0.889513 0.313185 0.050000
1.000000 0.313185 0.050000
0.050000 0.433096 0.050000
0.188525 0.433096 0.050000
0.313185 0.433096 0.050000
0.433096 0.433096 0.050000
0.550025 0.433096 0.050000
0.664786 0.433096 0.050000
0.777846 0.433096 0.050000
0.889513 0.433096 0.050000
1.000000 0.433096 0.050000
0.050000 0.550025 0.050000
0.188525 0.550025 0.050000
0.313185 0.550025 0.050000
0.433096 0.550025 0.050000
0.550025 0.550025 0.050000
0.664786 0.550025 0.050000
0.777846 0.550025 0.050000
0.889513 0.550025 0.050000
1.000000 0.550025 0.050000
0.050000 0.664786 0.050000
0.188525 0.664786 0.050000
0.313185 0.664786 0.050000
0.433096 0.664786 0.050000
0.550025 0.664786 0.050000
0.664786 0.664786 0.050000
0.777846 0.664786 0.050000
0.889513 0.664786 0.050000
1.000000 0.664786 0.050000
0.050000 0.777846 0.050000
0.188525 0.777846 0.050000
0.313185 0.777846 0.050000
0.433096 0.777846 0.050000
0.550025 0.777846 0.050000
0.664786 0.777846 0.050000
0.777846 0.777846 0.050000
0.889513 0.777846 0.050000
1.000000 0.777846 0.050000
0.050000 0.889513 0.050000
0.188525 0.889513 0.050000
0.313185 0.889513 0.050000
0.433096 0.889513 0.050000
0.550025 0.889513 0.050000
0.664786 0.889513 0.050000
0.777846 0.889513 0.050000
0.889513 0.889513 0.050000
1.000000 0.889513 0.050000
0.050000 1.000000 0.050000
0.188525 1.000000 0.050000
0.313185 1.000000 0.050000
0.433096 1.000000 0.050000
0.550025 1.000000 0.050000
0.664786 1.000000 0.050000
0.777846 1.000000 0.050000
0.889513 1.000000 0.050000
1.000000 1.000000 0.050000
0.050000 0.050000 0.188525
0.188525 0.050000 0.188525
0.313185 0.050000 0.188525
0.433096 0.050000 0.188525
0.550025 0.050000 0.188525
0.664786 0.050000 0.188525
0.777846 0.050000 0.188525
0.889513 0.050000 0.188525
1.000000 0.050000 0.188525
0.050000 0.188525 0.188525
0.188525 0.188525 0.188525
0.313185 0.188525 0.188525
0.433096 0.188525 0.188525
0.550025 0.188525 0.188525
0.664786 0.188525 0.188525
0.777846 0.188525 0.188525
0.889513 0.188525 0.188525
1.000000 0.188525 0.188525
0.050000 0.313185 0.188525
0.188525 0.313185 0.188525
0.313185 0.313185 0.188525
0.433096 0.313185 0.188525
0.550025 0.313185 0.188525
0.664786 0.313185 0.188525
0.777846 0.313185 0.188525
0.889513 0.313185 0.188525
1.000000 0.313185 0.188525
0.050000 0.433096 0.188525
0.188525 0.433096 0.188525
0.313185 0.433096 0.188525
0.433096 0.433096 0.188525
0.550025 0.433096 0.188525
0.664786 0.433096 0.188525
0.777846 0.433096 0.188525
0.889513 0.433096 0.188525
1.000000 0.433096 0.188525
0.050000 0.550025 0.188525
0.188525 0.550025 0.188525
0.313185 0.550025 0.188525
0.433096 0.550025 0.188525
0.550025 0.550025 0.188525
0.664786 0.550025 0.188525
0.777846 0.550025 0.188525
0.889513 0.550025 0.188525
1.000000 0.550025 0.188525
0.050000 0.664786 0.188525
0.188525 0.664786 0.188525
0.313185 0.664786 0.188525
0.433096 0.664786 0.188525
0.550025 0.664786 0.188525
0.664786 0.664786 0.188525
0.777846 0.664786 0.188525
0.889513 0.664786 0.188525
1.000000 0.664786 0.188525
0.050000 0.777846 0.188525
0.188525 0.777846 0.188525
0.313185 0.777846 0.188525
0.433096 0.777846 0.188525
0.550025 0.777846 0.188525
0.664786 0.777846 0.188525
0.777846 0.777846 0.188525
0.889513 0.777846 0.188525
1.000000 0.777846 0.188525
0.050000 0.889513 0.188525
0.188525 0.889513 0.188525
0.313185 0.889513 0.188525
0.433096 0.889513 0.188525
0.550025 0.889513 0.188525
0.664786 0.889513 0.188525
0.777846 0.889513 0.188525
0.889513 0.889513 0.188525
1.000000 0.889513 0.188525
0.050000 1.000000 0.188525
0.188525 1.000000 0.188525
0.313185 1.000000 0.188525
0.433096 1.000000 0.188525
0.550025 1.000000 0.188525
0.664786 1.000000 0.188525
0.777846 1.000000 0.188525
0.889513 1.000000 0.188525
1.000000 1.000000 0.188525
0.050000 0.050000 0.313185
0.188525 0.050000 0.313185
0.313185 0.050000 0.313185
0.433096 0.050000 0.313185
0.550025 0.050000 0.313185
0.664786 0.050000 0.313185
0.777846 0.050000 0.313185
0.889513 0.050000 0.313185
1.000000 0.050000 0.313185
0.050000 0.188525 0.313185
0.188525 0.188525 0.313185
0.313185 0.188525 0.313185
0.433096 0.188525 0.313185
0.550025 0.188525 0.313185
0.664786 0.188525 0.313185
0.777846 0.188525 0.313185
0.889513 0.188525 0.313185
1.000000 0.188525 0.313185
0.050000 0.313185 0.313185
0.188525 0.313185 0.313185
0.313185 0.313185 0.313185
0.433096 0.313185 0.313185
0.550025 0.313185 0.313185
0.664786 0.313185 0.313185
0.777846 0.313185 0.313185
0.889513 0.313185 0.313185
1.000000 0.313185 0.313185
0.050000 0.433096 0.313185
0.188525 0.433096 0.313185
0.313185 0.433096 0.313185
0.433096 0.433096 0.313185
0.550025 0.433096 0.313185
0.664786 0.433096 0.313185
0.777846 0.433096 0.313185
0.889513 0.433096 0.313185
1.000000 0.433096 0.313185
0.050000 0.550025 0.313185
0.188525 0.550025 0.313185
0.313185 0.550025 0.313185
0.433096 0.550025 0.313185
0.550025 0.550025 0.313185
0.664786 0.550025 0.313185
0.777846 0.550025 0.313185
0.889513 0.550025 0.313185
1.000000 0.550025 0.313185
0.050000 0.664786 0.313185
0.188525 0.664786 0.313185
0.313185 0.664786 0.313185
0.433096 0.664786 0.313185
0.550025 0.664786 0.313185
0.664786 0.664786 0.313185
0.777846 0.664786 0.313185
0.889513 0.664786 0.313185
1.000000 0.664786 0.313185
0.050000 0.777846 0.313185
0.188525 0.777846 0.313185
0.313185 0.777846 0.313185
0.433096 0.777846 0.313185
0.550025 0.777846 0.313185
0.664786 0.777846 0.313185
0.777846 0.777846 0.313185
0.889513 0.777846 0.313185
1.000000 0.777846 0.313185
0.050000 0.889513 0.313185
0.188525 0.889513 0.313185
0.313185 0.889513 0.313185
0.433096 0.889513 0.313185
0.550025 0.889513 0.313185
0.664786 0.889513 0.313185
0.777846 0.889513 0.313185
0.889513 0.889513 0.313185
1.000000 0.889513 0.313185
0.050000 1.000000 0.313185
0.188525 1.000000 0.313185
0.313185 1.000000 0.313185
0.433096 1.000000 0.313185
0.550025 1.000000 0.313185
0.664786 1.000000 0.313185
0.777846 1.000000 0.313185
0.889513 1.000000 0.313185
1.000000 1.000000 0.313185
0.050000 0.050000 0.433096
0.188525 0.050000 0.433096
0.313185 0.050000 0.433096
0.433096 0.050000 0.433096
0.550025 0.050000 0.433096
0.664786 0.050000 0.433096
0.777846 0.050000 0.433096
0.889513 0.050000 0.433096
1.000000 0.050000 0.433096
0.050000 0.188525 0.433096
0.188525 0.188525 0.433096
0.313185 0.188525 0.433096
0.433096 0.188525 0.433096
0.550025 0.188525 0.433096
0.664786 0.188525 0.433096
0.777846 0.188525 0.433096
0.889513 0.188525 0.433096
1.000000 0.188525 0.433096
0.050000 0.313185 0.433096
0.188525 0.313185 0.433096
0.313185 0.313185 0.433096
0.433096 0.313185 0.433096
0.550025 0.313185 0.433096
0.664786 0.313185 0.433096
0.777846 0.313185 0.433096
0.889513 0.313185 0.433096
1.000000 0.313185 0.433096
0.050000 0.433096 0.433096
0.188525 0.433096 0.433096
0.313185 0.433096 0.433096
0.433096 0.433096 0.433096
0.550025 0.433096 0.433096
0.664786 0.433096 0.433096
0.777846 0.433096 0.433096
0.889513 0.433096 0.433096
1.000000 0.433096 0.433096
0.050000 0.550025 0.433096
0.188525 0.550025 0.433096
0.313185 0.550025 0.433096
0.433096 0.550025 0.433096
0.550025 0.550025 0.433096
0.664786 0.550025 0.433096
0.777846 0.550025 0.433096
0.889513 0.550025 0.433096
1.000000 0.550025 0.433096
0.050000 0.664786 0.433096
0.188525 0.664786 0.433096
0.313185 0.664786 0.433096
0.433096 0.664786 0.433096
0.550025 0.664786 0.433096
0.664786 0.664786 0.433096
0.777846 0.664786 0.433096
0.889513 0.664786 0.433096
1.000000 0.664786 0.433096
0.050000 0.777846 0.433096
0.188525 0.777846 0.433096
0.313185 0.777846 0.433096
0.433096 0.777846 0.433096
0.550025 0.777846 0.433096
0.664786 0.777846 0.433096
0.777846 0.777846 0.433096
0.889513 0.777846 0.433096
1.000000 0.777846 0.433096
0.050000 0.889513 0.433096
0.188525 0.889513 0.433096
0.313185 0.889513 0.433096
0.433096 0.889513 0.433096
0.550025 0.889513 0.433096
0.664786 0.889513 0.433096
0.777846 0.889513 0.433096
0.889513 0.889513 0.433096
1.000000 0.889513 0.433096
0.050000 1.000000 0.433096
0.188525 1.000000 0.433096
0.313185 1.000000 0.433096
0.433096 1.000000 0.433096
0.550025 1.000000 0.433096
0.664786 1.000000 0.433096
0.777846 1.000000 0.433096
0.889513 1.000000 0.433096
1.000000 1.000000 0.433096
0.050000 0.050000 0.550025
0.188525 0.050000 0.550025
0.313185 0.050000 0.550025
0.433096 0.050000 0.550025
0.550025 0.050000 0.550025
0.664786 0.050000 0.550025
0.777846 0.050000 0.550025
0.889513 0.050000 0.550025
1.000000 0.050000 0.550025
0.050000 0.188525 0.550025
0.188525 0.188525 0.550025
0.313185 0.188525 0.550025
0.433096 0.188525 0.550025
0.550025 0.188525 0.550025
0.664786 0.188525 0.550025
0.777846 0.188525 0.550025
0.889513 0.188525 0.550025
1.000000 0.188525 0.550025
0.050000 0.313185 0.550025
0.188525 0.313185 0.550025
0.313185 0.313185 0.550025
0.433096 0.313185 0.550025
0.550025 0.313185 0.550025
0.664786 0.313185 0.550025
0.777846 0.313185 0.550025
0.889513 0.313185 0.550025
1.000000 0.313185 0.550025
0.050000 0.433096 0.550025
0.188525 0.433096 0.550025
0.313185 0.433096 0.550025
0.433096 0.433096 0.550025
0.550025 0.433096 0.550025
0.664786 0.433096 0.550025
0.777846 0.433096 0.550025
0.889513 0.433096 0.550025
1.000000 0.433096 0.550025
0.050000 0.550025 0.550025
0.188525 0.550025 0.550025
0.313185 0.550025 0.550025
0.433096 0.550025 0.550025
0.550025 0.550025 0.550025
0.664786 0.550025 0.550025
0.777846 0.550025 0.550025
0.889513 0.550025 0.550025
1.000000 0.550025 0.550025
0.050000 0.664786 0.550025
0.188525 0.664786 0.550025
0.313185 0.664786 0.550025
0.433096 0.664786 0.550025
0.550025 0.664786 0.550025
0.664786 0.664786 0.550025
0.777846 0.664786 0.550025
0.889513 0.664786 0.550025
1.000000 0.664786 0.550025
0.050000 0.777846 0.550025
0.188525 0.777846 0.550025
0.313185 0.777846 0.550025
0.433096 0.777846 0.550025
0.550025 0.777846 0.550025
0.664786 0.777846 0.550025
0.777846 0.777846 0.550025
0.889513 0.777846 0.550025
1.000000 0.777846 0.550025
0.050000 0.889513 0.550025
0.188525 0.889513 0.550025
0.313185 0.889513 0.550025
0.433096 0.889513 0.550025
0.550025 0.889513 0.550025
0.664786 0.889513 0.550025
0.777846 0.889513 0.550025
0.889513 0.889513 0.550025
1.000000 0.889513 0.550025
0.050000 1.000000 0.550025
0.188525 1.000000 0.550025
0.313185 1.000000 0.550025
0.433096 1.000000 0.550025
0.550025 1.000000 0.550025
0.664786 1.000000 0.550025
0.777846 1.000000 0.550025
0.889513 1.000000 0.550025
1.000000 1.000000 0.550025
0.050000 0.050000 0.664786
0.188525 0.050000 0.664786
0.313185 0.050000 0.664786
0.433096 0.050000 0.664786
0.550025 0.050000 0.664786
0.664786 0.050000 0.664786
0.777846 0.050000 0.664786
0.889513 0.050000 0.664786
1.000000 0.050000 0.664786
0.050000 0.188525 0.664786
0.188525 0.188525 0.664786
0.313185 0.188525 0.664786
0.433096 0.188525 0.664786
0.550025 0.188525 0.664786
0.664786 0.188525 0.664786
0.777846 0.188525 0.664786
0.889513 0.188525 0.664786
1.000000 0.188525 0.664786
0.050000 0.313185 0.664786
0.188525 0.313185 0.664786
0.313185 0.313185 0.664786
0.433096 0.313185 0.664786
0.550025 0.313185 0.664786
0.664786 0.313185 0.664786
0.777846 0.313185 0.664786
0.889513 0.313185 0.664786
1.000000 0.313185 0.664786
0.050000 0.433096 0.664786
0.188525 0.433096 0.664786
0.313185 0.433096 0.664786
0.433096 0.433096 0.664786
0.550025 0.433096 0.664786
0.664786 0.433096 0.664786
0.777846 0.433096 0.664786
0.889513 0.433096 0.664786
1.000000 0.433096 0.664786
0.050000 0.550025 0.664786
0.188525 0.550025 0.664786
0.313185 0.550025 0.664786
0.433096 0.550025 0.664786
0.550025 0.550025 0.664786
0.664786 0.550025 0.664786
0.777846 0.550025 0.664786
0.889513 0.550025 0.664786
1.000000 0.550025 0.664786
0.050000 0.664786 0.664786
0.188525 0.664786 0.664786
0.313185 0.664786 0.664786
0.433096 0.664786 0.664786
0.550025 0.664786 0.664786
0.664786 0.664786 0.664786
0.777846 0.664786 0.664786
0.889513 0.664786 0.664786
1.000000 0.664786 0.664786
0.050000 0.777846 0.664786
0.188525 0.777846 0.664786
0.313185 0.777846 0.664786
0.433096 0.777846 0.664786
0.550025 0.777846 0.664786
0.664786 0.777846 0.664786
0.777846 0.777846 0.664786
0.889513 0.777846 0.664786
1.000000 0.777846 0.664786
0.050000 0.889513 0.664786
0.188525 0.889513 0.664786
0.313185 0.889513 0.664786
0.433096 0.889513 0.664786
0.550025 0.889513 0.664786
0.664786 0.889513 0.664786
0.777846 0.889513 0.664786
0.889513 0.889513 0.664786
1.000000 0.889513 0.664786
0.050000 1.000000 0.664786
0.188525 1.000000 0.664786
0.313185 1.000000 0.664786
0.433096 1.000000 0.664786
0.550025 1.000000 0.664786
0.664786 1.000000 0.664786
0.777846 1.000000 0.664786
0.889513 1.000000 0.664786
1.000000 1.000000 0.664786
0.050000 0.050000 0.777846
0.188525 0.050000 0.777846
0.313185 0.050000 0.777846
0.433096 0.050000 0.777846
0.550025 0.050000 0.777846
0.664786 0.050000 0.777846
0.777846 0.050000 0.777846
0.889513 0.050000 0.777846
1.000000 0.050000 0.777846
0.050000 0.188525 0.777846
0.188525 0.188525 0.777846
0.313185 0.188525 0.777846
0.433096 0.188525 0.777846
0.550025 0.188525 0.777846
0.664786 0.188525 0.777846
0.777846 0.188525 0.777846
0.889513 0.188525 0.777846
1.000000 0.188525 0.777846
0.050000 0.313185 0.777846
0.188525 0.313185 0.777846
0.313185 0.313185 0.777846
0.433096 0.313185 0.777846
0.550025 0.313185 0.777846
0.664786 0.313185 0.777846
0.777846 0.313185 0.777846
0.889513 0.313185 0.777846
1.000000 0.313185 0.777846
0.050000 0.433096 0.777846
0.188525 0.433096 0.777846
0.313185 0.433096 0.777846
0.433096 0.433096 0.777846
0.550025 0.433096 0.777846
0.664786 0.433096 0.777846
0.777846 0.433096 0.777846
0.889513 0.433096 0.777846
1.000000 0.433096 0.777846
0.050000 0.550025 0.777846
0.188525 0.550025 0.777846
0.313185 0.550025 0.777846
0.433096 0.550025 0.777846
0.550025 0.550025 0.777846
0.664786 0.550025 0.777846
0.777846 0.550025 0.777846
0.889513 0.550025 0.777846
1.000000 0.550025 0.777846
0.050000 0.664786 0.777846
0.188525 0.664786 0.777846
0.313185 0.664786 0.777846
0.433096 0.664786 0.777846
0.550025 0.664786 0.777846
0.664786 0.664786 0.777846
0.777846 0.664786 0.777846
0.889513 0.664786 0.777846
1.000000 0.664786 0.777846
0.050000 0.777846 0.777846
0.188525 0.777846 0.777846
0.313185 0.777846 0.777846
0.433096 0.777846 0.777846
0.550025 0.777846 0.777846
0.664786 0.777846 0.777846
0.777846 0.777846 0.777846
0.889513 0.777846 0.777846
1.000000 0.777846 0.777846
0.050000 0.889513 0.777846
0.188525 0.889513 0.777846
0.313185 0.889513 0.777846
0.433096 0.889513 0.777846
0.550025 0.889513 0.777846
0.664786 0.889513 0.777846
0.777846 0.889513 0.777846
0.889513 0.889513 0.777846
1.000000 0.889513 0.777846
0.050000 1.000000 0.777846
0.188525 1.000000 0.777846
0.313185 1.000000 0.777846
0.433096 1.000000 0.777846
0.550025 1.000000 0.777846
0.664786 1.000000 0.777846
0.777846 1.000000 0.777846
0.889513 1.000000 0.777846
1.000000 1.000000 0.777846
0.050000 0.050000 0.889513
0.188525 0.050000 0.889513
0.313185 0.050000 0.889513
0.433096 0.050000 0.889513
0.550025 0.050000 0.889513
0.664786 0.050000 0.889513
0.777846 0.050000 0.889513
0.889513 0.050000 0.889513
1.000000 0.050000 0.889513
0.050000 0.188525 0.889513
0.188525 0.188525 0.889513
0.313185 0.188525 0.889513
0.433096 0.188525 0.889513
0.550025 0.188525 0.889513
0.664786 0.188525 0.889513
0.777846 0.188525 0.889513
0.889513 0.188525 0.889513
1.000000 0.188525 0.889513
0.050000 0.313185 0.889513
0.188525 0.313185 0.889513
0.313185 0.313185 0.889513
0.433096 0.313185 0.889513
0.550025 0.313185 0.889513
0.664786 0.313185 0.889513
0.777846 0.313185 0.889513
0.889513 0.313185 0.889513
1.000000 0.313185 0.889513
0.050000 0.433096 0.889513
0.188525 0.433096 0.889513
0.313185 0.433096 0.889513
0.433096 0.433096 0.889513
0.550025 0.433096 0.889513
0.664786 0.433096 0.889513
0.777846 0.433096 0.889513
0.889513 0.433096 0.889513
1.000000 0.433096 0.889513
0.050000 0.550025 0.889513
0.188525 0.550025 0.889513
0.313185 0.550025 0.889513
0.433096 0.550025 0.889513
0.550025 0.550025 0.889513
0.664786 0.550025 0.889513
0.777846 0.550025 0.889513
0.889513 0.550025 0.889513
1.000000 0.550025 0.889513
0.050000 0.664786 0.889513
0.188525 0.664786 0.889513
0.313185 0.664786 0.889513
0.433096 0.664786 0.889513
0.550025 0.664786 0.889513
0.664786 0.664786 0.889513
0.777846 0.664786 0.889513
0.889513 0.664786 0.889513
1.000000 0.664786 0.889513
0.050000 0.777846 0.889513
0.188525 0.777846 0.889513
0.313185 0.777846 0.889513
0.433096 0.777846 0.889513
0.550025 0.777846 0.889513
0.664786 0.777846 0.889513
0.777846 0.777846 0.889513
0.889513 0.777846 0.889513
1.000000 0.777846 0.889513
0.050000 0.889513 0.889513
0.188525 0.889513 0.889513
0.313185 0.889513 0.889513
0.433096 0.889513 0.889513
0.550025 0.889513 0.889513
0.664786 0.889513 0.889513
0.777846 0.889513 0.889513
0.889513 0.889513 0.889513
1.000000 0.889513 0.889513
0.050000 1.000000 0.889513
0.188525 1.000000 0.889513
0.313185 1.000000 0.889513
0.433096 1.000000 0.889513
0.550025 1.000000 0.889513
0.664786 1.000000 0.889513
0.777846 1.000000 0.889513
0.889513 1.000000 0.889513
1.000000 1.000000 0.889513
0.050000 0.050000 1.000000
0.188525 0.050000 1.000000
0.313185 0.050000 1.000000
0.433096 0.050000 1.000000
0.550025 0.050000 1.000000
0.664786 0.050000 1.000000
0.777846 0.050000 1.000000
0.889513 0.050000 1.000000
1.000000 0.050000 1.000000
0.050000 0.188525 1.000000
0.188525 0.188525 1.000000
0.313185 0.188525 1.000000
0.433096 0.188525 1.000000
0.550025 0.188525 1.000000
0.664786 0.188525 1.000000
0.777846 0.188525 1.000000
0.889513 0.188525 1.000000
1.000000 0.188525 1.000000
0.050000 0.313185 1.000000
0.188525 0.313185 1.000000
0.313185 0.313185 1.000000
0.433096 0.313185 1.000000
0.550025 0.313185 1.000000
0.664786 0.313185 1.000000
0.777846 0.313185 1.000000
0.889513 0.313185 1.000000
1.000000 0.313185 1.000000
0.050000 0.433096 1.000000
0.188525 0.433096 1.000000
0.313185 0.433096 1.000000
0.433096 0.433096 1.000000
0.550025 0.433096 1.000000
0.664786 0.433096 1.000000
0.777846 0.433096 1.000000
0.889513 0.433096 1.000000
1.000000 0.433096 1.000000
0.050000 0.550025 1.000000
0.188525 0.550025 1.000000
0.313185 0.550025 1.000000
0.433096 0.550025 1.000000
0.550025 0.550025 1.000000
0.664786 0.550025 1.000000
0.777846 0.550025 1.000000
0.889513 0.550025 1.000000
1.000000 0.550025 1.000000
0.050000 0.664786 1.000000
0.188525 0.664786 1.000000
0.313185 0.664786 1.000000
0.433096 0.664786 1.000000
0.550025 0.664786 1.000000
0.664786 0.664786 1.000000
0.777846 0.664786 1.000000
0.889513 0.664786 1.000000
1.000000 0.664786 1.000000
0.050000 0.777846 1.000000
0.188525 0.777846 1.000000
0.313185 0.777846 1.000000
0.433096 0.777846 1.000000
0.550025 0.777846 1.000000
0.664786 0.777846 1.000000
0.777846 0.777846 1.000000
0.889513 0.777846 1.000000
1.000000 0.777846 1.000000
0.050000 0.889513 1.000000
0.188525 0.889513 1.000000
0.313185 0.889513 1.000000
0.433096 0.889513 1.000000
0.550025 0.889513 1.000000
0.664786 0.889513 1.000000
0.777846 0.889513 1.000000
0.889513 0.889513 1.000000
1.000000 0.889513 1.000000
0.050000 1.000000 1.000000
0.188525 1.000000 1.000000
0.313185 1.000000 1.000000
0.433096 1.000000 1.000000
0.550025 1.000000 1.000000
0.664786 1.000000 1.000000
0.777846 1.000000 1.000000
0.889513 1.000000 1.000000
1.000000 1.000000 1.000000
