frontend/client/public/luts/script/sony_slog3_rec709.cube
TITLE "Sony S-Log3 to Rec.709"
LUT_3D_SIZE 17
0.050000 0.050000 0.050000
0.122912 0.050000 0.050000
0.188525 0.050000 0.050000
0.251640 0.050000 0.050000
0.313185 0.050000 0.050000
0.373588 0.050000 0.050000
0.433096 0.050000 0.050000
0.491871 0.050000 0.050000
0.550025 0.050000 0.050000
0.607642 0.050000 0.050000
0.664786 0.050000 0.050000
0.721506 0.050000 0.050000
0.777846 0.050000 0.050000
0.833839 0.050000 0.050000
0.889513 0.050000 0.050000
0.944893 0.050000 0.050000
1.000000 0.050000 0.050000
0.050000 0.122912 0.050000
0.122912 0.122912 0.050000
0.188525 0.122912 0.050000
0.251640 0.122912 0.050000
0.313185 0.122912 0.050000
0.373588 0.122912 0.050000
0.433096 0.122912 0.050000
0.491871 0.122912 0.050000
0.550025 0.122912 0.050000
0.607642 0.122912 0.050000
0.664786 0.122912 0.050000
0.721506 0.122912 0.050000
0.777846 0.122912 0.050000
0.833839 0.122912 0.050000
0.889513 0.122912 0.050000
0.944893 0.122912 0.050000
1.000000 0.122912 0.050000
0.050000 0.188525 0.050000
0.122912 0.188525 0.050000
0.188525 0.188525 0.050000
0.251640 0.188525 0.050000
0.313185 0.188525 0.050000
0.373588 0.188525 0.050000
0.433096 0.188525 0.050000
0.491871 0.188525 0.050000
0.550025 0.188525 0.050000
0.607642 0.188525 0.050000
0.664786 0.188525 0.050000
0.721506 0.188525 0.050000
0.777846 0.188525 0.050000
0.833839 0.188525 0.050000
0.889513 0.188525 0.050000
0.944893 0.188525 0.050000
1.000000 0.188525 0.050000
0.050000 0.251640 0.050000
0.122912 0.251640 0.050000
0.188525 0.251640 0.050000
0.251640 0.251640 0.050000
0.313185 0.251640 0.050000
0.373588 0.251640 0.050000
0.433096 0.251640 0.050000
0.491871 0.251640 0.050000
0.550025 0.251640 0.050000
0.607642 0.251640 0.050000
0.664786 0.251640 0.050000
0.721506 0.251640 0.050000
0.777846 0.251640 0.050000
0.833839 0.251640 0.050000
0.889513 0.251640 0.050000
0.944893 0.251640 0.050000
1.000000 0.251640 0.050000
0.050000 0.313185 0.050000
0.122912 0.313185 0.050000
0.188525 0.313185 0.050000
0.251640 0.313185 0.050000
0.313185 0.313185 0.050000
0.373588 0.313185 0.050000
0.433096 0.313185 0.050000
0.491871 0.313185 0.050000
0.550025 0.313185 0.050000
0.607642 0.313185 0.050000
0.664786 0.313185 0.050000
0.721506 0.313185 0.050000
0.777846 0.313185 0.050000
0.833839 0.313185 0.050000
0.889513 0.313185 0.050000
0.944893 0.313185 0.050000
1.000000 0.313185 0.050000
0.050000 0.373588 0.050000
0.122912 0.373588 0.050000
0.188525 0.373588 0.050000
0.251640 0.373588 0.050000
0.313185 0.373588 0.050000
0.373588 0.373588 0.050000
0.433096 0.373588 0.050000
0.491871 0.373588 0.050000
0.550025 0.373588 0.050000
0.607642 0.373588 0.050000
0.664786 0.373588 0.050000
0.721506 0.373588 0.050000
0.777846 0.373588 0.050000
0.833839 0.373588 0.050000
0.889513 0.373588 0.050000
0.944893 0.373588 0.050000
1.000000 0.373588 0.050000
0.050000 0.433096 0.050000
0.122912 0.433096 0.050000
0.188525 0.433096 0.050000
0.251640 0.433096 0.050000
0.313185 0.433096 0.050000
0.373588 0.433096 0.050000
0.433096 0.433096 0.050000
0.491871 0.433096 0.050000
0.550025 0.433096 0.050000
0.607642 0.433096 0.050000
0.664786 0.433096 0.050000
0.721506 0.433096 0.050000
0.777846 0.433096 0.050000
0.833839 0.433096 0.050000
0.889513 0.433096 0.050000
0.944893 0.433096 0.050000
1.000000 0.433096 0.050000
0.050000 0.491871 0.050000
0.122912 0.491871 0.050000
0.188525 0.491871 0.050000
0.251640 0.491871 0.050000
0.313185 0.491871 0.050000
0.373588 0.491871 0.050000
0.433096 0.491871 0.050000
0.491871 0.491871 0.050000
0.550025 0.491871 0.050000
0.607642 0.491871 0.050000
0.664786 0.491871 0.050000
0.721506 0.491871 0.050000
0.777846 0.491871 0.050000
0.833839 0.491871 0.050000
0.889513 0.491871 0.050000
0.944893 0.491871 0.050000
1.000000 0.491871 0.050000
0.050000 0.550025 0.050000
0.122912 0.550025 0.050000
0.188525 0.550025 0.050000
0.251640 0.550025 0.050000
0.313185 0.550025 0.050000
0.373588 0.550025 0.050000
0.433096 0.550025 0.050000
0.491871 0.550025 0.050000
0.550025 0.550025 0.050000
0.607642 0.550025 0.050000
0.664786 0.550025 0.050000
0.721506 0.550025 0.050000
0.777846 0.550025 0.050000
0.833839 0.550025 0.050000
0.889513 0.550025 0.050000
0.944893 0.550025 0.050000
1.000000 0.550025 0.050000
0.050000 0.607642 0.050000
0.122912 0.607642 0.050000
0.188525 0.607642 0.050000
0.251640 0.607642 0.050000
0.313185 0.607642 0.050000
0.373588 0.607642 0.050000
0.433096 0.607642 0.050000
0.491871 0.607642 0.050000
0.550025 0.607642 0.050000
0.607642 0.607642 0.050000
0.664786 0.607642 0.050000
0.721506 0.607642 0.050000
0.777846 0.607642 0.050000
0.833839 0.607642 0.050000
0.889513 0.607642 0.050000
0.944893 0.607642 0.050000
1.000000 0.607642 0.050000
0.050000 0.664786 0.050000
0.122912 0.664786 0.050000
0.188525 0.664786 0.050000
0.251640 0.664786 0.050000
0.313185 0.664786 0.050000
0.373588 0.664786 0.050000
0.433096 0.664786 0.050000
0.491871 0.664786 0.050000
0.550025 0.664786 0.050000
0.607642 0.664786 0.050000
0.664786 0.664786 0.050000
0.721506 0.664786 0.050000
0.777846 0.664786 0.050000
0.833839 0.664786 0.050000
0.889513 0.664786 0.050000
0.944893 0.664786 0.050000
1.000000 0.664786 0.050000
0.050000 0.721506 0.050000
0.122912 0.721506 0.050000
0.188525 0.721506 0.050000
0.251640 0.721506 0.050000
0.313185 0.721506 0.050000
0.373588 0.721506 0.050000
0.433096 0.721506 0.050000
0.491871 0.721506 0.050000
0.550025 0.721506 0.050000
0.607642 0.721506 0.050000
0.664786 0.721506 0.050000
0.721506 0.721506 0.050000
0.777846 0.721506 0.050000
0.833839 0.721506 0.050000
0.889513 0.721506 0.050000
0.944893 0.721506 0.050000
1.000000 0.721506 0.050000
0.050000 0.777846 0.050000
0.122912 0.777846 0.050000
0.188525 0.777846 0.050000
0.251640 0.777846 0.050000
0.313185 0.777846 0.050000
0.373588 0.777846 0.050000
0.433096 0.777846 0.050000
0.491871 0.777846 0.050000
0.550025 0.777846 0.050000
0.607642 0.777846 0.050000
0.664786 0.777846 0.050000
0.721506 0.777846 0.050000
0.777846 0.777846 0.050000
0.833839 0.777846 0.050000
0.889513 0.777846 0.050000
0.944893 0.777846 0.050000
1.000000 0.777846 0.050000
0.050000 0.833839 0.050000
0.122912 0.833839 0.050000
0.188525 0.833839 0.050000
0.251640 0.833839 0.050000
0.313185 0.833839 0.050000
0.373588 0.833839 0.050000
0.433096 0.833839 0.050000
0.491871 0.833839 0.050000
0.550025 0.833839 0.050000
0.607642 0.833839 0.050000
0.664786 0.833839 0.050000
0.721506 0.833839 0.050000
0.777846 0.833839 0.050000
0.833839 0.833839 0.050000
0.889513 0.833839 0.050000
0.944893 0.833839 0.050000
1.000000 0.833839 0.050000
0.050000 0.889513 0.050000
0.122912 0.889513 0.050000
0.188525 0.889513 0.050000
0.251640 0.889513 0.050000
0.313185 0.889513 0.050000
0.373588 0.889513 0.050000
0.433096 0.889513 0.050000
0.491871 0.889513 0.050000
0.550025 0.889513 0.050000
0.607642 0.889513 0.050000
0.664786 0.889513 0.050000
0.721506 0.889513 0.050000
0.777846 0.889513 0.050000
0.833839 0.889513 0.050000
0.889513 0.889513 0.050000
0.944893 0.889513 0.050000
1.000000 0.889513 0.050000
0.050000 0.944893 0.050000
0.122912 0.944893 0.050000
0.188525 0.944893 0.050000
0.251640 0.944893 0.050000
0.313185 0.944893 0.050000
0.373588 0.944893 0.050000
0.433096 0.944893 0.050000
0.491871 0.944893 0.050000
0.550025 0.944893 0.050000
0.607642 0.944893 0.050000
0.664786 0.944893 0.050000
0.721506 0.944893 0.050000
0.777846 0.944893 0.050000
0.833839 0.944893 0.050000
0.889513 0.944893 0.050000
0.944893 0.944893 0.050000
1.000000 0.944893 0.050000
0.050000 1.000000 0.050000
0.122912 1.000000 0.050000
0.188525 1.000000 0.050000
0.251640 1.000000 0.050000
0.313185 1.000000 0.050000
0.373588 1.000000 0.050000
0.433096 1.000000 0.050000
0.491871 1.000000 0.050000
0.550025 1.000000 0.050000
0.607642 1.000000 0.050000
0.664786 1.000000 0.050000
0.721506 1.000000 0.050000
0.777846 1.000000 0.050000
0.833839 1.000000 0.050000
0.889513 1.000000 0.050000
0.944893 1.000000 0.050000
1.000000 1.000000 0.050000
0.050000 0.050000 0.122912
0.122912 0.050000 0.122912
0.188525 0.050000 0.122912
0.251640 0.050000 0.122912
0.313185 0.050000 0.122912
0.373588 0.050000 0.122912
0.433096 0.050000 0.122912
0.491871 0.050000 0.122912
0.550025 0.050000 0.122912
0.607642 0.050000 0.122912
0.664786 0.050000 0.122912
0.721506 0.050000 0.122912
0.777846 0.050000 0.122912
0.833839 0.050000 0.122912
0.889513 0.050000 0.122912
0.944893 0.050000 0.122912
1.000000 0.050000 0.122912
0.050000 0.122912 0.122912
0.122912 0.122912 0.122912
0.188525 0.122912 0.122912
0.251640 0.122912 0.122912
0.313185 0.122912 0.122912
0.373588 0.122912 0.122912
0.433096 0.122912 0.122912
0.491871 0.122912 0.122912
0.550025 0.122912 0.122912
0.607642 0.122912 0.122912
0.664786 0.122912 0.122912
0.721506 0.122912 0.122912
0.777846 0.122912 0.122912
0.833839 0.122912 0.122912
0.889513 0.122912 0.122912
0.944893 0.122912 0.122912
1.000000 0.122912 0.122912
0.050000 0.188525 0.122912
0.122912 0.188525 0.122912
0.188525 0.188525 0.122912
0.251640 0.188525 0.122912
0.313185 0.188525 0.122912
0.373588 0.188525 0.122912
0.433096 0.188525 0.122912
0.491871 0.188525 0.122912
0.550025 0.188525 0.122912
0.607642 0.188525 0.122912
0.664786 0.188525 0.122912
0.721506 0.188525 0.122912
0.777846 0.188525 0.122912
0.833839 0.188525 0.122912
0.889513 0.188525 0.122912
0.944893 0.188525 0.122912
1.000000 0.188525 0.122912
0.050000 0.251640 0.122912
0.122912 0.251640 0.122912
0.188525 0.251640 0.122912
0.251640 0.251640 0.122912
0.313185 0.251640 0.122912
0.373588 0.251640 0.122912
0.433096 0.251640 0.122912
0.491871 0.251640 0.122912
0.550025 0.251640 0.122912
0.607642 0.251640 0.122912
0.664786 0.251640 0.122912
0.721506 0.251640 0.122912
0.777846 0.251640 0.122912
0.833839 0.251640 0.122912
0.889513 0.251640 0.122912
0.944893 0.251640 0.122912
1.000000 0.251640 0.122912
0.050000 0.313185 0.122912
0.122912 0.313185 0.122912
0.188525 0.313185 0.122912
0.251640 0.313185 0.122912
0.313185 0.313185 0.122912
0.373588 0.313185 0.122912
0.433096 0.313185 0.122912
0.491871 0.313185 0.122912
0.550025 0.313185 0.122912
0.607642 0.313185 0.122912
0.664786 0.313185 0.122912
0.721506 0.313185 0.122912
0.777846 0.313185 0.122912
0.833839 0.313185 0.122912
0.889513 0.313185 0.122912
0.944893 0.313185 0.122912
1.000000 0.313185 0.122912
0.050000 0.373588 0.122912
0.122912 0.373588 0.122912
0.188525 0.373588 0.122912
0.251640 0.373588 0.122912
0.313185 0.373588 0.122912
0.373588 0.373588 0.122912
0.433096 0.373588 0.122912
0.491871 0.373588 0.122912
0.550025 0.373588 0.122912
0.607642 0.373588 0.122912
0.664786 0.373588 0.122912
0.721506 0.373588 0.122912
0.777846 0.373588 0.122912
0.833839 0.373588 0.122912
0.889513 0.373588 0.122912
0.944893 0.373588 0.122912
1.000000 0.373588 0.122912
0.050000 0.433096 0.122912
0.122912 0.433096 0.122912
0.188525 0.433096 0.122912
0.251640 0.433096 0.122912
0.313185 0.433096 0.122912
0.373588 0.433096 0.122912
0.433096 0.433096 0.122912
0.491871 0.433096 0.122912
0.550025 0.433096 0.122912
0.607642 0.433096 0.122912
0.664786 0.433096 0.122912
0.721506 0.433096 0.122912
0.777846 0.433096 0.122912
0.833839 0.433096 0.122912
0.889513 0.433096 0.122912
0.944893 0.433096 0.122912
1.000000 0.433096 0.122912
0.050000 0.491871 0.122912
0.122912 0.491871 0.122912
0.188525 0.491871 0.122912
0.251640 0.491871 0.122912
0.313185 0.491871 0.122912
0.373588 0.491871 0.122912
0.433096 0.491871 0.122912
0.491871 0.491871 0.122912
0.550025 0.491871 0.122912
0.607642 0.491871 0.122912
0.664786 0.491871 0.122912
0.721506 0.491871 0.122912
0.777846 0.491871 0.122912
0.833839 0.491871 0.122912
0.889513 0.491871 0.122912
0.944893 0.491871 0.122912
1.000000 0.491871 0.122912
0.050000 0.550025 0.122912
0.122912 0.550025 0.122912
0.188525 0.550025 0.122912
0.251640 0.550025 0.122912
0.313185 0.550025 0.122912
0.373588 0.550025 0.122912
0.433096 0.550025 0.122912
0.491871 0.550025 0.122912
0.550025 0.550025 0.122912
0.607642 0.550025 0.122912
0.664786 0.550025 0.122912
0.721506 0.550025 0.122912
0.777846 0.550025 0.122912
0.833839 0.550025 0.122912
0.889513 0.550025 0.122912
0.944893 0.550025 0.122912
1.000000 0.550025 0.122912
0.050000 0.607642 0.122912
0.122912 0.607642 0.122912
0.188525 0.607642 0.122912
0.251640 0.607642 0.122912
0.313185 0.607642 0.122912
0.373588 0.607642 0.122912
0.433096 0.607642 0.122912
0.491871 0.607642 0.122912
0.550025 0.607642 0.122912
0.607642 0.607642 0.122912
0.664786 0.607642 0.122912
0.721506 0.607642 0.122912
0.777846 0.607642 0.122912
0.833839 0.607642 0.122912
0.889513 0.607642 0.122912
0.944893 0.607642 0.122912
1.000000 0.607642 0.122912
0.050000 0.664786 0.122912
0.122912 0.664786 0.122912
0.188525 0.664786 0.122912
0.251640 0.664786 0.122912
0.313185 0.664786 0.122912
0.373588 0.664786 0.122912
0.433096 0.664786 0.122912
0.491871 0.664786 0.122912
0.550025 0.664786 0.122912
0.607642 0.664786 0.122912
0.664786 0.664786 0.122912
0.721506 0.664786 0.122912
0.777846 0.664786 0.122912
0.833839 0.664786 0.122912
0.889513 0.664786 0.122912
0.944893 0.664786 0.122912
1.000000 0.664786 0.122912
0.050000 0.721506 0.122912
0.122912 0.721506 0.122912
0.188525 0.721506 0.122912
0.251640 0.721506 0.122912
0.313185 0.721506 0.122912
0.373588 0.721506 0.122912
0.433096 0.721506 0.122912
0.491871 0.721506 0.122912
0.550025 0.721506 0.122912
0.607642 0.721506 0.122912
0.664786 0.721506 0.122912
0.721506 0.721506 0.122912
0.777846 0.721506 0.122912
0.833839 0.721506 0.122912
0.889513 0.721506 0.122912
0.944893 0.721506 0.122912
1.000000 0.721506 0.122912
0.050000 0.777846 0.122912
0.122912 0.777846 0.122912
0.188525 0.777846 0.122912
0.251640 0.777846 0.122912
0.313185 0.777846 0.122912
0.373588 0.777846 0.122912
0.433096 0.777846 0.122912
0.491871 0.777846 0.122912
0.550025 0.777846 0.122912
0.607642 0.777846 0.122912
0.664786 0.777846 0.122912
0.721506 0.777846 0.122912
0.777846 0.777846 0.122912
0.833839 0.777846 0.122912
0.889513 0.777846 0.122912
0.944893 0.777846 0.122912
1.000000 0.777846 0.122912
0.050000 0.833839 0.122912
0.122912 0.833839 0.122912
0.188525 0.833839 0.122912
0.251640 0.833839 0.122912
0.313185 0.833839 0.122912
0.373588 0.833839 0.122912
0.433096 0.833839 0.122912
0.491871 0.833839 0.122912
0.550025 0.833839 0.122912
0.607642 0.833839 0.122912
0.664786 0.833839 0.122912
0.721506 0.833839 0.122912
0.777846 0.833839 0.122912
0.833839 0.833839 0.122912
0.889513 0.833839 0.122912
0.944893 0.833839 0.122912
1.000000 0.833839 0.122912
0.050000 0.889513 0.122912
0.122912 0.889513 0.122912
0.188525 0.889513 0.122912
0.251640 0.889513 0.122912
0.313185 0.889513 0.122912
0.373588 0.889513 0.122912
0.433096 0.889513 0.122912
0.491871 0.889513 0.122912
0.550025 0.889513 0.122912
0.607642 0.889513 0.122912
0.664786 0.889513 0.122912
0.721506 0.889513 0.122912
0.777846 0.889513 0.122912
0.833839 0.889513 0.122912
0.889513 0.889513 0.122912
0.944893 0.889513 0.122912
1.000000 0.889513 0.122912
0.050000 0.944893 0.122912
0.122912 0.944893 0.122912
0.188525 0.944893 0.122912
0.251640 0.944893 0.122912
0.313185 0.944893 0.122912
0.373588 0.944893 0.122912
0.433096 0.944893 0.122912
0.491871 0.944893 0.122912
0.550025 0.944893 0.122912
0.607642 0.944893 0.122912
0.664786 0.944893 0.122912
0.721506 0.944893 0.122912
0.777846 0.944893 0.122912
0.833839 0.944893 0.122912
0.889513 0.944893 0.122912
0.944893 0.944893 0.122912
1.000000 0.944893 0.122912
0.050000 1.000000 0.122912
0.122912 1.000000 0.122912
0.188525 1.000000 0.122912
0.251640 1.000000 0.122912
0.313185 1.000000 0.122912
0.373588 1.000000 0.122912
0.433096 1.000000 0.122912
0.491871 1.000000 0.122912
0.550025 1.000000 0.122912
0.607642 1.000000 0.122912
0.664786 1.000000 0.122912
0.721506 1.000000 0.122912
0.777846 1.000000 0.122912
0.833839 1.000000 0.122912
0.889513 1.000000 0.122912
0.944893 1.000000 0.122912
1.000000 1.000000 0.122912
0.050000 0.050000 0.188525
0.122912 0.050000 0.188525
0.188525 0.050000 0.188525
0.251640 0.050000 0.188525
0.313185 0.050000 0.188525
0.373588 0.050000 0.188525
0.433096 0.050000 0.188525
0.491871 0.050000 0.188525
0.550025 0.050000 0.188525
0.607642 0.050000 0.188525
0.664786 0.050000 0.188525
0.721506 0.050000 0.188525
0.777846 0.050000 0.188525
0.833839 0.050000 0.188525
0.889513 0.050000 0.188525
0.944893 0.050000 0.188525
1.000000 0.050000 0.188525
0.050000 0.122912 0.188525
0.122912 0.122912 0.188525
0.188525 0.122912 0.188525
0.251640 0.122912 0.188525
0.313185 0.122912 0.188525
0.373588 0.122912 0.188525
0.433096 0.122912 0.188525
0.491871 0.122912 0.188525
0.550025 0.122912 0.188525
0.607642 0.122912 0.188525
0.664786 0.122912 0.188525
0.721506 0.122912 0.188525
0.777846 0.122912 0.188525
0.833839 0.122912 0.188525
0.889513 0.122912 0.188525
0.944893 0.122912 0.188525
1.000000 0.122912 0.188525
0.050000 0.188525 0.188525
0.122912 0.188525 0.188525
0.188525 0.188525 0.188525
0.251640 0.188525 0.188525
0.313185 0.188525 0.188525
0.373588 0.188525 0.188525
0.433096 0.188525 0.188525
0.491871 0.188525 0.188525
0.550025 0.188525 0.188525
0.607642 0.188525 0.188525
0.664786 0.188525 0.188525
0.721506 0.188525 0.188525
0.777846 0.188525 0.188525
0.833839 0.188525 0.188525
0.889513 0.188525 0.188525
0.944893 0.188525 0.188525
1.000000 0.188525 0.188525
0.050000 0.251640 0.188525
0.122912 0.251640 0.188525
0.188525 0.251640 0.188525
0.251640 0.251640 0.188525
0.313185 0.251640 0.188525
0.373588 0.251640 0.188525
0.433096 0.251640 0.188525
0.491871 0.251640 0.188525
0.550025 0.251640 0.188525
0.607642 0.251640 0.188525
0.664786 0.251640 0.188525
0.721506 0.251640 0.188525
0.777846 0.251640 0.188525
0.833839 0.251640 0.188525
0.889513 0.251640 0.188525
0.944893 0.251640 0.188525
1.000000 0.251640 0.188525
0.050000 0.313185 0.188525
0.122912 0.313185 0.188525
0.188525 0.313185 0.188525
0.251640 0.313185 0.188525
0.313185 0.313185 0.188525
0.373588 0.313185 0.188525
0.433096 0.313185 0.188525
0.491871 0.313185 0.188525
0.550025 0.313185 0.188525
0.607642 0.313185 0.188525
0.664786 0.313185 0.188525
0.721506 0.313185 0.188525
0.777846 0.313185 0.188525
0.833839 0.313185 0.188525
0.889513 0.313185 0.188525
0.944893 0.313185 0.188525
1.000000 0.313185 0.188525
0.050000 0.373588 0.188525
0.122912 0.373588 0.188525
0.188525 0.373588 0.188525
0.251640 0.373588 0.188525
0.313185 0.373588 0.188525
0.373588 0.373588 0.188525
0.433096 0.373588 0.188525
0.491871 0.373588 0.188525
0.550025 0.373588 0.188525
0.607642 0.373588 0.188525
0.664786 0.373588 0.188525
0.721506 0.373588 0.188525
0.777846 0.373588 0.188525
0.833839 0.373588 0.188525
0.889513 0.373588 0.188525
0.944893 0.373588 0.188525
1.000000 0.373588 0.188525
0.050000 0.433096 0.188525
0.122912 0.433096 0.188525
0.188525 0.433096 0.188525
0.251640 0.433096 0.188525
0.313185 0.433096 0.188525
0.373588 0.433096 0.188525
0.433096 0.433096 0.188525
0.491871 0.433096 0.188525
0.550025 0.433096 0.188525
0.607642 0.433096 0.188525
0.664786 0.433096 0.188525
0.721506 0.433096 0.188525
0.777846 0.433096 0.188525
0.833839 0.433096 0.188525
0.889513 0.433096 0.188525
0.944893 0.433096 0.188525
1.000000 0.433096 0.188525
0.050000 0.491871 0.188525
0.122912 0.491871 0.188525
0.188525 0.491871 0.188525
0.251640 0.491871 0.188525
0.313185 0.491871 0.188525
0.373588 0.491871 0.188525
0.433096 0.491871 0.188525
0.491871 0.491871 0.188525
0.550025 0.491871 0.188525
0.607642 0.491871 0.188525
0.664786 0.491871 0.188525
0.721506 0.491871 0.188525
0.777846 0.491871 0.188525
0.833839 0.491871 0.188525
0.889513 0.491871 0.188525
0.944893 0.491871 0.188525
1.000000 0.491871 0.188525
0.050000 0.550025 0.188525
0.122912 0.550025 0.188525
0.188525 0.550025 0.188525
0.251640 0.550025 0.188525
0.313185 0.550025 0.188525
0.373588 0.550025 0.188525
0.433096 0.550025 0.188525
0.491871 0.550025 0.188525
0.550025 0.550025 0.188525
0.607642 0.550025 0.188525
0.664786 0.550025 0.188525
0.721506 0.550025 0.188525
0.777846 0.550025 0.188525
0.833839 0.550025 0.188525
0.889513 0.550025 0.188525
0.944893 0.550025 0.188525
1.000000 0.550025 0.188525
0.050000 0.607642 0.188525
0.122912 0.607642 0.188525
0.188525 0.607642 0.188525
0.251640 0.607642 0.188525
0.313185 0.607642 0.188525
0.373588 0.607642 0.188525
0.433096 0.607642 0.188525
0.491871 0.607642 0.188525
0.550025 0.607642 0.188525
0.607642 0.607642 0.188525
0.664786 0.607642 0.188525
0.721506 0.607642 0.188525
0.777846 0.607642 0.188525
0.833839 0.607642 0.188525
0.889513 0.607642 0.188525
0.944893 0.607642 0.188525
1.000000 0.607642 0.188525
0.050000 0.664786 0.188525
0.122912 0.664786 0.188525
0.188525 0.664786 0.188525
0.251640 0.664786 0.188525
0.313185 0.664786 0.188525
0.373588 0.664786 0.188525
0.433096 0.664786 0.188525
0.491871 0.664786 0.188525
0.550025 0.664786 0.188525
0.607642 0.664786 0.188525
0.664786 0.664786 0.188525
0.721506 0.664786 0.188525
0.777846 0.664786 0.188525
0.833839 0.664786 0.188525
0.889513 0.664786 0.188525
0.944893 0.664786 0.188525
1.000000 0.664786 0.188525
0.050000 0.721506 0.188525
0.122912 0.721506 0.188525
0.188525 0.721506 0.188525
0.251640 0.721506 0.188525
0.313185 0.721506 0.188525
0.373588 0.721506 0.188525
0.433096 0.721506 0.188525
0.491871 0.721506 0.188525
0.550025 0.721506 0.188525
0.607642 0.721506 0.188525
0.664786 0.721506 0.188525
0.721506 0.721506 0.188525
0.777846 0.721506 0.188525
0.833839 0.721506 0.188525
0.889513 0.721506 0.188525
0.944893 0.721506 0.188525
1.000000 0.721506 0.188525
0.050000 0.777846 0.188525
0.122912 0.777846 0.188525
0.188525 0.777846 0.188525
0.251640 0.777846 0.188525
0.313185 0.777846 0.188525
0.373588 0.777846 0.188525
0.433096 0.777846 0.188525
0.491871 0.777846 0.188525
0.550025 0.777846 0.188525
0.607642 0.777846 0.188525
0.664786 0.777846 0.188525
0.721506 0.777846 0.188525
0.777846 0.777846 0.188525
0.833839 0.777846 0.188525
0.889513 0.777846 0.188525
0.944893 0.777846 0.188525
1.000000 0.777846 0.188525
0.050000 0.833839 0.188525
0.122912 0.833839 0.188525
0.188525 0.833839 0.188525
0.251640 0.833839 0.188525
0.313185 0.833839 0.188525
0.373588 0.833839 0.188525
0.433096 0.833839 0.188525
0.491871 0.833839 0.188525
0.550025 0.833839 0.188525
0.607642 0.833839 0.188525
0.664786 0.833839 0.188525
0.721506 0.833839 0.188525
0.777846 0.833839 0.188525
0.833839 0.833839 0.188525
0.889513 0.833839 0.188525
0.944893 0.833839 0.188525
1.000000 0.833839 0.188525
0.050000 0.889513 0.188525
0.122912 0.889513 0.188525
0.188525 0.889513 0.188525
0.251640 0.889513 0.188525
0.313185 0.889513 0.188525
0.373588 0.889513 0.188525
0.433096 0.889513 0.188525
0.491871 0.889513 0.188525
0.550025 0.889513 0.188525
0.607642 0.889513 0.188525
0.664786 0.889513 0.188525
0.721506 0.889513 0.188525
0.777846 0.889513 0.188525
0.833839 0.889513 0.188525
0.889513 0.889513 0.188525
0.944893 0.889513 0.188525
1.000000 0.889513 0.188525
0.050000 0.944893 0.188525
0.122912 0.944893 0.188525
0.188525 0.944893 0.188525
0.251640 0.944893 0.188525
0.313185 0.944893 0.188525
0.373588 0.944893 0.188525
0.433096 0.944893 0.188525
0.491871 0.944893 0.188525
0.550025 0.944893 0.188525
0.607642 0.944893 0.188525
0.664786 0.944893 0.188525
0.721506 0.944893 0.188525
0.777846 0.944893 0.188525
0.833839 0.944893 0.188525
0.889513 0.944893 0.188525
0.944893 0.944893 0.188525
1.000000 0.944893 0.188525
0.050000 1.000000 0.188525
0.122912 1.000000 0.188525
0.188525 1.000000 0.188525
0.251640 1.000000 0.188525
0.313185 1.000000 0.188525
0.373588 1.000000 0.188525
0.433096 1.000000 0.188525
0.491871 1.000000 0.188525
0.550025 1.000000 0.188525
0.607642 1.000000 0.188525
0.664786 1.000000 0.188525
0.721506 1.000000 0.188525
0.777846 1.000000 0.188525
0.833839 1.000000 0.188525
0.889513 1.000000 0.188525
0.944893 1.000000 0.188525
1.000000 1.000000 0.188525
0.050000 0.050000 0.251640
0.122912 0.050000 0.251640
0.188525 0.050000 0.251640
0.251640 0.050000 0.251640
0.313185 0.050000 0.251640
0.373588 0.050000 0.251640
0.433096 0.050000 0.251640
0.491871 0.050000 0.251640
0.550025 0.050000 0.251640
0.607642 0.050000 0.251640
0.664786 0.050000 0.251640
0.721506 0.050000 0.251640
0.777846 0.050000 0.251640
0.833839 0.050000 0.251640
0.889513 0.050000 0.251640
0.944893 0.050000 0.251640
1.000000 0.050000 0.251640
0.050000 0.122912 0.251640
0.122912 0.122912 0.251640
0.188525 0.122912 0.251640
