frontend/client/public/luts/script/sony_slog3_rec709.cube
TITLE "Sony S-Log3 to Rec.709"
LUT_3D_SIZE 5
0.050000 0.050000 0.050000
0.313185 0.050000 0.050000
0.550025 0.050000 0.050000
0.777846 0.050000 0.050000
1.000000 0.050000 0.050000
0.050000 0.313185 0.050000
0.313185 0.313185 0.050000
0.550025 0.313185 0.050000
0.777846 0.313185 0.050000
1.000000 0.313185 0.050000
0.050000 0.550025 0.050000
0.313185 0.550025 0.050000
0.550025 0.550025 0.050000
0.777846 0.550025 0.050000
1.000000 0.550025 0.050000
0.050000 0.777846 0.050000
0.313185 0.777846 0.050000
0.550025 0.777846 0.050000
0.777846 0.777846 0.050000
1.000000 0.777846 0.050000
0.050000 1.000000 0.050000
0.313185 1.000000 0.050000
0.550025 1.000000 0.050000
0.777846 1.000000 0.050000
1.000000 1.000000 0.050000
0.050000 0.050000 0.313185
0.313185 0.050000 0.313185
0.550025 0.050000 0.313185
0.777846 0.050000 0.313185
1.000000 0.050000 0.313185
0.050000 0.313185 0.313185
0.313185 0.313185 0.313185
0.550025 0.313185 0.313185
0.777846 0.313185 0.313185
1.000000 0.313185 0.313185
0.050000 0.550025 0.313185
0.313185 0.550025 0.313185
0.550025 0.550025 0.313185
0.777846 0.550025 0.313185
1.000000 0.550025 0.313185
0.050000 0.777846 0.313185
0.313185 0.777846 0.313185
0.550025 0.777846 0.313185
0.777846 0.777846 0.313185
1.000000 0.777846 0.313185
0.050000 1.000000 0.313185
0.313185 1.000000 0.313185
0.550025 1.000000 0.313185
0.777846 1.000000 0.313185
1.000000 1.000000 0.313185
0.050000 0.050000 0.550025
0.313185 0.050000 0.550025
0.550025 0.050000 0.550025
0.777846 0.050000 0.550025
1.000000 0.050000 0.550025
0.050000 0.313185 0.550025
0.313185 0.313185 0.550025
0.550025 0.313185 0.550025
0.777846 0.313185 0.550025
1.000000 0.313185 0.550025
0.050000 0.550025 0.550025
0.313185 0.550025 0.550025
0.550025 0.550025 0.550025
0.777846 0.550025 0.550025
1.000000 0.550025 0.550025
0.050000 0.777846 0.550025
0.313185 0.777846 0.550025
0.550025 0.777846 0.550025
0.777846 0.777846 0.550025
1.000000 0.777846 0.550025
0.050000 1.000000 0.550025
0.313185 1.000000 0.550025
0.550025 1.000000 0.550025
0.777846 1.000000 0.550025
1.000000 1.000000 0.550025
0.050000 0.050000 0.777846
0.313185 0.050000 0.777846
0.550025 0.050000 0.777846
0.777846 0.050000 0.777846
1.000000 0.050000 0.777846
0.050000 0.313185 0.777846
0.313185 0.313185 0.777846
0.550025 0.313185 0.777846
0.777846 0.313185 0.777846
1.000000 0.313185 0.777846
0.050000 0.550025 0.777846
0.313185 0.550025 0.777846
0.550025 0.550025 0.777846
0.777846 0.550025 0.777846
1.000000 0.550025 0.777846
0.050000 0.777846 0.777846
0.313185 0.777846 0.777846
0.550025 0.777846 0.777846
0.777846 0.777846 0.777846
1.000000 0.777846 0.777846
0.050000 1.000000 0.777846
0.313185 1.000000 0.777846
0.550025 1.000000 0.777846
0.777846 1.000000 0.777846
1.000000 1.000000 0.777846
0.050000 0.050000 1.000000
0.313185 0.050000 1.000000
0.550025 0.050000 1.000000
0.777846 0.050000 1.000000
1.000000 0.050000 1.000000
0.050000 0.313185 1.000000
0.313185 0.313185 1.000000
0.550025 0.313185 1.000000
0.777846 0.313185 1.000000
1.000000 0.313185 1.000000
0.050000 0.550025 1.000000
0.313185 0.550025 1.000000
0.550025 0.550025 1.000000
0.777846 0.550025 1.000000
1.000000 0.550025 1.000000
0.050000 0.777846 1.000000
0.313185 0.777846 1.000000
0.550025 0.777846 1.000000
0.777846 0.777846 1.000000
1.000000 0.777846 1.000000
0.050000 1.000000 1.000000
0.313185 1.000000 1.000000
0.550025 1.000000 1.000000
0.777846 1.000000 1.000000
1.000000 1.000000 1.000000
