frontend/client/public/luts/cultural/indian_wedding_rich.cube
TITLE "Indian Wedding Rich Colors"
LUT_3D_SIZE 9
0.000000 0.000000 0.000000
0.133150 0.000000 0.000000
0.316300 0.000000 0.000000
0.499450 0.000000 0.000000
0.682600 0.000000 0.000000
0.865750 0.000000 0.000000
1.000000 0.000000 0.000000
1.000000 0.000000 0.000000
1.000000 0.000000 0.000000
0.000000 0.124671 0.000000
0.115825 0.108148 0.000000
0.298975 0.091625 0.000000
0.482125 0.075102 0.000000
0.665275 0.058579 0.000000
0.848425 0.042056 0.000000
1.000000 0.025533 0.000000
1.000000 0.009010 0.000000
1.000000 0.000000 0.000000
0.000000 0.299342 0.000000
0.098500 0.282819 0.000000
0.281650 0.266296 0.000000
0.464800 0.249773 0.000000
0.647950 0.233250 0.000000
0.831100 0.216727 0.000000
1.000000 0.200204 0.000000
1.000000 0.183681 0.000000
1.000000 0.167158 0.000000
0.000000 0.474013 0.000000
0.081175 0.457490 0.000000
0.264325 0.440967 0.000000
0.447475 0.424444 0.000000
0.630625 0.407921 0.000000
0.813775 0.391398 0.000000
0.996925 0.374875 0.000000
1.000000 0.358352 0.000000
1.000000 0.341829 0.000000
0.000000 0.648683 0.000000
0.063850 0.632160 0.000000
0.247000 0.615638 0.000000
0.430150 0.599115 0.000000
0.613300 0.582592 0.000000
0.796450 0.566069 0.000000
0.979600 0.549546 0.000000
1.000000 0.533023 0.000000
1.000000 0.516500 0.000000
0.000000 0.823354 0.000000
0.046525 0.806831 0.000000
0.229675 0.790308 0.000000
0.412825 0.773785 0.000000
0.595975 0.757263 0.000000
0.779125 0.740740 0.000000
0.962275 0.724217 0.000000
1.000000 0.707694 0.000000
1.000000 0.691171 0.000000
0.000000 0.998025 0.000000
0.029200 0.981502 0.000000
0.212350 0.964979 0.000000
0.395500 0.948456 0.000000
0.578650 0.931933 0.000000
0.761800 0.915410 0.000000
0.944950 0.898888 0.000000
1.000000 0.882365 0.000000
1.000000 0.865842 0.000000
0.000000 1.000000 0.000000
0.011875 1.000000 0.000000
0.195025 1.000000 0.000000
0.378175 1.000000 0.000000
0.561325 1.000000 0.000000
0.744475 1.000000 0.000000
0.927625 1.000000 0.000000
1.000000 1.000000 0.000000
1.000000 1.000000 0.000000
0.000000 1.000000 0.000000
0.000000 1.000000 0.000000
0.177700 1.000000 0.000000
0.360850 1.000000 0.000000
0.544000 1.000000 0.000000
0.727150 1.000000 0.000000
0.910300 1.000000 0.000000
1.000000 1.000000 0.000000
1.000000 1.000000 0.000000
0.000000 0.000000 0.111104
0.115825 0.000000 0.095865
0.298975 0.000000 0.080625
0.482125 0.000000 0.065385
0.665275 0.000000 0.050146
0.848425 0.000000 0.034906
1.000000 0.000000 0.019667
1.000000 0.000000 0.004427
1.000000 0.000000 0.000000
0.000000 0.108148 0.095865
0.098500 0.091625 0.080625
0.281650 0.075102 0.065385
0.464800 0.058579 0.050146
0.647950 0.042056 0.034906
0.831100 0.025533 0.019667
1.000000 0.009010 0.004427
1.000000 0.000000 0.000000
1.000000 0.000000 0.000000
0.000000 0.282819 0.080625
0.081175 0.266296 0.065385
0.264325 0.249773 0.050146
0.447475 0.233250 0.034906
0.630625 0.216727 0.019667
0.813775 0.200204 0.004427
0.996925 0.183681 0.000000
1.000000 0.167158 0.000000
1.000000 0.150635 0.000000
0.000000 0.457490 0.065385
0.063850 0.440967 0.050146
0.247000 0.424444 0.034906
0.430150 0.407921 0.019667
0.613300 0.391398 0.004427
0.796450 0.374875 0.000000
0.979600 0.358352 0.000000
1.000000 0.341829 0.000000
1.000000 0.325306 0.000000
0.000000 0.632160 0.050146
0.046525 0.615638 0.034906
0.229675 0.599115 0.019667
0.412825 0.582592 0.004427
0.595975 0.566069 0.000000
0.779125 0.549546 0.000000
0.962275 0.533023 0.000000
1.000000 0.516500 0.000000
1.000000 0.499977 0.000000
0.000000 0.806831 0.034906
0.029200 0.790308 0.019667
0.212350 0.773785 0.004427
0.395500 0.757263 0.000000
0.578650 0.740740 0.000000
0.761800 0.724217 0.000000
0.944950 0.707694 0.000000
1.000000 0.691171 0.000000
1.000000 0.674648 0.000000
0.000000 0.981502 0.019667
0.011875 0.964979 0.004427
0.195025 0.948456 0.000000
0.378175 0.931933 0.000000
0.561325 0.915410 0.000000
0.744475 0.898888 0.000000
0.927625 0.882365 0.000000
1.000000 0.865842 0.000000
1.000000 0.849319 0.000000
0.000000 1.000000 0.004427
0.000000 1.000000 0.000000
0.177700 1.000000 0.000000
0.360850 1.000000 0.000000
0.544000 1.000000 0.000000
0.727150 1.000000 0.000000
0.910300 1.000000 0.000000
1.000000 1.000000 0.000000
1.000000 1.000000 0.000000
0.000000 1.000000 0.000000
0.000000 1.000000 0.000000
0.160375 1.000000 0.000000
0.343525 1.000000 0.000000
0.526675 1.000000 0.000000
0.709825 1.000000 0.000000
0.892975 1.000000 0.000000
1.000000 1.000000 0.000000
1.000000 1.000000 0.000000
0.000000 0.000000 0.272208
0.098500 0.000000 0.256969
0.281650 0.000000 0.241729
0.464800 0.000000 0.226490
0.647950 0.000000 0.211250
0.831100 0.000000 0.196010
1.000000 0.000000 0.180771
1.000000 0.000000 0.165531
1.000000 0.000000 0.150292
0.000000 0.091625 0.256969
0.081175 0.075102 0.241729
0.264325 0.058579 0.226490
0.447475 0.042056 0.211250
0.630625 0.025533 0.196010
0.813775 0.009010 0.180771
0.996925 0.000000 0.165531
1.000000 0.000000 0.150292
1.000000 0.000000 0.135052
0.000000 0.266296 0.241729
0.063850 0.249773 0.226490
0.247000 0.233250 0.211250
0.430150 0.216727 0.196010
0.613300 0.200204 0.180771
0.796450 0.183681 0.165531
0.979600 0.167158 0.150292
1.000000 0.150635 0.135052
1.000000 0.134112 0.119812
0.000000 0.440967 0.226490
0.046525 0.424444 0.211250
0.229675 0.407921 0.196010
0.412825 0.391398 0.180771
0.595975 0.374875 0.165531
0.779125 0.358352 0.150292
0.962275 0.341829 0.135052
1.000000 0.325306 0.119812
1.000000 0.308783 0.104573
0.000000 0.615638 0.211250
0.029200 0.599115 0.196010
0.212350 0.582592 0.180771
0.395500 0.566069 0.165531
0.578650 0.549546 0.150292
0.761800 0.533023 0.135052
0.944950 0.516500 0.119812
1.000000 0.499977 0.104573
1.000000 0.483454 0.089333
0.000000 0.790308 0.196010
0.011875 0.773785 0.180771
0.195025 0.757263 0.165531
0.378175 0.740740 0.150292
0.561325 0.724217 0.135052
0.744475 0.707694 0.119812
0.927625 0.691171 0.104573
1.000000 0.674648 0.089333
1.000000 0.658125 0.074094
0.000000 0.964979 0.180771
0.000000 0.948456 0.165531
0.177700 0.931933 0.150292
0.360850 0.915410 0.135052
0.544000 0.898888 0.119812
0.727150 0.882365 0.104573
0.910300 0.865842 0.089333
1.000000 0.849319 0.074094
1.000000 0.832796 0.058854
0.000000 1.000000 0.165531
0.000000 1.000000 0.150292
0.160375 1.000000 0.135052
0.343525 1.000000 0.119812
0.526675 1.000000 0.104573
0.709825 1.000000 0.089333
0.892975 1.000000 0.074094
1.000000 1.000000 0.058854
1.000000 1.000000 0.043615
0.000000 1.000000 0.150292
0.000000 1.000000 0.135052
0.143050 1.000000 0.119812
0.326200 1.000000 0.104573
0.509350 1.000000 0.089333
0.692500 1.000000 0.074094
0.875650 1.000000 0.058854
1.000000 1.000000 0.043615
1.000000 1.000000 0.028375
0.000000 0.000000 0.433312
0.081175 0.000000 0.418073
0.264325 0.000000 0.402833
0.447475 0.000000 0.387594
0.630625 0.000000 0.372354
0.813775 0.000000 0.357115
0.996925 0.000000 0.341875
1.000000 0.000000 0.326635
1.000000 0.000000 0.311396
0.000000 0.075102 0.418073
0.063850 0.058579 0.402833
0.247000 0.042056 0.387594
0.430150 0.025533 0.372354
0.613300 0.009010 0.357115
0.796450 0.000000 0.341875
0.979600 0.000000 0.326635
1.000000 0.000000 0.311396
1.000000 0.000000 0.296156
0.000000 0.249773 0.402833
0.046525 0.233250 0.387594
0.229675 0.216727 0.372354
0.412825 0.200204 0.357115
0.595975 0.183681 0.341875
0.779125 0.167158 0.326635
0.962275 0.150635 0.311396
1.000000 0.134112 0.296156
1.000000 0.117590 0.280917
0.000000 0.424444 0.387594
0.029200 0.407921 0.372354
0.212350 0.391398 0.357115
0.395500 0.374875 0.341875
0.578650 0.358352 0.326635
0.761800 0.341829 0.311396
0.944950 0.325306 0.296156
1.000000 0.308783 0.280917
1.000000 0.292260 0.265677
0.000000 0.599115 0.372354
0.011875 0.582592 0.357115
0.195025 0.566069 0.341875
0.378175 0.549546 0.326635
0.561325 0.533023 0.311396
0.744475 0.516500 0.296156
0.927625 0.499977 0.280917
1.000000 0.483454 0.265677
1.000000 0.466931 0.250437
0.000000 0.773785 0.357115
0.000000 0.757263 0.341875
0.177700 0.740740 0.326635
0.360850 0.724217 0.311396
0.544000 0.707694 0.296156
0.727150 0.691171 0.280917
0.910300 0.674648 0.265677
1.000000 0.658125 0.250437
1.000000 0.641602 0.235198
0.000000 0.948456 0.341875
0.000000 0.931933 0.326635
0.160375 0.915410 0.311396
0.343525 0.898888 0.296156
0.526675 0.882365 0.280917
0.709825 0.865842 0.265677
0.892975 0.849319 0.250437
1.000000 0.832796 0.235198
1.000000 0.816273 0.219958
0.000000 1.000000 0.326635
0.000000 1.000000 0.311396
0.143050 1.000000 0.296156
0.326200 1.000000 0.280917
0.509350 1.000000 0.265677
0.692500 1.000000 0.250437
0.875650 1.000000 0.235198
1.000000 1.000000 0.219958
1.000000 0.990944 0.204719
0.000000 1.000000 0.311396
0.000000 1.000000 0.296156
0.125725 1.000000 0.280917
0.308875 1.000000 0.265677
0.492025 1.000000 0.250437
0.675175 1.000000 0.235198
0.858325 1.000000 0.219958
1.000000 1.000000 0.204719
1.000000 1.000000 0.189479
0.000000 0.000000 0.594417
0.063850 0.000000 0.579177
0.247000 0.000000 0.563937
0.430150 0.000000 0.548698
0.613300 0.000000 0.533458
0.796450 0.000000 0.518219
0.979600 0.000000 0.502979
1.000000 0.000000 0.487740
1.000000 0.000000 0.472500
0.000000 0.058579 0.579177
0.046525 0.042056 0.563937
0.229675 0.025533 0.548698
0.412825 0.009010 0.533458
0.595975 0.000000 0.518219
0.779125 0.000000 0.502979
0.962275 0.000000 0.487740
1.000000 0.000000 0.472500
1.000000 0.000000 0.457260
0.000000 0.233250 0.563937
0.029200 0.216727 0.548698
0.212350 0.200204 0.533458
0.395500 0.183681 0.518219
0.578650 0.167158 0.502979
0.761800 0.150635 0.487740
0.944950 0.134112 0.472500
1.000000 0.117590 0.457260
1.000000 0.101067 0.442021
0.000000 0.407921 0.548698
0.011875 0.391398 0.533458
0.195025 0.374875 0.518219
0.378175 0.358352 0.502979
0.561325 0.341829 0.487740
0.744475 0.325306 0.472500
0.927625 0.308783 0.457260
1.000000 0.292260 0.442021
1.000000 0.275737 0.426781
0.000000 0.582592 0.533458
0.000000 0.566069 0.518219
0.177700 0.549546 0.502979
0.360850 0.533023 0.487740
0.544000 0.516500 0.472500
0.727150 0.499977 0.457260
0.910300 0.483454 0.442021
1.000000 0.466931 0.426781
1.000000 0.450408 0.411542
0.000000 0.757263 0.518219
0.000000 0.740740 0.502979
0.160375 0.724217 0.487740
0.343525 0.707694 0.472500
0.526675 0.691171 0.457260
0.709825 0.674648 0.442021
0.892975 0.658125 0.426781
1.000000 0.641602 0.411542
1.000000 0.625079 0.396302
0.000000 0.931933 0.502979
0.000000 0.915410 0.487740
0.143050 0.898888 0.472500
0.326200 0.882365 0.457260
0.509350 0.865842 0.442021
0.692500 0.849319 0.426781
0.875650 0.832796 0.411542
1.000000 0.816273 0.396302
1.000000 0.799750 0.381062
0.000000 1.000000 0.487740
0.000000 1.000000 0.472500
0.125725 1.000000 0.457260
0.308875 1.000000 0.442021
0.492025 1.000000 0.426781
0.675175 1.000000 0.411542
0.858325 1.000000 0.396302
1.000000 0.990944 0.381062
1.000000 0.974421 0.365823
0.000000 1.000000 0.472500
0.000000 1.000000 0.457260
0.108400 1.000000 0.442021
0.291550 1.000000 0.426781
0.474700 1.000000 0.411542
0.657850 1.000000 0.396302
0.841000 1.000000 0.381062
1.000000 1.000000 0.365823
1.000000 1.000000 0.350583
0.000000 0.000000 0.755521
0.046525 0.000000 0.740281
0.229675 0.000000 0.725042
0.412825 0.000000 0.709802
0.595975 0.000000 0.694562
0.779125 0.000000 0.679323
0.962275 0.000000 0.664083
1.000000 0.000000 0.648844
1.000000 0.000000 0.633604
0.000000 0.042056 0.740281
0.029200 0.025533 0.725042
0.212350 0.009010 0.709802
0.395500 0.000000 0.694562
0.578650 0.000000 0.679323
0.761800 0.000000 0.664083
0.944950 0.000000 0.648844
1.000000 0.000000 0.633604
1.000000 0.000000 0.618365
0.000000 0.216727 0.725042
0.011875 0.200204 0.709802
0.195025 0.183681 0.694562
0.378175 0.167158 0.679323
0.561325 0.150635 0.664083
0.744475 0.134112 0.648844
0.927625 0.117590 0.633604
1.000000 0.101067 0.618365
1.000000 0.084544 0.603125
0.000000 0.391398 0.709802
0.000000 0.374875 0.694562
0.177700 0.358352 0.679323
0.360850 0.341829 0.664083
0.544000 0.325306 0.648844
0.727150 0.308783 0.633604
0.910300 0.292260 0.618365
1.000000 0.275737 0.603125
1.000000 0.259215 0.587885
0.000000 0.566069 0.694562
0.000000 0.549546 0.679323
0.160375 0.533023 0.664083
0.343525 0.516500 0.648844
0.526675 0.499977 0.633604
0.709825 0.483454 0.618365
0.892975 0.466931 0.603125
1.000000 0.450408 0.587885
1.000000 0.433885 0.572646
0.000000 0.740740 0.679323
0.000000 0.724217 0.664083
0.143050 0.707694 0.648844
0.326200 0.691171 0.633604
0.509350 0.674648 0.618365
0.692500 0.658125 0.603125
0.875650 0.641602 0.587885
1.000000 0.625079 0.572646
1.000000 0.608556 0.557406
0.000000 0.915410 0.664083
0.000000 0.898888 0.648844
0.125725 0.882365 0.633604
0.308875 0.865842 0.618365
0.492025 0.849319 0.603125
0.675175 0.832796 0.587885
0.858325 0.816273 0.572646
1.000000 0.799750 0.557406
1.000000 0.783227 0.542167
0.000000 1.000000 0.648844
0.000000 1.000000 0.633604
0.108400 1.000000 0.618365
0.291550 1.000000 0.603125
0.474700 1.000000 0.587885
0.657850 1.000000 0.572646
0.841000 0.990944 0.557406
1.000000 0.974421 0.542167
1.000000 0.957898 0.526927
0.000000 1.000000 0.633604
0.000000 1.000000 0.618365
0.091075 1.000000 0.603125
0.274225 1.000000 0.587885
0.457375 1.000000 0.572646
0.640525 1.000000 0.557406
0.823675 1.000000 0.542167
1.000000 1.000000 0.526927
1.000000 1.000000 0.511687
0.000000 0.000000 0.916625
0.029200 0.000000 0.901385
0.212350 0.000000 0.886146
0.395500 0.000000 0.870906
0.578650 0.000000 0.855667
0.761800 0.000000 0.840427
0.944950 0.000000 0.825188
1.000000 0.000000 0.809948
1.000000 0.000000 0.794708
0.000000 0.025533 0.901385
0.011875 0.009010 0.886146
0.195025 0.000000 0.870906
0.378175 0.000000 0.855667
0.561325 0.000000 0.840427
0.744475 0.000000 0.825188
0.927625 0.000000 0.809948
1.000000 0.000000 0.794708
1.000000 0.000000 0.779469
0.000000 0.200204 0.886146
0.000000 0.183681 0.870906
0.177700 0.167158 0.855667
0.360850 0.150635 0.840427
0.544000 0.134112 0.825188
0.727150 0.117590 0.809948
0.910300 0.101067 0.794708
1.000000 0.084544 0.779469
1.000000 0.068021 0.764229
0.000000 0.374875 0.870906
0.000000 0.358352 0.855667
0.160375 0.341829 0.840427
0.343525 0.325306 0.825188
0.526675 0.308783 0.809948
0.709825 0.292260 0.794708
0.892975 0.275737 0.779469
1.000000 0.259215 0.764229
1.000000 0.242692 0.748990
0.000000 0.549546 0.855667
0.000000 0.533023 0.840427
0.143050 0.516500 0.825188
0.326200 0.499977 0.809948
0.509350 0.483454 0.794708
0.692500 0.466931 0.779469
0.875650 0.450408 0.764229
1.000000 0.433885 0.748990
1.000000 0.417362 0.733750
0.000000 0.724217 0.840427
0.000000 0.707694 0.825188
0.125725 0.691171 0.809948
0.308875 0.674648 0.794708
0.492025 0.658125 0.779469
0.675175 0.641602 0.764229
0.858325 0.625079 0.748990
1.000000 0.608556 0.733750
1.000000 0.592033 0.718510
0.000000 0.898888 0.825188
0.000000 0.882365 0.809948
0.108400 0.865842 0.794708
0.291550 0.849319 0.779469
0.474700 0.832796 0.764229
0.657850 0.816273 0.748990
0.841000 0.799750 0.733750
1.000000 0.783227 0.718510
1.000000 0.766704 0.703271
0.000000 1.000000 0.809948
0.000000 1.000000 0.794708
0.091075 1.000000 0.779469
0.274225 1.000000 0.764229
0.457375 1.000000 0.748990
0.640525 0.990944 0.733750
0.823675 0.974421 0.718510
1.000000 0.957898 0.703271
1.000000 0.941375 0.688031
0.000000 1.000000 0.794708
0.000000 1.000000 0.779469
0.073750 1.000000 0.764229
0.256900 1.000000 0.748990
0.440050 1.000000 0.733750
0.623200 1.000000 0.718510
0.806350 1.000000 0.703271
0.989500 1.000000 0.688031
1.000000 1.000000 0.672792
0.000000 0.000000 1.000000
0.011875 0.000000 1.000000
0.195025 0.000000 1.000000
0.378175 0.000000 1.000000
0.561325 0.000000 1.000000
0.744475 0.000000 1.000000
0.927625 0.000000 0.986292
1.000000 0.000000 0.971052
1.000000 0.000000 0.955812
0.000000 0.009010 1.000000
0.000000 0.000000 1.000000
0.177700 0.000000 1.000000
0.360850 0.000000 1.000000
0.544000 0.000000 1.000000
0.727150 0.000000 0.986292
0.910300 0.000000 0.971052
1.000000 0.000000 0.955812
1.000000 0.000000 0.940573
0.000000 0.183681 1.000000
0.000000 0.167158 1.000000
0.160375 0.150635 1.000000
0.343525 0.134112 1.000000
0.526675 0.117590 0.986292
0.709825 0.101067 0.971052
0.892975 0.084544 0.955812
1.000000 0.068021 0.940573
1.000000 0.051498 0.925333
0.000000 0.358352 1.000000
0.000000 0.341829 1.000000
0.143050 0.325306 1.000000
0.326200 0.308783 0.986292
0.509350 0.292260 0.971052
0.692500 0.275737 0.955812
0.875650 0.259215 0.940573
1.000000 0.242692 0.925333
1.000000 0.226169 0.910094
0.000000 0.533023 1.000000
0.000000 0.516500 1.000000
0.125725 0.499977 0.986292
0.308875 0.483454 0.971052
0.492025 0.466931 0.955812
0.675175 0.450408 0.940573
0.858325 0.433885 0.925333
1.000000 0.417362 0.910094
1.000000 0.400840 0.894854
0.000000 0.707694 1.000000
0.000000 0.691171 0.986292
0.108400 0.674648 0.971052
0.291550 0.658125 0.955812
0.474700 0.641602 0.940573
0.657850 0.625079 0.925333
0.841000 0.608556 0.910094
1.000000 0.592033 0.894854
1.000000 0.575510 0.879615
0.000000 0.882365 0.986292
0.000000 0.865842 0.971052
0.091075 0.849319 0.955812
0.274225 0.832796 0.940573
0.457375 0.816273 0.925333
0.640525 0.799750 0.910094
0.823675 0.783227 0.894854
1.000000 0.766704 0.879615
1.000000 0.750181 0.864375
0.000000 1.000000 0.971052
0.000000 1.000000 0.955812
0.073750 1.000000 0.940573
0.256900 1.000000 0.925333
0.440050 0.990944 0.910094
0.623200 0.974421 0.894854
0.806350 0.957898 0.879615
0.989500 0.941375 0.864375
1.000000 0.924852 0.849135
0.000000 1.000000 0.955812
0.000000 1.000000 0.940573
0.056425 1.000000 0.925333
0.239575 1.000000 0.910094
0.422725 1.000000 0.894854
0.605875 1.000000 0.879615
0.789025 1.000000 0.864375
0.972175 1.000000 0.849135
1.000000 1.000000 0.833896
0.000000 0.000000 1.000000
0.000000 0.000000 1.000000
0.177700 0.000000 1.000000
0.360850 0.000000 1.000000
0.544000 0.000000 1.000000
0.727150 0.000000 1.000000
0.910300 0.000000 1.000000
1.000000 0.000000 1.000000
1.000000 0.000000 1.000000
0.000000 0.000000 1.000000
0.000000 0.000000 1.000000
0.160375 0.000000 1.000000
0.343525 0.000000 1.000000
0.526675 0.000000 1.000000
0.709825 0.000000 1.000000
0.892975 0.000000 1.000000
1.000000 0.000000 1.000000
1.000000 0.000000 1.000000
0.000000 0.167158 1.000000
0.000000 0.150635 1.000000
0.143050 0.134112 1.000000
0.326200 0.117590 1.000000
0.509350 0.101067 1.000000
0.692500 0.084544 1.000000
0.875650 0.068021 1.000000
1.000000 0.051498 1.000000
1.000000 0.034975 1.000000
0.000000 0.341829 1.000000
0.000000 0.325306 1.000000
0.125725 0.308783 1.000000
0.308875 0.292260 1.000000
0.492025 0.275737 1.000000
0.675175 0.259215 1.000000
0.858325 0.242692 1.000000
1.000000 0.226169 1.000000
1.000000 0.209646 1.000000
0.000000 0.516500 1.000000
0.000000 0.499977 1.000000
0.108400 0.483454 1.000000
0.291550 0.466931 1.000000
0.474700 0.450408 1.000000
0.657850 0.433885 1.000000
0.841000 0.417362 1.000000
1.000000 0.400840 1.000000
1.000000 0.384317 1.000000
0.000000 0.691171 1.000000
0.000000 0.674648 1.000000
0.091075 0.658125 1.000000
0.274225 0.641602 1.000000
0.457375 0.625079 1.000000
0.640525 0.608556 1.000000
0.823675 0.592033 1.000000
1.000000 0.575510 1.000000
1.000000 0.558988 1.000000
0.000000 0.865842 1.000000
0.000000 0.849319 1.000000
0.073750 0.832796 1.000000
0.256900 0.816273 1.000000
0.440050 0.799750 1.000000
0.623200 0.783227 1.000000
0.806350 0.766704 1.000000
0.989500 0.750181 1.000000
1.000000 0.733658 1.000000
0.000000 1.000000 1.000000
0.000000 1.000000 1.000000
0.056425 1.000000 1.000000
0.239575 0.990944 1.000000
0.422725 0.974421 1.000000
0.605875 0.957898 1.000000
0.789025 0.941375 1.000000
0.972175 0.924852 1.000000
1.000000 0.908329 1.000000
0.000000 1.000000 1.000000
0.000000 1.000000 1.000000
0.039100 1.000000 1.000000
0.222250 1.000000 1.000000
0.405400 1.000000 1.000000
0.588550 1.000000 1.000000
0.771700 1.000000 1.000000
0.954850 1.000000 1.000000
1.000000 1.000000 0.995000
