frontend/client/public/luts/cultural/indian_wedding_rich.cube
TITLE "Indian Wedding Rich Colors"
LUT_3D_SIZE 17
0.000000 0.000000 0.000000
0.041575 0.000000 0.000000
0.133150 0.000000 0.000000
0.224725 0.000000 0.000000
0.316300 0.000000 0.000000
0.407875 0.000000 0.000000
0.499450 0.000000 0.000000
0.591025 0.000000 0.000000
0.682600 0.000000 0.000000
0.774175 0.000000 0.000000
0.865750 0.000000 0.000000
0.957325 0.000000 0.000000
1.000000 0.000000 0.000000
1.000000 0.000000 0.000000
1.000000 0.000000 0.000000
1.000000 0.000000 0.000000
1.000000 0.000000 0.000000
0.000000 0.037335 0.000000
0.032913 0.029074 0.000000
0.124487 0.020812 0.000000
0.216063 0.012551 0.000000
0.307638 0.004290 0.000000
0.399213 0.000000 0.000000
0.490788 0.000000 0.000000
0.582363 0.000000 0.000000
0.673938 0.000000 0.000000
0.765513 0.000000 0.000000
0.857088 0.000000 0.000000
0.948663 0.000000 0.000000
1.000000 0.000000 0.000000
1.000000 0.000000 0.000000
1.000000 0.000000 0.000000
1.000000 0.000000 0.000000
1.000000 0.000000 0.000000
0.000000 0.124671 0.000000
0.024250 0.116409 0.000000
0.115825 0.108148 0.000000
0.207400 0.099886 0.000000
0.298975 0.091625 0.000000
0.390550 0.083364 0.000000
0.482125 0.075102 0.000000
0.573700 0.066841 0.000000
0.665275 0.058579 0.000000
0.756850 0.050318 0.000000
0.848425 0.042056 0.000000
0.940000 0.033795 0.000000
1.000000 0.025533 0.000000
1.000000 0.017272 0.000000
1.000000 0.009010 0.000000
1.000000 0.000749 0.000000
1.000000 0.000000 0.000000
0.000000 0.212006 0.000000
0.015587 0.203745 0.000000
0.107162 0.195483 0.000000
0.198738 0.187222 0.000000
0.290313 0.178960 0.000000
0.381887 0.170699 0.000000
0.473463 0.162437 0.000000
0.565037 0.154176 0.000000
0.656613 0.145915 0.000000
0.748188 0.137653 0.000000
0.839763 0.129392 0.000000
0.931338 0.121130 0.000000
1.000000 0.112869 0.000000
1.000000 0.104607 0.000000
1.000000 0.096346 0.000000
1.000000 0.088084 0.000000
1.000000 0.079823 0.000000
0.000000 0.299342 0.000000
0.006925 0.291080 0.000000
0.098500 0.282819 0.000000
0.190075 0.274557 0.000000
0.281650 0.266296 0.000000
0.373225 0.258034 0.000000
0.464800 0.249773 0.000000
0.556375 0.241511 0.000000
0.647950 0.233250 0.000000
0.739525 0.224989 0.000000
0.831100 0.216727 0.000000
0.922675 0.208466 0.000000
1.000000 0.200204 0.000000
1.000000 0.191943 0.000000
1.000000 0.183681 0.000000
1.000000 0.175420 0.000000
1.000000 0.167158 0.000000
0.000000 0.386677 0.000000
0.000000 0.378416 0.000000
0.089838 0.370154 0.000000
0.181412 0.361893 0.000000
0.272987 0.353631 0.000000
0.364563 0.345370 0.000000
0.456137 0.337108 0.000000
0.547713 0.328847 0.000000
0.639288 0.320585 0.000000
0.730863 0.312324 0.000000
0.822438 0.304063 0.000000
0.914013 0.295801 0.000000
1.000000 0.287540 0.000000
1.000000 0.279278 0.000000
1.000000 0.271017 0.000000
1.000000 0.262755 0.000000
1.000000 0.254494 0.000000
0.000000 0.474013 0.000000
0.000000 0.465751 0.000000
0.081175 0.457490 0.000000
0.172750 0.449228 0.000000
0.264325 0.440967 0.000000
0.355900 0.432705 0.000000
0.447475 0.424444 0.000000
0.539050 0.416182 0.000000
0.630625 0.407921 0.000000
0.722200 0.399659 0.000000
0.813775 0.391398 0.000000
0.905350 0.383136 0.000000
0.996925 0.374875 0.000000
1.000000 0.366614 0.000000
1.000000 0.358352 0.000000
1.000000 0.350091 0.000000
1.000000 0.341829 0.000000
0.000000 0.561348 0.000000
0.000000 0.553086 0.000000
0.072512 0.544825 0.000000
0.164088 0.536564 0.000000
0.255663 0.528302 0.000000
0.347237 0.520041 0.000000
0.438813 0.511779 0.000000
0.530388 0.503518 0.000000
0.621963 0.495256 0.000000
0.713538 0.486995 0.000000
0.805113 0.478733 0.000000
0.896688 0.470472 0.000000
0.988263 0.462210 0.000000
1.000000 0.453949 0.000000
1.000000 0.445688 0.000000
1.000000 0.437426 0.000000
1.000000 0.429165 0.000000
0.000000 0.648683 0.000000
0.000000 0.640422 0.000000
0.063850 0.632160 0.000000
0.155425 0.623899 0.000000
0.247000 0.615638 0.000000
0.338575 0.607376 0.000000
0.430150 0.599115 0.000000
0.521725 0.590853 0.000000
0.613300 0.582592 0.000000
0.704875 0.574330 0.000000
0.796450 0.566069 0.000000
0.888025 0.557807 0.000000
0.979600 0.549546 0.000000
1.000000 0.541284 0.000000
1.000000 0.533023 0.000000
1.000000 0.524761 0.000000
1.000000 0.516500 0.000000
0.000000 0.736019 0.000000
0.000000 0.727757 0.000000
0.055188 0.719496 0.000000
0.146762 0.711234 0.000000
0.238337 0.702973 0.000000
0.329912 0.694711 0.000000
0.421487 0.686450 0.000000
0.513063 0.678189 0.000000
0.604638 0.669927 0.000000
0.696213 0.661666 0.000000
0.787788 0.653404 0.000000
0.879363 0.645143 0.000000
0.970938 0.636881 0.000000
1.000000 0.628620 0.000000
1.000000 0.620358 0.000000
1.000000 0.612097 0.000000
1.000000 0.603835 0.000000
0.000000 0.823354 0.000000
0.000000 0.815093 0.000000
0.046525 0.806831 0.000000
0.138100 0.798570 0.000000
0.229675 0.790308 0.000000
0.321250 0.782047 0.000000
0.412825 0.773785 0.000000
0.504400 0.765524 0.000000
0.595975 0.757263 0.000000
0.687550 0.749001 0.000000
0.779125 0.740740 0.000000
0.870700 0.732478 0.000000
0.962275 0.724217 0.000000
1.000000 0.715955 0.000000
1.000000 0.707694 0.000000
1.000000 0.699432 0.000000
1.000000 0.691171 0.000000
0.000000 0.910690 0.000000
0.000000 0.902428 0.000000
0.037862 0.894167 0.000000
0.129437 0.885905 0.000000
0.221013 0.877644 0.000000
0.312588 0.869382 0.000000
0.404162 0.861121 0.000000
0.495737 0.852859 0.000000
0.587313 0.844598 0.000000
0.678888 0.836336 0.000000
0.770463 0.828075 0.000000
0.862038 0.819814 0.000000
0.953613 0.811552 0.000000
1.000000 0.803291 0.000000
1.000000 0.795029 0.000000
1.000000 0.786768 0.000000
1.000000 0.778506 0.000000
0.000000 0.998025 0.000000
0.000000 0.989764 0.000000
0.029200 0.981502 0.000000
0.120775 0.973241 0.000000
0.212350 0.964979 0.000000
0.303925 0.956718 0.000000
0.395500 0.948456 0.000000
0.487075 0.940195 0.000000
0.578650 0.931933 0.000000
0.670225 0.923672 0.000000
0.761800 0.915410 0.000000
0.853375 0.907149 0.000000
0.944950 0.898888 0.000000
1.000000 0.890626 0.000000
1.000000 0.882365 0.000000
1.000000 0.874103 0.000000
1.000000 0.865842 0.000000
0.000000 1.000000 0.000000
0.000000 1.000000 0.000000
0.020537 1.000000 0.000000
0.112113 1.000000 0.000000
0.203687 1.000000 0.000000
0.295263 1.000000 0.000000
0.386838 1.000000 0.000000
0.478413 1.000000 0.000000
0.569988 1.000000 0.000000
0.661563 1.000000 0.000000
0.753138 1.000000 0.000000
0.844713 0.994484 0.000000
0.936288 0.986223 0.000000
1.000000 0.977961 0.000000
1.000000 0.969700 0.000000
1.000000 0.961439 0.000000
1.000000 0.953177 0.000000
0.000000 1.000000 0.000000
0.000000 1.000000 0.000000
0.011875 1.000000 0.000000
0.103450 1.000000 0.000000
0.195025 1.000000 0.000000
0.286600 1.000000 0.000000
0.378175 1.000000 0.000000
0.469750 1.000000 0.000000
0.561325 1.000000 0.000000
0.652900 1.000000 0.000000
0.744475 1.000000 0.000000
0.836050 1.000000 0.000000
0.927625 1.000000 0.000000
1.000000 1.000000 0.000000
1.000000 1.000000 0.000000
1.000000 1.000000 0.000000
1.000000 1.000000 0.000000
0.000000 1.000000 0.000000
0.000000 1.000000 0.000000
0.003212 1.000000 0.000000
0.094787 1.000000 0.000000
0.186363 1.000000 0.000000
0.277937 1.000000 0.000000
0.369513 1.000000 0.000000
0.461088 1.000000 0.000000
0.552663 1.000000 0.000000
0.644238 1.000000 0.000000
0.735813 1.000000 0.000000
0.827388 1.000000 0.000000
0.918963 1.000000 0.000000
1.000000 1.000000 0.000000
1.000000 1.000000 0.000000
1.000000 1.000000 0.000000
1.000000 1.000000 0.000000
0.000000 1.000000 0.000000
0.000000 1.000000 0.000000
0.000000 1.000000 0.000000
0.086125 1.000000 0.000000
0.177700 1.000000 0.000000
0.269275 1.000000 0.000000
0.360850 1.000000 0.000000
0.452425 1.000000 0.000000
0.544000 1.000000 0.000000
0.635575 1.000000 0.000000
0.727150 1.000000 0.000000
0.818725 1.000000 0.000000
0.910300 1.000000 0.000000
1.000000 1.000000 0.000000
1.000000 1.000000 0.000000
1.000000 1.000000 0.000000
1.000000 1.000000 0.000000
0.000000 0.000000 0.030552
0.032913 0.000000 0.022932
0.124487 0.000000 0.015312
0.216063 0.000000 0.007693
0.307638 0.000000 0.000073
0.399213 0.000000 0.000000
0.490788 0.000000 0.000000
0.582363 0.000000 0.000000
0.673938 0.000000 0.000000
0.765513 0.000000 0.000000
0.857088 0.000000 0.000000
0.948663 0.000000 0.000000
1.000000 0.000000 0.000000
1.000000 0.000000 0.000000
1.000000 0.000000 0.000000
1.000000 0.000000 0.000000
1.000000 0.000000 0.000000
0.000000 0.029074 0.022932
0.024250 0.020812 0.015312
0.115825 0.012551 0.007693
0.207400 0.004290 0.000073
0.298975 0.000000 0.000000
0.390550 0.000000 0.000000
0.482125 0.000000 0.000000
0.573700 0.000000 0.000000
0.665275 0.000000 0.000000
0.756850 0.000000 0.000000
0.848425 0.000000 0.000000
0.940000 0.000000 0.000000
1.000000 0.000000 0.000000
1.000000 0.000000 0.000000
1.000000 0.000000 0.000000
1.000000 0.000000 0.000000
1.000000 0.000000 0.000000
0.000000 0.116409 0.015312
0.015587 0.108148 0.007693
0.107162 0.099886 0.000073
0.198738 0.091625 0.000000
0.290313 0.083364 0.000000
0.381887 0.075102 0.000000
0.473463 0.066841 0.000000
0.565037 0.058579 0.000000
0.656613 0.050318 0.000000
0.748188 0.042056 0.000000
0.839763 0.033795 0.000000
0.931338 0.025533 0.000000
1.000000 0.017272 0.000000
1.000000 0.009010 0.000000
1.000000 0.000749 0.000000
1.000000 0.000000 0.000000
1.000000 0.000000 0.000000
0.000000 0.203745 0.007693
0.006925 0.195483 0.000073
0.098500 0.187222 0.000000
0.190075 0.178960 0.000000
0.281650 0.170699 0.000000
0.373225 0.162437 0.000000
0.464800 0.154176 0.000000
0.556375 0.145915 0.000000
0.647950 0.137653 0.000000
0.739525 0.129392 0.000000
0.831100 0.121130 0.000000
0.922675 0.112869 0.000000
1.000000 0.104607 0.000000
1.000000 0.096346 0.000000
1.000000 0.088084 0.000000
1.000000 0.079823 0.000000
1.000000 0.071561 0.000000
0.000000 0.291080 0.000073
0.000000 0.282819 0.000000
0.089838 0.274557 0.000000
0.181412 0.266296 0.000000
0.272987 0.258034 0.000000
0.364563 0.249773 0.000000
0.456137 0.241511 0.000000
0.547713 0.233250 0.000000
0.639288 0.224989 0.000000
0.730863 0.216727 0.000000
0.822438 0.208466 0.000000
0.914013 0.200204 0.000000
1.000000 0.191943 0.000000
1.000000 0.183681 0.000000
1.000000 0.175420 0.000000
1.000000 0.167158 0.000000
1.000000 0.158897 0.000000
0.000000 0.378416 0.000000
0.000000 0.370154 0.000000
0.081175 0.361893 0.000000
0.172750 0.353631 0.000000
0.264325 0.345370 0.000000
0.355900 0.337108 0.000000
0.447475 0.328847 0.000000
0.539050 0.320585 0.000000
0.630625 0.312324 0.000000
0.722200 0.304063 0.000000
0.813775 0.295801 0.000000
0.905350 0.287540 0.000000
0.996925 0.279278 0.000000
1.000000 0.271017 0.000000
1.000000 0.262755 0.000000
1.000000 0.254494 0.000000
1.000000 0.246232 0.000000
0.000000 0.465751 0.000000
0.000000 0.457490 0.000000
0.072512 0.449228 0.000000
0.164088 0.440967 0.000000
0.255663 0.432705 0.000000
0.347237 0.424444 0.000000
0.438813 0.416182 0.000000
0.530388 0.407921 0.000000
0.621963 0.399659 0.000000
0.713538 0.391398 0.000000
0.805113 0.383136 0.000000
0.896688 0.374875 0.000000
0.988263 0.366614 0.000000
1.000000 0.358352 0.000000
1.000000 0.350091 0.000000
1.000000 0.341829 0.000000
1.000000 0.333568 0.000000
0.000000 0.553086 0.000000
0.000000 0.544825 0.000000
0.063850 0.536564 0.000000
0.155425 0.528302 0.000000
0.247000 0.520041 0.000000
0.338575 0.511779 0.000000
0.430150 0.503518 0.000000
0.521725 0.495256 0.000000
0.613300 0.486995 0.000000
0.704875 0.478733 0.000000
0.796450 0.470472 0.000000
0.888025 0.462210 0.000000
0.979600 0.453949 0.000000
1.000000 0.445688 0.000000
1.000000 0.437426 0.000000
1.000000 0.429165 0.000000
1.000000 0.420903 0.000000
0.000000 0.640422 0.000000
0.000000 0.632160 0.000000
0.055188 0.623899 0.000000
0.146762 0.615638 0.000000
0.238337 0.607376 0.000000
0.329912 0.599115 0.000000
0.421487 0.590853 0.000000
0.513063 0.582592 0.000000
0.604638 0.574330 0.000000
0.696213 0.566069 0.000000
0.787788 0.557807 0.000000
0.879363 0.549546 0.000000
0.970938 0.541284 0.000000
1.000000 0.533023 0.000000
1.000000 0.524761 0.000000
1.000000 0.516500 0.000000
1.000000 0.508239 0.000000
0.000000 0.727757 0.000000
0.000000 0.719496 0.000000
0.046525 0.711234 0.000000
0.138100 0.702973 0.000000
0.229675 0.694711 0.000000
0.321250 0.686450 0.000000
0.412825 0.678189 0.000000
0.504400 0.669927 0.000000
0.595975 0.661666 0.000000
0.687550 0.653404 0.000000
0.779125 0.645143 0.000000
0.870700 0.636881 0.000000
0.962275 0.628620 0.000000
1.000000 0.620358 0.000000
1.000000 0.612097 0.000000
1.000000 0.603835 0.000000
1.000000 0.595574 0.000000
0.000000 0.815093 0.000000
0.000000 0.806831 0.000000
0.037862 0.798570 0.000000
0.129437 0.790308 0.000000
0.221013 0.782047 0.000000
0.312588 0.773785 0.000000
0.404162 0.765524 0.000000
0.495737 0.757263 0.000000
0.587313 0.749001 0.000000
0.678888 0.740740 0.000000
0.770463 0.732478 0.000000
0.862038 0.724217 0.000000
0.953613 0.715955 0.000000
1.000000 0.707694 0.000000
1.000000 0.699432 0.000000
1.000000 0.691171 0.000000
1.000000 0.682909 0.000000
0.000000 0.902428 0.000000
0.000000 0.894167 0.000000
0.029200 0.885905 0.000000
0.120775 0.877644 0.000000
0.212350 0.869382 0.000000
0.303925 0.861121 0.000000
0.395500 0.852859 0.000000
0.487075 0.844598 0.000000
0.578650 0.836336 0.000000
0.670225 0.828075 0.000000
0.761800 0.819814 0.000000
0.853375 0.811552 0.000000
0.944950 0.803291 0.000000
1.000000 0.795029 0.000000
1.000000 0.786768 0.000000
1.000000 0.778506 0.000000
1.000000 0.770245 0.000000
0.000000 0.989764 0.000000
0.000000 0.981502 0.000000
0.020537 0.973241 0.000000
0.112113 0.964979 0.000000
0.203687 0.956718 0.000000
0.295263 0.948456 0.000000
0.386838 0.940195 0.000000
0.478413 0.931933 0.000000
0.569988 0.923672 0.000000
0.661563 0.915410 0.000000
0.753138 0.907149 0.000000
0.844713 0.898888 0.000000
0.936288 0.890626 0.000000
1.000000 0.882365 0.000000
1.000000 0.874103 0.000000
1.000000 0.865842 0.000000
1.000000 0.857580 0.000000
0.000000 1.000000 0.000000
0.000000 1.000000 0.000000
0.011875 1.000000 0.000000
0.103450 1.000000 0.000000
0.195025 1.000000 0.000000
0.286600 1.000000 0.000000
0.378175 1.000000 0.000000
0.469750 1.000000 0.000000
0.561325 1.000000 0.000000
0.652900 1.000000 0.000000
0.744475 0.994484 0.000000
0.836050 0.986223 0.000000
0.927625 0.977961 0.000000
1.000000 0.969700 0.000000
1.000000 0.961439 0.000000
1.000000 0.953177 0.000000
1.000000 0.944916 0.000000
0.000000 1.000000 0.000000
0.000000 1.000000 0.000000
0.003212 1.000000 0.000000
0.094787 1.000000 0.000000
0.186363 1.000000 0.000000
0.277937 1.000000 0.000000
0.369513 1.000000 0.000000
0.461088 1.000000 0.000000
0.552663 1.000000 0.000000
0.644238 1.000000 0.000000
0.735813 1.000000 0.000000
0.827388 1.000000 0.000000
0.918963 1.000000 0.000000
1.000000 1.000000 0.000000
1.000000 1.000000 0.000000
1.000000 1.000000 0.000000
1.000000 1.000000 0.000000
0.000000 1.000000 0.000000
0.000000 1.000000 0.000000
0.000000 1.000000 0.000000
0.086125 1.000000 0.000000
0.177700 1.000000 0.000000
0.269275 1.000000 0.000000
0.360850 1.000000 0.000000
0.452425 1.000000 0.000000
0.544000 1.000000 0.000000
0.635575 1.000000 0.000000
0.727150 1.000000 0.000000
0.818725 1.000000 0.000000
0.910300 1.000000 0.000000
1.000000 1.000000 0.000000
1.000000 1.000000 0.000000
1.000000 1.000000 0.000000
1.000000 1.000000 0.000000
0.000000 1.000000 0.000000
0.000000 1.000000 0.000000
0.000000 1.000000 0.000000
0.077462 1.000000 0.000000
0.169037 1.000000 0.000000
0.260613 1.000000 0.000000
0.352187 1.000000 0.000000
0.443763 1.000000 0.000000
0.535337 1.000000 0.000000
0.626913 1.000000 0.000000
0.718488 1.000000 0.000000
0.810063 1.000000 0.000000
0.901638 1.000000 0.000000
0.993213 1.000000 0.000000
1.000000 1.000000 0.000000
1.000000 1.000000 0.000000
1.000000 1.000000 0.000000
0.000000 0.000000 0.111104
0.024250 0.000000 0.103484
0.115825 0.000000 0.095865
0.207400 0.000000 0.088245
0.298975 0.000000 0.080625
0.390550 0.000000 0.073005
0.482125 0.000000 0.065385
0.573700 0.000000 0.057766
0.665275 0.000000 0.050146
0.756850 0.000000 0.042526
0.848425 0.000000 0.034906
0.940000 0.000000 0.027286
1.000000 0.000000 0.019667
1.000000 0.000000 0.012047
1.000000 0.000000 0.004427
1.000000 0.000000 0.000000
1.000000 0.000000 0.000000
0.000000 0.020812 0.103484
0.015587 0.012551 0.095865
0.107162 0.004290 0.088245
0.198738 0.000000 0.080625
0.290313 0.000000 0.073005
0.381887 0.000000 0.065385
0.473463 0.000000 0.057766
0.565037 0.000000 0.050146
0.656613 0.000000 0.042526
0.748188 0.000000 0.034906
0.839763 0.000000 0.027286
0.931338 0.000000 0.019667
1.000000 0.000000 0.012047
1.000000 0.000000 0.004427
1.000000 0.000000 0.000000
1.000000 0.000000 0.000000
1.000000 0.000000 0.000000
0.000000 0.108148 0.095865
0.006925 0.099886 0.088245
0.098500 0.091625 0.080625
0.190075 0.083364 0.073005
0.281650 0.075102 0.065385
0.373225 0.066841 0.057766
0.464800 0.058579 0.050146
0.556375 0.050318 0.042526
0.647950 0.042056 0.034906
0.739525 0.033795 0.027286
0.831100 0.025533 0.019667
0.922675 0.017272 0.012047
1.000000 0.009010 0.004427
1.000000 0.000749 0.000000
1.000000 0.000000 0.000000
1.000000 0.000000 0.000000
1.000000 0.000000 0.000000
0.000000 0.195483 0.088245
0.000000 0.187222 0.080625
0.089838 0.178960 0.073005
0.181412 0.170699 0.065385
0.272987 0.162437 0.057766
0.364563 0.154176 0.050146
0.456137 0.145915 0.042526
0.547713 0.137653 0.034906
0.639288 0.129392 0.027286
0.730863 0.121130 0.019667
0.822438 0.112869 0.012047
0.914013 0.104607 0.004427
1.000000 0.096346 0.000000
1.000000 0.088084 0.000000
1.000000 0.079823 0.000000
1.000000 0.071561 0.000000
1.000000 0.063300 0.000000
0.000000 0.282819 0.080625
0.000000 0.274557 0.073005
0.081175 0.266296 0.065385
0.172750 0.258034 0.057766
0.264325 0.249773 0.050146
0.355900 0.241511 0.042526
0.447475 0.233250 0.034906
0.539050 0.224989 0.027286
0.630625 0.216727 0.019667
0.722200 0.208466 0.012047
0.813775 0.200204 0.004427
0.905350 0.191943 0.000000
0.996925 0.183681 0.000000
1.000000 0.175420 0.000000
1.000000 0.167158 0.000000
1.000000 0.158897 0.000000
1.000000 0.150635 0.000000
0.000000 0.370154 0.073005
0.000000 0.361893 0.065385
0.072512 0.353631 0.057766
0.164088 0.345370 0.050146
0.255663 0.337108 0.042526
0.347237 0.328847 0.034906
0.438813 0.320585 0.027286
0.530388 0.312324 0.019667
0.621963 0.304063 0.012047
0.713538 0.295801 0.004427
0.805113 0.287540 0.000000
0.896688 0.279278 0.000000
0.988263 0.271017 0.000000
1.000000 0.262755 0.000000
1.000000 0.254494 0.000000
1.000000 0.246232 0.000000
1.000000 0.237971 0.000000
0.000000 0.457490 0.065385
0.000000 0.449228 0.057766
0.063850 0.440967 0.050146
0.155425 0.432705 0.042526
0.247000 0.424444 0.034906
0.338575 0.416182 0.027286
0.430150 0.407921 0.019667
0.521725 0.399659 0.012047
0.613300 0.391398 0.004427
0.704875 0.383136 0.000000
0.796450 0.374875 0.000000
0.888025 0.366614 0.000000
0.979600 0.358352 0.000000
1.000000 0.350091 0.000000
1.000000 0.341829 0.000000
1.000000 0.333568 0.000000
1.000000 0.325306 0.000000
0.000000 0.544825 0.057766
0.000000 0.536564 0.050146
0.055188 0.528302 0.042526
0.146762 0.520041 0.034906
0.238337 0.511779 0.027286
0.329912 0.503518 0.019667
0.421487 0.495256 0.012047
0.513063 0.486995 0.004427
0.604638 0.478733 0.000000
0.696213 0.470472 0.000000
0.787788 0.462210 0.000000
0.879363 0.453949 0.000000
0.970938 0.445688 0.000000
1.000000 0.437426 0.000000
1.000000 0.429165 0.000000
1.000000 0.420903 0.000000
1.000000 0.412642 0.000000
0.000000 0.632160 0.050146
0.000000 0.623899 0.042526
0.046525 0.615638 0.034906
0.138100 0.607376 0.027286
0.229675 0.599115 0.019667
0.321250 0.590853 0.012047
0.412825 0.582592 0.004427
0.504400 0.574330 0.000000
0.595975 0.566069 0.000000
0.687550 0.557807 0.000000
0.779125 0.549546 0.000000
0.870700 0.541284 0.000000
0.962275 0.533023 0.000000
1.000000 0.524761 0.000000
1.000000 0.516500 0.000000
1.000000 0.508239 0.000000
1.000000 0.499977 0.000000
0.000000 0.719496 0.042526
0.000000 0.711234 0.034906
0.037862 0.702973 0.027286
0.129437 0.694711 0.019667
0.221013 0.686450 0.012047
0.312588 0.678189 0.004427
0.404162 0.669927 0.000000
0.495737 0.661666 0.000000
0.587313 0.653404 0.000000
0.678888 0.645143 0.000000
0.770463 0.636881 0.000000
0.862038 0.628620 0.000000
0.953613 0.620358 0.000000
1.000000 0.612097 0.000000
1.000000 0.603835 0.000000
1.000000 0.595574 0.000000
1.000000 0.587313 0.000000
0.000000 0.806831 0.034906
0.000000 0.798570 0.027286
0.029200 0.790308 0.019667
0.120775 0.782047 0.012047
0.212350 0.773785 0.004427
0.303925 0.765524 0.000000
0.395500 0.757263 0.000000
0.487075 0.749001 0.000000
0.578650 0.740740 0.000000
0.670225 0.732478 0.000000
0.761800 0.724217 0.000000
0.853375 0.715955 0.000000
0.944950 0.707694 0.000000
1.000000 0.699432 0.000000
1.000000 0.691171 0.000000
1.000000 0.682909 0.000000
1.000000 0.674648 0.000000
0.000000 0.894167 0.027286
0.000000 0.885905 0.019667
0.020537 0.877644 0.012047
0.112113 0.869382 0.004427
0.203687 0.861121 0.000000
0.295263 0.852859 0.000000
0.386838 0.844598 0.000000
0.478413 0.836336 0.000000
0.569988 0.828075 0.000000
0.661563 0.819814 0.000000
0.753138 0.811552 0.000000
0.844713 0.803291 0.000000
0.936288 0.795029 0.000000
1.000000 0.786768 0.000000
1.000000 0.778506 0.000000
1.000000 0.770245 0.000000
1.000000 0.761983 0.000000
0.000000 0.981502 0.019667
0.000000 0.973241 0.012047
0.011875 0.964979 0.004427
0.103450 0.956718 0.000000
0.195025 0.948456 0.000000
0.286600 0.940195 0.000000
0.378175 0.931933 0.000000
0.469750 0.923672 0.000000
0.561325 0.915410 0.000000
0.652900 0.907149 0.000000
0.744475 0.898888 0.000000
0.836050 0.890626 0.000000
0.927625 0.882365 0.000000
1.000000 0.874103 0.000000
1.000000 0.865842 0.000000
1.000000 0.857580 0.000000
1.000000 0.849319 0.000000
0.000000 1.000000 0.012047
0.000000 1.000000 0.004427
0.003212 1.000000 0.000000
0.094787 1.000000 0.000000
0.186363 1.000000 0.000000
0.277937 1.000000 0.000000
0.369513 1.000000 0.000000
0.461088 1.000000 0.000000
0.552663 1.000000 0.000000
0.644238 0.994484 0.000000
0.735813 0.986223 0.000000
0.827388 0.977961 0.000000
0.918963 0.969700 0.000000
1.000000 0.961439 0.000000
1.000000 0.953177 0.000000
1.000000 0.944916 0.000000
1.000000 0.936654 0.000000
0.000000 1.000000 0.004427
0.000000 1.000000 0.000000
0.000000 1.000000 0.000000
0.086125 1.000000 0.000000
0.177700 1.000000 0.000000
0.269275 1.000000 0.000000
0.360850 1.000000 0.000000
0.452425 1.000000 0.000000
0.544000 1.000000 0.000000
0.635575 1.000000 0.000000
0.727150 1.000000 0.000000
0.818725 1.000000 0.000000
0.910300 1.000000 0.000000
1.000000 1.000000 0.000000
1.000000 1.000000 0.000000
1.000000 1.000000 0.000000
1.000000 1.000000 0.000000
0.000000 1.000000 0.000000
0.000000 1.000000 0.000000
0.000000 1.000000 0.000000
0.077462 1.000000 0.000000
0.169037 1.000000 0.000000
0.260613 1.000000 0.000000
0.352187 1.000000 0.000000
0.443763 1.000000 0.000000
0.535337 1.000000 0.000000
0.626913 1.000000 0.000000
0.718488 1.000000 0.000000
0.810063 1.000000 0.000000
0.901638 1.000000 0.000000
0.993213 1.000000 0.000000
1.000000 1.000000 0.000000
1.000000 1.000000 0.000000
1.000000 1.000000 0.000000
0.000000 1.000000 0.000000
0.000000 1.000000 0.000000
0.000000 1.000000 0.000000
0.068800 1.000000 0.000000
0.160375 1.000000 0.000000
0.251950 1.000000 0.000000
0.343525 1.000000 0.000000
0.435100 1.000000 0.000000
0.526675 1.000000 0.000000
0.618250 1.000000 0.000000
0.709825 1.000000 0.000000
0.801400 1.000000 0.000000
0.892975 1.000000 0.000000
0.984550 1.000000 0.000000
1.000000 1.000000 0.000000
1.000000 1.000000 0.000000
1.000000 1.000000 0.000000
0.000000 0.000000 0.191656
0.015587 0.000000 0.184036
0.107162 0.000000 0.176417
0.198738 0.000000 0.168797
0.290313 0.000000 0.161177
0.381887 0.000000 0.153557
0.473463 0.000000 0.145937
0.565037 0.000000 0.138318
0.656613 0.000000 0.130698
0.748188 0.000000 0.123078
0.839763 0.000000 0.115458
0.931338 0.000000 0.107839
1.000000 0.000000 0.100219
1.000000 0.000000 0.092599
1.000000 0.000000 0.084979
1.000000 0.000000 0.077359
1.000000 0.000000 0.069740
0.000000 0.012551 0.184036
0.006925 0.004290 0.176417
0.098500 0.000000 0.168797
