frontend/client/public/luts/cultural/indian_wedding_rich.cube
TITLE "Indian Wedding Rich Colors"
LUT_3D_SIZE 5
0.000000 0.000000 0.000000
0.316300 0.000000 0.000000
0.682600 0.000000 0.000000
1.000000 0.000000 0.000000
1.000000 0.000000 0.000000
0.000000 0.299342 0.000000
0.281650 0.266296 0.000000
0.647950 0.233250 0.000000
1.000000 0.200204 0.000000
1.000000 0.167158 0.000000
0.000000 0.648683 0.000000
0.247000 0.615638 0.000000
0.613300 0.582592 0.000000
0.979600 0.549546 0.000000
1.000000 0.516500 0.000000
0.000000 0.998025 0.000000
0.212350 0.964979 0.000000
0.578650 0.931933 0.000000
0.944950 0.898888 0.000000
1.000000 0.865842 0.000000
0.000000 1.000000 0.000000
0.177700 1.000000 0.000000
0.544000 1.000000 0.000000
0.910300 1.000000 0.000000
1.000000 1.000000 0.000000
0.000000 0.000000 0.272208
0.281650 0.000000 0.241729
0.647950 0.000000 0.211250
1.000000 0.000000 0.180771
1.000000 0.000000 0.150292
0.000000 0.266296 0.241729
0.247000 0.233250 0.211250
0.613300 0.200204 0.180771
0.979600 0.167158 0.150292
1.000000 0.134112 0.119812
0.000000 0.615638 0.211250
0.212350 0.582592 0.180771
0.578650 0.549546 0.150292
0.944950 0.516500 0.119812
1.000000 0.483454 0.089333
0.000000 0.964979 0.180771
0.177700 0.931933 0.150292
0.544000 0.898888 0.119812
0.910300 0.865842 0.089333
1.000000 0.832796 0.058854
0.000000 1.000000 0.150292
0.143050 1.000000 0.119812
0.509350 1.000000 0.089333
0.875650 1.000000 0.058854
1.000000 1.000000 0.028375
0.000000 0.000000 0.594417
0.247000 0.000000 0.563937
0.613300 0.000000 0.533458
0.979600 0.000000 0.502979
1.000000 0.000000 0.472500
0.000000 0.233250 0.563937
0.212350 0.200204 0.533458
0.578650 0.167158 0.502979
0.944950 0.134112 0.472500
1.000000 0.101067 0.442021
0.000000 0.582592 0.533458
0.177700 0.549546 0.502979
0.544000 0.516500 0.472500
0.910300 0.483454 0.442021
1.000000 0.450408 0.411542
0.000000 0.931933 0.502979
0.143050 0.898888 0.472500
0.509350 0.865842 0.442021
0.875650 0.832796 0.411542
1.000000 0.799750 0.381062
0.000000 1.000000 0.472500
0.108400 1.000000 0.442021
0.474700 1.000000 0.411542
0.841000 1.000000 0.381062
1.000000 1.000000 0.350583
0.000000 0.000000 0.916625
0.212350 0.000000 0.886146
0.578650 0.000000 0.855667
0.944950 0.000000 0.825188
1.000000 0.000000 0.794708
0.000000 0.200204 0.886146
0.177700 0.167158 0.855667
0.544000 0.134112 0.825188
0.910300 0.101067 0.794708
1.000000 0.068021 0.764229
0.000000 0.549546 0.855667
0.143050 0.516500 0.825188
0.509350 0.483454 0.794708
0.875650 0.450408 0.764229
1.000000 0.417362 0.733750
0.000000 0.898888 0.825188
0.108400 0.865842 0.794708
0.474700 0.832796 0.764229
0.841000 0.799750 0.733750
1.000000 0.766704 0.703271
0.000000 1.000000 0.794708
0.073750 1.000000 0.764229
0.440050 1.000000 0.733750
0.806350 1.000000 0.703271
1.000000 1.000000 0.672792
0.000000 0.000000 1.000000
0.177700 0.000000 1.000000
0.544000 0.000000 1.000000
0.910300 0.000000 1.000000
1.000000 0.000000 1.000000
0.000000 0.167158 1.000000
0.143050 0.134112 1.000000
0.509350 0.101067 1.000000
0.875650 0.068021 1.000000
1.000000 0.034975 1.000000
0.000000 0.516500 1.000000
0.108400 0.483454 1.000000
0.474700 0.450408 1.000000
0.841000 0.417362 1.000000
1.000000 0.384317 1.000000
0.000000 0.865842 1.000000
0.073750 0.832796 1.000000
0.440050 0.799750 1.000000
0.806350 0.766704 1.000000
1.000000 0.733658 1.000000
0.000000 1.000000 1.000000
0.039100 1.000000 1.000000
0.405400 1.000000 1.000000
0.771700 1.000000 1.000000
1.000000 1.000000 0.995000
