frontend/client/public/luts/cultural/norwegian_natural.cube
TITLE "Norwegian Wedding Natural"
LUT_3D_SIZE 9
0.000000 0.000000 0.000000
0.121250 0.000000 0.000000
0.242500 0.000000 0.000000
0.363750 0.000000 0.000000
0.485000 0.000000 0.000000
0.606250 0.000000 0.000000
0.727500 0.000000 0.000000
0.848750 0.000000 0.000000
0.970000 0.000000 0.000000
0.000000 0.127500 0.000000
0.121250 0.127500 0.000000
0.242500 0.127500 0.000000
0.363750 0.127500 0.000000
0.485000 0.127500 0.000000
0.606250 0.127500 0.000000
0.727500 0.127500 0.000000
0.848750 0.127500 0.000000
0.970000 0.127500 0.000000
0.000000 0.255000 0.000000
0.121250 0.255000 0.000000
0.242500 0.255000 0.000000
0.363750 0.255000 0.000000
0.485000 0.255000 0.000000
0.606250 0.255000 0.000000
0.727500 0.255000 0.000000
0.848750 0.255000 0.000000
0.970000 0.255000 0.000000
0.000000 0.382500 0.000000
0.121250 0.382500 0.000000
0.242500 0.382500 0.000000
0.363750 0.382500 0.000000
0.485000 0.382500 0.000000
0.606250 0.382500 0.000000
0.727500 0.382500 0.000000
0.848750 0.382500 0.000000
0.970000 0.382500 0.000000
0.000000 0.510000 0.000000
0.121250 0.510000 0.000000
0.242500 0.510000 0.000000
0.363750 0.510000 0.000000
0.485000 0.510000 0.000000
0.606250 0.510000 0.000000
0.727500 0.510000 0.000000
0.848750 0.510000 0.000000
0.970000 0.510000 0.000000
0.000000 0.637500 0.000000
0.121250 0.637500 0.000000
0.242500 0.637500 0.000000
0.363750 0.637500 0.000000
0.485000 0.637500 0.000000
0.606250 0.637500 0.000000
0.727500 0.637500 0.000000
0.848750 0.637500 0.000000
0.970000 0.637500 0.000000
0.000000 0.765000 0.000000
0.121250 0.765000 0.000000
0.242500 0.765000 0.000000
0.363750 0.765000 0.000000
0.485000 0.765000 0.000000
0.606250 0.765000 0.000000
0.727500 0.765000 0.000000
0.848750 0.765000 0.000000
0.970000 0.765000 0.000000
0.000000 0.892500 0.000000
0.121250 0.892500 0.000000
0.242500 0.892500 0.000000
0.363750 0.892500 0.000000
0.485000 0.892500 0.000000
0.606250 0.892500 0.000000
0.727500 0.892500 0.000000
0.848750 0.892500 0.000000
0.970000 0.892500 0.000000
0.000000 1.000000 0.000000
0.121250 1.000000 0.000000
0.242500 1.000000 0.000000
0.363750 1.000000 0.000000
0.485000 1.000000 0.000000
0.606250 1.000000 0.000000
0.727500 1.000000 0.000000
0.848750 1.000000 0.000000
0.970000 1.000000 0.000000
0.000000 0.000000 0.135000
0.121250 0.000000 0.135000
0.242500 0.000000 0.135000
0.363750 0.000000 0.135000
0.485000 0.000000 0.135000
0.606250 0.000000 0.135000
0.727500 0.000000 0.135000
0.848750 0.000000 0.135000
0.970000 0.000000 0.135000
0.000000 0.127500 0.135000
0.121250 0.127500 0.135000
0.242500 0.127500 0.135000
0.363750 0.127500 0.135000
0.485000 0.127500 0.135000
0.606250 0.127500 0.135000
0.727500 0.127500 0.135000
0.848750 0.127500 0.135000
0.970000 0.127500 0.135000
0.000000 0.255000 0.135000
0.121250 0.255000 0.135000
0.242500 0.255000 0.135000
0.363750 0.255000 0.135000
0.485000 0.255000 0.135000
0.606250 0.255000 0.135000
0.727500 0.255000 0.135000
0.848750 0.255000 0.135000
0.970000 0.255000 0.135000
0.000000 0.382500 0.135000
0.121250 0.382500 0.135000
0.242500 0.382500 0.135000
0.363750 0.382500 0.135000
0.485000 0.382500 0.135000
0.606250 0.382500 0.135000
0.727500 0.382500 0.135000
0.848750 0.382500 0.135000
0.970000 0.382500 0.135000
0.000000 0.510000 0.135000
0.121250 0.510000 0.135000
0.242500 0.510000 0.135000
0.363750 0.510000 0.135000
0.485000 0.510000 0.135000
0.606250 0.510000 0.135000
0.727500 0.510000 0.135000
0.848750 0.510000 0.135000
0.970000 0.510000 0.135000
0.000000 0.637500 0.135000
0.121250 0.637500 0.135000
0.242500 0.637500 0.135000
0.363750 0.637500 0.135000
0.485000 0.637500 0.135000
0.606250 0.637500 0.135000
0.727500 0.637500 0.135000
0.848750 0.637500 0.135000
0.970000 0.637500 0.135000
0.000000 0.765000 0.135000
0.121250 0.765000 0.135000
0.242500 0.765000 0.135000
0.363750 0.765000 0.135000
0.485000 0.765000 0.135000
0.606250 0.765000 0.135000
0.727500 0.765000 0.135000
0.848750 0.765000 0.135000
0.970000 0.765000 0.135000
0.000000 0.892500 0.135000
0.121250 0.892500 0.135000
0.242500 0.892500 0.135000
0.363750 0.892500 0.135000
0.485000 0.892500 0.135000
0.606250 0.892500 0.135000
0.727500 0.892500 0.135000
0.848750 0.892500 0.135000
0.970000 0.892500 0.135000
0.000000 1.000000 0.135000
0.121250 1.000000 0.135000
0.242500 1.000000 0.135000
0.363750 1.000000 0.135000
0.485000 1.000000 0.135000
0.606250 1.000000 0.135000
0.727500 1.000000 0.135000
0.848750 1.000000 0.135000
0.970000 1.000000 0.135000
0.000000 0.000000 0.270000
0.121250 0.000000 0.270000
0.242500 0.000000 0.270000
0.363750 0.000000 0.270000
0.485000 0.000000 0.270000
0.606250 0.000000 0.270000
0.727500 0.000000 0.270000
0.848750 0.000000 0.270000
0.970000 0.000000 0.270000
0.000000 0.127500 0.270000
0.121250 0.127500 0.270000
0.242500 0.127500 0.270000
0.363750 0.127500 0.270000
0.485000 0.127500 0.270000
0.606250 0.127500 0.270000
0.727500 0.127500 0.270000
0.848750 0.127500 0.270000
0.970000 0.127500 0.270000
0.000000 0.255000 0.270000
0.121250 0.255000 0.270000
0.242500 0.255000 0.270000
0.363750 0.255000 0.270000
0.485000 0.255000 0.270000
0.606250 0.255000 0.270000
0.727500 0.255000 0.270000
0.848750 0.255000 0.270000
0.970000 0.255000 0.270000
0.000000 0.382500 0.270000
0.121250 0.382500 0.270000
0.242500 0.382500 0.270000
0.363750 0.382500 0.270000
0.510000 0.375000 0.245000
0.637500 0.375000 0.245000
0.765000 0.375000 0.245000
0.892500 0.375000 0.245000
1.000000 0.375000 0.245000
0.000000 0.510000 0.270000
0.121250 0.510000 0.270000
0.242500 0.510000 0.270000
0.363750 0.510000 0.270000
0.510000 0.500000 0.245000
0.637500 0.500000 0.245000
0.765000 0.500000 0.245000
0.892500 0.500000 0.245000
1.000000 0.500000 0.245000
0.000000 0.637500 0.270000
0.121250 0.637500 0.270000
0.242500 0.637500 0.270000
0.363750 0.637500 0.270000
0.510000 0.625000 0.245000
0.637500 0.625000 0.245000
0.765000 0.625000 0.245000
0.892500 0.625000 0.245000
1.000000 0.625000 0.245000
0.000000 0.765000 0.270000
0.121250 0.765000 0.270000
0.242500 0.765000 0.270000
0.363750 0.765000 0.270000
0.510000 0.750000 0.245000
0.637500 0.750000 0.245000
0.765000 0.750000 0.245000
0.892500 0.750000 0.245000
1.000000 0.750000 0.245000
0.000000 0.892500 0.270000
0.121250 0.892500 0.270000
0.242500 0.892500 0.270000
0.363750 0.892500 0.270000
0.510000 0.875000 0.245000
0.637500 0.875000 0.245000
0.765000 0.875000 0.245000
0.892500 0.875000 0.245000
1.000000 0.875000 0.245000
0.000000 1.000000 0.270000
0.121250 1.000000 0.270000
0.242500 1.000000 0.270000
0.363750 1.000000 0.270000
0.510000 1.000000 0.245000
0.637500 1.000000 0.245000
0.765000 1.000000 0.245000
0.892500 1.000000 0.245000
1.000000 1.000000 0.245000
0.000000 0.000000 0.405000
0.121250 0.000000 0.405000
0.242500 0.000000 0.405000
0.363750 0.000000 0.405000
0.485000 0.000000 0.405000
0.606250 0.000000 0.405000
0.727500 0.000000 0.405000
0.848750 0.000000 0.405000
0.970000 0.000000 0.405000
0.000000 0.127500 0.405000
0.121250 0.127500 0.405000
0.242500 0.127500 0.405000
0.363750 0.127500 0.405000
0.485000 0.127500 0.405000
0.606250 0.127500 0.405000
0.727500 0.127500 0.405000
0.848750 0.127500 0.405000
0.970000 0.127500 0.405000
0.000000 0.255000 0.405000
0.121250 0.255000 0.405000
0.242500 0.255000 0.405000
0.363750 0.255000 0.405000
0.485000 0.255000 0.405000
0.606250 0.255000 0.405000
0.727500 0.255000 0.405000
0.848750 0.255000 0.405000
0.970000 0.255000 0.405000
0.000000 0.382500 0.405000
0.121250 0.382500 0.405000
0.242500 0.382500 0.405000
0.363750 0.382500 0.405000
0.510000 0.375000 0.367500
0.637500 0.375000 0.367500
0.765000 0.375000 0.367500
0.892500 0.375000 0.367500
1.000000 0.375000 0.367500
0.000000 0.510000 0.405000
0.121250 0.510000 0.405000
0.242500 0.510000 0.405000
0.363750 0.510000 0.405000
0.510000 0.500000 0.367500
0.637500 0.500000 0.367500
0.765000 0.500000 0.367500
0.892500 0.500000 0.367500
1.000000 0.500000 0.367500
0.000000 0.637500 0.405000
0.121250 0.637500 0.405000
0.242500 0.637500 0.405000
0.363750 0.637500 0.405000
0.510000 0.625000 0.367500
0.637500 0.625000 0.367500
0.765000 0.625000 0.367500
0.892500 0.625000 0.367500
1.000000 0.625000 0.367500
0.000000 0.765000 0.405000
0.121250 0.765000 0.405000
0.242500 0.765000 0.405000
0.363750 0.765000 0.405000
0.510000 0.750000 0.367500
0.637500 0.750000 0.367500
0.765000 0.750000 0.367500
0.892500 0.750000 0.367500
1.000000 0.750000 0.367500
0.000000 0.892500 0.405000
0.121250 0.892500 0.405000
0.242500 0.892500 0.405000
0.363750 0.892500 0.405000
0.510000 0.875000 0.367500
0.637500 0.875000 0.367500
0.765000 0.875000 0.367500
0.892500 0.875000 0.367500
1.000000 0.875000 0.367500
0.000000 1.000000 0.405000
0.121250 1.000000 0.405000
0.242500 1.000000 0.405000
0.363750 1.000000 0.405000
0.510000 1.000000 0.367500
0.637500 1.000000 0.367500
0.765000 1.000000 0.367500
0.892500 1.000000 0.367500
1.000000 1.000000 0.367500
0.000000 0.000000 0.540000
0.121250 0.000000 0.540000
0.242500 0.000000 0.540000
0.363750 0.000000 0.540000
0.485000 0.000000 0.540000
0.606250 0.000000 0.540000
0.727500 0.000000 0.540000
0.848750 0.000000 0.540000
0.970000 0.000000 0.540000
0.000000 0.127500 0.540000
0.121250 0.127500 0.540000
0.242500 0.127500 0.540000
0.363750 0.127500 0.540000
0.485000 0.127500 0.540000
0.606250 0.127500 0.540000
0.727500 0.127500 0.540000
0.848750 0.127500 0.540000
0.970000 0.127500 0.540000
0.000000 0.255000 0.540000
0.121250 0.255000 0.540000
0.242500 0.255000 0.540000
0.363750 0.255000 0.540000
0.485000 0.255000 0.540000
0.606250 0.255000 0.540000
0.727500 0.255000 0.540000
0.848750 0.255000 0.540000
0.970000 0.255000 0.540000
0.000000 0.382500 0.540000
0.121250 0.382500 0.540000
0.242500 0.382500 0.540000
0.363750 0.382500 0.540000
0.485000 0.382500 0.540000
0.637500 0.375000 0.490000
0.765000 0.375000 0.490000
0.892500 0.375000 0.490000
1.000000 0.375000 0.490000
0.000000 0.510000 0.540000
0.121250 0.510000 0.540000
0.242500 0.510000 0.540000
0.363750 0.510000 0.540000
0.485000 0.510000 0.540000
0.637500 0.500000 0.490000
0.765000 0.500000 0.490000
0.892500 0.500000 0.490000
1.000000 0.500000 0.490000
0.000000 0.637500 0.540000
0.121250 0.637500 0.540000
0.242500 0.637500 0.540000
0.363750 0.637500 0.540000
0.485000 0.637500 0.540000
0.637500 0.625000 0.490000
0.765000 0.625000 0.490000
0.892500 0.625000 0.490000
1.000000 0.625000 0.490000
0.000000 0.765000 0.540000
0.121250 0.765000 0.540000
0.242500 0.765000 0.540000
0.363750 0.765000 0.540000
0.485000 0.765000 0.540000
0.637500 0.750000 0.490000
0.765000 0.750000 0.490000
0.892500 0.750000 0.490000
1.000000 0.750000 0.490000
0.000000 0.892500 0.540000
0.121250 0.892500 0.540000
0.242500 0.892500 0.540000
0.363750 0.892500 0.540000
0.485000 0.892500 0.540000
0.637500 0.875000 0.490000
0.765000 0.875000 0.490000
0.892500 0.875000 0.490000
1.000000 0.875000 0.490000
0.000000 1.000000 0.540000
0.121250 1.000000 0.540000
0.242500 1.000000 0.540000
0.363750 1.000000 0.540000
0.485000 1.000000 0.540000
0.637500 1.000000 0.490000
0.765000 1.000000 0.490000
0.892500 1.000000 0.490000
1.000000 1.000000 0.490000
0.000000 0.000000 0.675000
0.121250 0.000000 0.675000
0.242500 0.000000 0.675000
0.363750 0.000000 0.675000
0.485000 0.000000 0.675000
0.606250 0.000000 0.675000
0.727500 0.000000 0.675000
0.848750 0.000000 0.675000
0.970000 0.000000 0.675000
0.000000 0.127500 0.675000
0.121250 0.127500 0.675000
0.242500 0.127500 0.675000
0.363750 0.127500 0.675000
0.485000 0.127500 0.675000
0.606250 0.127500 0.675000
0.727500 0.127500 0.675000
0.848750 0.127500 0.675000
0.970000 0.127500 0.675000
0.000000 0.255000 0.675000
0.121250 0.255000 0.675000
0.242500 0.255000 0.675000
0.363750 0.255000 0.675000
0.485000 0.255000 0.675000
0.606250 0.255000 0.675000
0.727500 0.255000 0.675000
0.848750 0.255000 0.675000
0.970000 0.255000 0.675000
0.000000 0.382500 0.675000
0.121250 0.382500 0.675000
0.242500 0.382500 0.675000
0.363750 0.382500 0.675000
0.485000 0.382500 0.675000
0.606250 0.382500 0.675000
0.765000 0.375000 0.612500
0.892500 0.375000 0.612500
1.000000 0.375000 0.612500
0.000000 0.510000 0.675000
0.121250 0.510000 0.675000
0.242500 0.510000 0.675000
0.363750 0.510000 0.675000
0.485000 0.510000 0.675000
0.606250 0.510000 0.675000
0.765000 0.500000 0.612500
0.892500 0.500000 0.612500
1.000000 0.500000 0.612500
0.000000 0.637500 0.675000
0.121250 0.637500 0.675000
0.242500 0.637500 0.675000
0.363750 0.637500 0.675000
0.485000 0.637500 0.675000
0.606250 0.637500 0.675000
0.765000 0.625000 0.612500
0.892500 0.625000 0.612500
1.000000 0.625000 0.612500
0.000000 0.765000 0.675000
0.121250 0.765000 0.675000
0.242500 0.765000 0.675000
0.363750 0.765000 0.675000
0.485000 0.765000 0.675000
0.606250 0.765000 0.675000
0.765000 0.750000 0.612500
0.892500 0.750000 0.612500
1.000000 0.750000 0.612500
0.000000 0.892500 0.675000
0.121250 0.892500 0.675000
0.242500 0.892500 0.675000
0.363750 0.892500 0.675000
0.485000 0.892500 0.675000
0.606250 0.892500 0.675000
0.765000 0.875000 0.612500
0.892500 0.875000 0.612500
1.000000 0.875000 0.612500
0.000000 1.000000 0.675000
0.121250 1.000000 0.675000
0.242500 1.000000 0.675000
0.363750 1.000000 0.675000
0.485000 1.000000 0.675000
0.606250 1.000000 0.675000
0.765000 1.000000 0.612500
0.892500 1.000000 0.612500
1.000000 1.000000 0.612500
0.000000 0.000000 0.810000
0.121250 0.000000 0.810000
0.242500 0.000000 0.810000
0.363750 0.000000 0.810000
0.485000 0.000000 0.810000
0.606250 0.000000 0.810000
0.727500 0.000000 0.810000
0.848750 0.000000 0.810000
0.970000 0.000000 0.810000
0.000000 0.127500 0.810000
0.121250 0.127500 0.810000
0.242500 0.127500 0.810000
0.363750 0.127500 0.810000
0.485000 0.127500 0.810000
0.606250 0.127500 0.810000
0.727500 0.127500 0.810000
0.848750 0.127500 0.810000
0.970000 0.127500 0.810000
0.000000 0.255000 0.810000
0.121250 0.255000 0.810000
0.242500 0.255000 0.810000
0.363750 0.255000 0.810000
0.485000 0.255000 0.810000
0.606250 0.255000 0.810000
0.727500 0.255000 0.810000
0.848750 0.255000 0.810000
0.970000 0.255000 0.810000
0.000000 0.382500 0.810000
0.121250 0.382500 0.810000
0.242500 0.382500 0.810000
0.363750 0.382500 0.810000
0.485000 0.382500 0.810000
0.606250 0.382500 0.810000
0.727500 0.382500 0.810000
0.892500 0.375000 0.735000
1.000000 0.375000 0.735000
0.000000 0.510000 0.810000
0.121250 0.510000 0.810000
0.242500 0.510000 0.810000
0.363750 0.510000 0.810000
0.485000 0.510000 0.810000
0.606250 0.510000 0.810000
0.727500 0.510000 0.810000
0.892500 0.500000 0.735000
1.000000 0.500000 0.735000
0.000000 0.637500 0.810000
0.121250 0.637500 0.810000
0.242500 0.637500 0.810000
0.363750 0.637500 0.810000
0.485000 0.637500 0.810000
0.606250 0.637500 0.810000
0.727500 0.637500 0.810000
0.892500 0.625000 0.735000
1.000000 0.625000 0.735000
0.000000 0.765000 0.810000
0.121250 0.765000 0.810000
0.242500 0.765000 0.810000
0.363750 0.765000 0.810000
0.485000 0.765000 0.810000
0.606250 0.765000 0.810000
0.727500 0.765000 0.810000
0.892500 0.750000 0.735000
1.000000 0.750000 0.735000
0.000000 0.892500 0.810000
0.121250 0.892500 0.810000
0.242500 0.892500 0.810000
0.363750 0.892500 0.810000
0.485000 0.892500 0.810000
0.606250 0.892500 0.810000
0.727500 0.892500 0.810000
0.892500 0.875000 0.735000
1.000000 0.875000 0.735000
0.000000 1.000000 0.810000
0.121250 1.000000 0.810000
0.242500 1.000000 0.810000
0.363750 1.000000 0.810000
0.485000 1.000000 0.810000
0.606250 1.000000 0.810000
0.727500 1.000000 0.810000
0.892500 1.000000 0.735000
1.000000 1.000000 0.735000
0.000000 0.000000 0.945000
0.121250 0.000000 0.945000
0.242500 0.000000 0.945000
0.363750 0.000000 0.945000
0.485000 0.000000 0.945000
0.606250 0.000000 0.945000
0.727500 0.000000 0.945000
0.848750 0.000000 0.945000
0.970000 0.000000 0.945000
0.000000 0.127500 0.945000
0.121250 0.127500 0.945000
0.242500 0.127500 0.945000
0.363750 0.127500 0.945000
0.485000 0.127500 0.945000
0.606250 0.127500 0.945000
0.727500 0.127500 0.945000
0.848750 0.127500 0.945000
0.970000 0.127500 0.945000
0.000000 0.255000 0.945000
0.121250 0.255000 0.945000
0.242500 0.255000 0.945000
0.363750 0.255000 0.945000
0.485000 0.255000 0.945000
0.606250 0.255000 0.945000
0.727500 0.255000 0.945000
0.848750 0.255000 0.945000
0.970000 0.255000 0.945000
0.000000 0.382500 0.945000
0.121250 0.382500 0.945000
0.242500 0.382500 0.945000
0.363750 0.382500 0.945000
0.485000 0.382500 0.945000
0.606250 0.382500 0.945000
0.727500 0.382500 0.945000
0.848750 0.382500 0.945000
1.000000 0.375000 0.857500
0.000000 0.510000 0.945000
0.121250 0.510000 0.945000
0.242500 0.510000 0.945000
0.363750 0.510000 0.945000
0.485000 0.510000 0.945000
0.606250 0.510000 0.945000
0.727500 0.510000 0.945000
0.848750 0.510000 0.945000
1.000000 0.500000 0.857500
0.000000 0.637500 0.945000
0.121250 0.637500 0.945000
0.242500 0.637500 0.945000
0.363750 0.637500 0.945000
0.485000 0.637500 0.945000
0.606250 0.637500 0.945000
0.727500 0.637500 0.945000
0.848750 0.637500 0.945000
1.000000 0.625000 0.857500
0.000000 0.765000 0.945000
0.121250 0.765000 0.945000
0.242500 0.765000 0.945000
0.363750 0.765000 0.945000
0.485000 0.765000 0.945000
0.606250 0.765000 0.945000
0.727500 0.765000 0.945000
0.848750 0.765000 0.945000
1.000000 0.750000 0.857500
0.000000 0.892500 0.945000
0.121250 0.892500 0.945000
0.242500 0.892500 0.945000
0.363750 0.892500 0.945000
0.485000 0.892500 0.945000
0.606250 0.892500 0.945000
0.727500 0.892500 0.945000
0.848750 0.892500 0.945000
1.000000 0.875000 0.857500
0.000000 1.000000 0.945000
0.121250 1.000000 0.945000
0.242500 1.000000 0.945000
0.363750 1.000000 0.945000
0.485000 1.000000 0.945000
0.606250 1.000000 0.945000
0.727500 1.000000 0.945000
0.848750 1.000000 0.945000
1.000000 1.000000 0.857500
0.000000 0.000000 1.000000
0.121250 0.000000 1.000000
0.242500 0.000000 1.000000
0.363750 0.000000 1.000000
0.485000 0.000000 1.000000
0.606250 0.000000 1.000000
0.727500 0.000000 1.000000
0.848750 0.000000 1.000000
0.970000 0.000000 1.000000
0.000000 0.127500 1.000000
0.121250 0.127500 1.000000
0.242500 0.127500 1.000000
0.363750 0.127500 1.000000
0.485000 0.127500 1.000000
0.606250 0.127500 1.000000
0.727500 0.127500 1.000000
0.848750 0.127500 1.000000
0.970000 0.127500 1.000000
0.000000 0.255000 1.000000
0.121250 0.255000 1.000000
0.242500 0.255000 1.000000
0.363750 0.255000 1.000000
0.485000 0.255000 1.000000
0.606250 0.255000 1.000000
0.727500 0.255000 1.000000
0.848750 0.255000 1.000000
0.970000 0.255000 1.000000
0.000000 0.382500 1.000000
0.121250 0.382500 1.000000
0.242500 0.382500 1.000000
0.363750 0.382500 1.000000
0.485000 0.382500 1.000000
0.606250 0.382500 1.000000
0.727500 0.382500 1.000000
0.848750 0.382500 1.000000
0.970000 0.382500 1.000000
0.000000 0.510000 1.000000
0.121250 0.510000 1.000000
0.242500 0.510000 1.000000
0.363750 0.510000 1.000000
0.485000 0.510000 1.000000
0.606250 0.510000 1.000000
0.727500 0.510000 1.000000
0.848750 0.510000 1.000000
0.970000 0.510000 1.000000
0.000000 0.637500 1.000000
0.121250 0.637500 1.000000
0.242500 0.637500 1.000000
0.363750 0.637500 1.000000
0.485000 0.637500 1.000000
0.606250 0.637500 1.000000
0.727500 0.637500 1.000000
0.848750 0.637500 1.000000
0.970000 0.637500 1.000000
0.000000 0.765000 1.000000
0.121250 0.765000 1.000000
0.242500 0.765000 1.000000
0.363750 0.765000 1.000000
0.485000 0.765000 1.000000
0.606250 0.765000 1.000000
0.727500 0.765000 1.000000
0.848750 0.765000 1.000000
0.970000 0.765000 1.000000
0.000000 0.892500 1.000000
0.121250 0.892500 1.000000
0.242500 0.892500 1.000000
0.363750 0.892500 1.000000
0.485000 0.892500 1.000000
0.606250 0.892500 1.000000
0.727500 0.892500 1.000000
0.848750 0.892500 1.000000
0.970000 0.892500 1.000000
0.000000 1.000000 1.000000
0.121250 1.000000 1.000000
0.242500 1.000000 1.000000
0.363750 1.000000 1.000000
0.485000 1.000000 1.000000
0.606250 1.000000 1.000000
0.727500 1.000000 1.000000
0.848750 1.000000 1.000000
0.970000 1.000000 1.000000
