frontend/client/public/luts/cultural/norwegian_natural.cube
TITLE "Norwegian Wedding Natural"
LUT_3D_SIZE 17
0.000000 0.000000 0.000000
0.060625 0.000000 0.000000
0.121250 0.000000 0.000000
0.181875 0.000000 0.000000
0.242500 0.000000 0.000000
0.303125 0.000000 0.000000
0.363750 0.000000 0.000000
0.424375 0.000000 0.000000
0.485000 0.000000 0.000000
0.545625 0.000000 0.000000
0.606250 0.000000 0.000000
0.666875 0.000000 0.000000
0.727500 0.000000 0.000000
0.788125 0.000000 0.000000
0.848750 0.000000 0.000000
0.909375 0.000000 0.000000
0.970000 0.000000 0.000000
0.000000 0.063750 0.000000
0.060625 0.063750 0.000000
0.121250 0.063750 0.000000
0.181875 0.063750 0.000000
0.242500 0.063750 0.000000
0.303125 0.063750 0.000000
0.363750 0.063750 0.000000
0.424375 0.063750 0.000000
0.485000 0.063750 0.000000
0.545625 0.063750 0.000000
0.606250 0.063750 0.000000
0.666875 0.063750 0.000000
0.727500 0.063750 0.000000
0.788125 0.063750 0.000000
0.848750 0.063750 0.000000
0.909375 0.063750 0.000000
0.970000 0.063750 0.000000
0.000000 0.127500 0.000000
0.060625 0.127500 0.000000
0.121250 0.127500 0.000000
0.181875 0.127500 0.000000
0.242500 0.127500 0.000000
0.303125 0.127500 0.000000
0.363750 0.127500 0.000000
0.424375 0.127500 0.000000
0.485000 0.127500 0.000000
0.545625 0.127500 0.000000
0.606250 0.127500 0.000000
0.666875 0.127500 0.000000
0.727500 0.127500 0.000000
0.788125 0.127500 0.000000
0.848750 0.127500 0.000000
0.909375 0.127500 0.000000
0.970000 0.127500 0.000000
0.000000 0.191250 0.000000
0.060625 0.191250 0.000000
0.121250 0.191250 0.000000
0.181875 0.191250 0.000000
0.242500 0.191250 0.000000
0.303125 0.191250 0.000000
0.363750 0.191250 0.000000
0.424375 0.191250 0.000000
0.485000 0.191250 0.000000
0.545625 0.191250 0.000000
0.606250 0.191250 0.000000
0.666875 0.191250 0.000000
0.727500 0.191250 0.000000
0.788125 0.191250 0.000000
0.848750 0.191250 0.000000
0.909375 0.191250 0.000000
0.970000 0.191250 0.000000
0.000000 0.255000 0.000000
0.060625 0.255000 0.000000
0.121250 0.255000 0.000000
0.181875 0.255000 0.000000
0.242500 0.255000 0.000000
0.303125 0.255000 0.000000
0.363750 0.255000 0.000000
0.424375 0.255000 0.000000
0.485000 0.255000 0.000000
0.545625 0.255000 0.000000
0.606250 0.255000 0.000000
0.666875 0.255000 0.000000
0.727500 0.255000 0.000000
0.788125 0.255000 0.000000
0.848750 0.255000 0.000000
0.909375 0.255000 0.000000
0.970000 0.255000 0.000000
0.000000 0.318750 0.000000
0.060625 0.318750 0.000000
0.121250 0.318750 0.000000
0.181875 0.318750 0.000000
0.242500 0.318750 0.000000
0.303125 0.318750 0.000000
0.363750 0.318750 0.000000
0.424375 0.318750 0.000000
0.485000 0.318750 0.000000
0.545625 0.318750 0.000000
0.606250 0.318750 0.000000
0.666875 0.318750 0.000000
0.727500 0.318750 0.000000
0.788125 0.318750 0.000000
0.848750 0.318750 0.000000
0.909375 0.318750 0.000000
0.970000 0.318750 0.000000
0.000000 0.382500 0.000000
0.060625 0.382500 0.000000
0.121250 0.382500 0.000000
0.181875 0.382500 0.000000
0.242500 0.382500 0.000000
0.303125 0.382500 0.000000
0.363750 0.382500 0.000000
0.424375 0.382500 0.000000
0.485000 0.382500 0.000000
0.545625 0.382500 0.000000
0.606250 0.382500 0.000000
0.666875 0.382500 0.000000
0.727500 0.382500 0.000000
0.788125 0.382500 0.000000
0.848750 0.382500 0.000000
0.909375 0.382500 0.000000
0.970000 0.382500 0.000000
0.000000 0.446250 0.000000
0.060625 0.446250 0.000000
0.121250 0.446250 0.000000
0.181875 0.446250 0.000000
0.242500 0.446250 0.000000
0.303125 0.446250 0.000000
0.363750 0.446250 0.000000
0.424375 0.446250 0.000000
0.485000 0.446250 0.000000
0.545625 0.446250 0.000000
0.606250 0.446250 0.000000
0.666875 0.446250 0.000000
0.727500 0.446250 0.000000
0.788125 0.446250 0.000000
0.848750 0.446250 0.000000
0.909375 0.446250 0.000000
0.970000 0.446250 0.000000
0.000000 0.510000 0.000000
0.060625 0.510000 0.000000
0.121250 0.510000 0.000000
0.181875 0.510000 0.000000
0.242500 0.510000 0.000000
0.303125 0.510000 0.000000
0.363750 0.510000 0.000000
0.424375 0.510000 0.000000
0.485000 0.510000 0.000000
0.545625 0.510000 0.000000
0.606250 0.510000 0.000000
0.666875 0.510000 0.000000
0.727500 0.510000 0.000000
0.788125 0.510000 0.000000
0.848750 0.510000 0.000000
0.909375 0.510000 0.000000
0.970000 0.510000 0.000000
0.000000 0.573750 0.000000
0.060625 0.573750 0.000000
0.121250 0.573750 0.000000
0.181875 0.573750 0.000000
0.242500 0.573750 0.000000
0.303125 0.573750 0.000000
0.363750 0.573750 0.000000
0.424375 0.573750 0.000000
0.485000 0.573750 0.000000
0.545625 0.573750 0.000000
0.606250 0.573750 0.000000
0.666875 0.573750 0.000000
0.727500 0.573750 0.000000
0.788125 0.573750 0.000000
0.848750 0.573750 0.000000
0.909375 0.573750 0.000000
0.970000 0.573750 0.000000
0.000000 0.637500 0.000000
0.060625 0.637500 0.000000
0.121250 0.637500 0.000000
0.181875 0.637500 0.000000
0.242500 0.637500 0.000000
0.303125 0.637500 0.000000
0.363750 0.637500 0.000000
0.424375 0.637500 0.000000
0.485000 0.637500 0.000000
0.545625 0.637500 0.000000
0.606250 0.637500 0.000000
0.666875 0.637500 0.000000
0.727500 0.637500 0.000000
0.788125 0.637500 0.000000
0.848750 0.637500 0.000000
0.909375 0.637500 0.000000
0.970000 0.637500 0.000000
0.000000 0.701250 0.000000
0.060625 0.701250 0.000000
0.121250 0.701250 0.000000
0.181875 0.701250 0.000000
0.242500 0.701250 0.000000
0.303125 0.701250 0.000000
0.363750 0.701250 0.000000
0.424375 0.701250 0.000000
0.485000 0.701250 0.000000
0.545625 0.701250 0.000000
0.606250 0.701250 0.000000
0.666875 0.701250 0.000000
0.727500 0.701250 0.000000
0.788125 0.701250 0.000000
0.848750 0.701250 0.000000
0.909375 0.701250 0.000000
0.970000 0.701250 0.000000
0.000000 0.765000 0.000000
0.060625 0.765000 0.000000
0.121250 0.765000 0.000000
0.181875 0.765000 0.000000
0.242500 0.765000 0.000000
0.303125 0.765000 0.000000
0.363750 0.765000 0.000000
0.424375 0.765000 0.000000
0.485000 0.765000 0.000000
0.545625 0.765000 0.000000
0.606250 0.765000 0.000000
0.666875 0.765000 0.000000
0.727500 0.765000 0.000000
0.788125 0.765000 0.000000
0.848750 0.765000 0.000000
0.909375 0.765000 0.000000
0.970000 0.765000 0.000000
0.000000 0.828750 0.000000
0.060625 0.828750 0.000000
0.121250 0.828750 0.000000
0.181875 0.828750 0.000000
0.242500 0.828750 0.000000
0.303125 0.828750 0.000000
0.363750 0.828750 0.000000
0.424375 0.828750 0.000000
0.485000 0.828750 0.000000
0.545625 0.828750 0.000000
0.606250 0.828750 0.000000
0.666875 0.828750 0.000000
0.727500 0.828750 0.000000
0.788125 0.828750 0.000000
0.848750 0.828750 0.000000
0.909375 0.828750 0.000000
0.970000 0.828750 0.000000
0.000000 0.892500 0.000000
0.060625 0.892500 0.000000
0.121250 0.892500 0.000000
0.181875 0.892500 0.000000
0.242500 0.892500 0.000000
0.303125 0.892500 0.000000
0.363750 0.892500 0.000000
0.424375 0.892500 0.000000
0.485000 0.892500 0.000000
0.545625 0.892500 0.000000
0.606250 0.892500 0.000000
0.666875 0.892500 0.000000
0.727500 0.892500 0.000000
0.788125 0.892500 0.000000
0.848750 0.892500 0.000000
0.909375 0.892500 0.000000
0.970000 0.892500 0.000000
0.000000 0.956250 0.000000
0.060625 0.956250 0.000000
0.121250 0.956250 0.000000
0.181875 0.956250 0.000000
0.242500 0.956250 0.000000
0.303125 0.956250 0.000000
0.363750 0.956250 0.000000
0.424375 0.956250 0.000000
0.485000 0.956250 0.000000
0.545625 0.956250 0.000000
0.606250 0.956250 0.000000
0.666875 0.956250 0.000000
0.727500 0.956250 0.000000
0.788125 0.956250 0.000000
0.848750 0.956250 0.000000
0.909375 0.956250 0.000000
0.970000 0.956250 0.000000
0.000000 1.000000 0.000000
0.060625 1.000000 0.000000
0.121250 1.000000 0.000000
0.181875 1.000000 0.000000
0.242500 1.000000 0.000000
0.303125 1.000000 0.000000
0.363750 1.000000 0.000000
0.424375 1.000000 0.000000
0.485000 1.000000 0.000000
0.545625 1.000000 0.000000
0.606250 1.000000 0.000000
0.666875 1.000000 0.000000
0.727500 1.000000 0.000000
0.788125 1.000000 0.000000
0.848750 1.000000 0.000000
0.909375 1.000000 0.000000
0.970000 1.000000 0.000000
0.000000 0.000000 0.067500
0.060625 0.000000 0.067500
0.121250 0.000000 0.067500
0.181875 0.000000 0.067500
0.242500 0.000000 0.067500
0.303125 0.000000 0.067500
0.363750 0.000000 0.067500
0.424375 0.000000 0.067500
0.485000 0.000000 0.067500
0.545625 0.000000 0.067500
0.606250 0.000000 0.067500
0.666875 0.000000 0.067500
0.727500 0.000000 0.067500
0.788125 0.000000 0.067500
0.848750 0.000000 0.067500
0.909375 0.000000 0.067500
0.970000 0.000000 0.067500
0.000000 0.063750 0.067500
0.060625 0.063750 0.067500
0.121250 0.063750 0.067500
0.181875 0.063750 0.067500
0.242500 0.063750 0.067500
0.303125 0.063750 0.067500
0.363750 0.063750 0.067500
0.424375 0.063750 0.067500
0.485000 0.063750 0.067500
0.545625 0.063750 0.067500
0.606250 0.063750 0.067500
0.666875 0.063750 0.067500
0.727500 0.063750 0.067500
0.788125 0.063750 0.067500
0.848750 0.063750 0.067500
0.909375 0.063750 0.067500
0.970000 0.063750 0.067500
0.000000 0.127500 0.067500
0.060625 0.127500 0.067500
0.121250 0.127500 0.067500
0.181875 0.127500 0.067500
0.242500 0.127500 0.067500
0.303125 0.127500 0.067500
0.363750 0.127500 0.067500
0.424375 0.127500 0.067500
0.485000 0.127500 0.067500
0.545625 0.127500 0.067500
0.606250 0.127500 0.067500
0.666875 0.127500 0.067500
0.727500 0.127500 0.067500
0.788125 0.127500 0.067500
0.848750 0.127500 0.067500
0.909375 0.127500 0.067500
0.970000 0.127500 0.067500
0.000000 0.191250 0.067500
0.060625 0.191250 0.067500
0.121250 0.191250 0.067500
0.181875 0.191250 0.067500
0.242500 0.191250 0.067500
0.303125 0.191250 0.067500
0.363750 0.191250 0.067500
0.424375 0.191250 0.067500
0.485000 0.191250 0.067500
0.545625 0.191250 0.067500
0.606250 0.191250 0.067500
0.666875 0.191250 0.067500
0.727500 0.191250 0.067500
0.788125 0.191250 0.067500
0.848750 0.191250 0.067500
0.909375 0.191250 0.067500
0.970000 0.191250 0.067500
0.000000 0.255000 0.067500
0.060625 0.255000 0.067500
0.121250 0.255000 0.067500
0.181875 0.255000 0.067500
0.242500 0.255000 0.067500
0.303125 0.255000 0.067500
0.363750 0.255000 0.067500
0.424375 0.255000 0.067500
0.485000 0.255000 0.067500
0.545625 0.255000 0.067500
0.606250 0.255000 0.067500
0.666875 0.255000 0.067500
0.727500 0.255000 0.067500
0.788125 0.255000 0.067500
0.848750 0.255000 0.067500
0.909375 0.255000 0.067500
0.970000 0.255000 0.067500
0.000000 0.318750 0.067500
0.060625 0.318750 0.067500
0.121250 0.318750 0.067500
0.181875 0.318750 0.067500
0.242500 0.318750 0.067500
0.303125 0.318750 0.067500
0.363750 0.318750 0.067500
0.424375 0.318750 0.067500
0.485000 0.318750 0.067500
0.545625 0.318750 0.067500
0.606250 0.318750 0.067500
0.666875 0.318750 0.067500
0.727500 0.318750 0.067500
0.788125 0.318750 0.067500
0.848750 0.318750 0.067500
0.909375 0.318750 0.067500
0.970000 0.318750 0.067500
0.000000 0.382500 0.067500
0.060625 0.382500 0.067500
0.121250 0.382500 0.067500
0.181875 0.382500 0.067500
0.242500 0.382500 0.067500
0.303125 0.382500 0.067500
0.363750 0.382500 0.067500
0.424375 0.382500 0.067500
0.485000 0.382500 0.067500
0.545625 0.382500 0.067500
0.606250 0.382500 0.067500
0.666875 0.382500 0.067500
0.727500 0.382500 0.067500
0.788125 0.382500 0.067500
0.848750 0.382500 0.067500
0.909375 0.382500 0.067500
0.970000 0.382500 0.067500
0.000000 0.446250 0.067500
0.060625 0.446250 0.067500
0.121250 0.446250 0.067500
0.181875 0.446250 0.067500
0.242500 0.446250 0.067500
0.303125 0.446250 0.067500
0.363750 0.446250 0.067500
0.424375 0.446250 0.067500
0.485000 0.446250 0.067500
0.545625 0.446250 0.067500
0.606250 0.446250 0.067500
0.666875 0.446250 0.067500
0.727500 0.446250 0.067500
0.788125 0.446250 0.067500
0.848750 0.446250 0.067500
0.909375 0.446250 0.067500
0.970000 0.446250 0.067500
0.000000 0.510000 0.067500
0.060625 0.510000 0.067500
0.121250 0.510000 0.067500
0.181875 0.510000 0.067500
0.242500 0.510000 0.067500
0.303125 0.510000 0.067500
0.363750 0.510000 0.067500
0.424375 0.510000 0.067500
0.485000 0.510000 0.067500
0.545625 0.510000 0.067500
0.606250 0.510000 0.067500
0.666875 0.510000 0.067500
0.727500 0.510000 0.067500
0.788125 0.510000 0.067500
0.848750 0.510000 0.067500
0.909375 0.510000 0.067500
0.970000 0.510000 0.067500
0.000000 0.573750 0.067500
0.060625 0.573750 0.067500
0.121250 0.573750 0.067500
0.181875 0.573750 0.067500
0.242500 0.573750 0.067500
0.303125 0.573750 0.067500
0.363750 0.573750 0.067500
0.424375 0.573750 0.067500
0.485000 0.573750 0.067500
0.545625 0.573750 0.067500
0.606250 0.573750 0.067500
0.666875 0.573750 0.067500
0.727500 0.573750 0.067500
0.788125 0.573750 0.067500
0.848750 0.573750 0.067500
0.909375 0.573750 0.067500
0.970000 0.573750 0.067500
0.000000 0.637500 0.067500
0.060625 0.637500 0.067500
0.121250 0.637500 0.067500
0.181875 0.637500 0.067500
0.242500 0.637500 0.067500
0.303125 0.637500 0.067500
0.363750 0.637500 0.067500
0.424375 0.637500 0.067500
0.485000 0.637500 0.067500
0.545625 0.637500 0.067500
0.606250 0.637500 0.067500
0.666875 0.637500 0.067500
0.727500 0.637500 0.067500
0.788125 0.637500 0.067500
0.848750 0.637500 0.067500
0.909375 0.637500 0.067500
0.970000 0.637500 0.067500
0.000000 0.701250 0.067500
0.060625 0.701250 0.067500
0.121250 0.701250 0.067500
0.181875 0.701250 0.067500
0.242500 0.701250 0.067500
0.303125 0.701250 0.067500
0.363750 0.701250 0.067500
0.424375 0.701250 0.067500
0.485000 0.701250 0.067500
0.545625 0.701250 0.067500
0.606250 0.701250 0.067500
0.666875 0.701250 0.067500
0.727500 0.701250 0.067500
0.788125 0.701250 0.067500
0.848750 0.701250 0.067500
0.909375 0.701250 0.067500
0.970000 0.701250 0.067500
0.000000 0.765000 0.067500
0.060625 0.765000 0.067500
0.121250 0.765000 0.067500
0.181875 0.765000 0.067500
0.242500 0.765000 0.067500
0.303125 0.765000 0.067500
0.363750 0.765000 0.067500
0.424375 0.765000 0.067500
0.485000 0.765000 0.067500
0.545625 0.765000 0.067500
0.606250 0.765000 0.067500
0.666875 0.765000 0.067500
0.727500 0.765000 0.067500
0.788125 0.765000 0.067500
0.848750 0.765000 0.067500
0.909375 0.765000 0.067500
0.970000 0.765000 0.067500
0.000000 0.828750 0.067500
0.060625 0.828750 0.067500
0.121250 0.828750 0.067500
0.181875 0.828750 0.067500
0.242500 0.828750 0.067500
0.303125 0.828750 0.067500
0.363750 0.828750 0.067500
0.424375 0.828750 0.067500
0.485000 0.828750 0.067500
0.545625 0.828750 0.067500
0.606250 0.828750 0.067500
0.666875 0.828750 0.067500
0.727500 0.828750 0.067500
0.788125 0.828750 0.067500
0.848750 0.828750 0.067500
0.909375 0.828750 0.067500
0.970000 0.828750 0.067500
0.000000 0.892500 0.067500
0.060625 0.892500 0.067500
0.121250 0.892500 0.067500
0.181875 0.892500 0.067500
0.242500 0.892500 0.067500
0.303125 0.892500 0.067500
0.363750 0.892500 0.067500
0.424375 0.892500 0.067500
0.485000 0.892500 0.067500
0.545625 0.892500 0.067500
0.606250 0.892500 0.067500
0.666875 0.892500 0.067500
0.727500 0.892500 0.067500
0.788125 0.892500 0.067500
0.848750 0.892500 0.067500
0.909375 0.892500 0.067500
0.970000 0.892500 0.067500
0.000000 0.956250 0.067500
0.060625 0.956250 0.067500
0.121250 0.956250 0.067500
0.181875 0.956250 0.067500
0.242500 0.956250 0.067500
0.303125 0.956250 0.067500
0.363750 0.956250 0.067500
0.424375 0.956250 0.067500
0.485000 0.956250 0.067500
0.545625 0.956250 0.067500
0.606250 0.956250 0.067500
0.666875 0.956250 0.067500
0.727500 0.956250 0.067500
0.788125 0.956250 0.067500
0.848750 0.956250 0.067500
0.909375 0.956250 0.067500
0.970000 0.956250 0.067500
0.000000 1.000000 0.067500
0.060625 1.000000 0.067500
0.121250 1.000000 0.067500
0.181875 1.000000 0.067500
0.242500 1.000000 0.067500
0.303125 1.000000 0.067500
0.363750 1.000000 0.067500
0.424375 1.000000 0.067500
0.485000 1.000000 0.067500
0.545625 1.000000 0.067500
0.606250 1.000000 0.067500
0.666875 1.000000 0.067500
0.727500 1.000000 0.067500
0.788125 1.000000 0.067500
0.848750 1.000000 0.067500
0.909375 1.000000 0.067500
0.970000 1.000000 0.067500
0.000000 0.000000 0.135000
0.060625 0.000000 0.135000
0.121250 0.000000 0.135000
0.181875 0.000000 0.135000
0.242500 0.000000 0.135000
0.303125 0.000000 0.135000
0.363750 0.000000 0.135000
0.424375 0.000000 0.135000
0.485000 0.000000 0.135000
0.545625 0.000000 0.135000
0.606250 0.000000 0.135000
0.666875 0.000000 0.135000
0.727500 0.000000 0.135000
0.788125 0.000000 0.135000
0.848750 0.000000 0.135000
0.909375 0.000000 0.135000
0.970000 0.000000 0.135000
0.000000 0.063750 0.135000
0.060625 0.063750 0.135000
0.121250 0.063750 0.135000
0.181875 0.063750 0.135000
0.242500 0.063750 0.135000
0.303125 0.063750 0.135000
0.363750 0.063750 0.135000
0.424375 0.063750 0.135000
0.485000 0.063750 0.135000
0.545625 0.063750 0.135000
0.606250 0.063750 0.135000
0.666875 0.063750 0.135000
0.727500 0.063750 0.135000
0.788125 0.063750 0.135000
0.848750 0.063750 0.135000
0.909375 0.063750 0.135000
0.970000 0.063750 0.135000
0.000000 0.127500 0.135000
0.060625 0.127500 0.135000
0.121250 0.127500 0.135000
0.181875 0.127500 0.135000
0.242500 0.127500 0.135000
0.303125 0.127500 0.135000
0.363750 0.127500 0.135000
0.424375 0.127500 0.135000
0.485000 0.127500 0.135000
0.545625 0.127500 0.135000
0.606250 0.127500 0.135000
0.666875 0.127500 0.135000
0.727500 0.127500 0.135000
0.788125 0.127500 0.135000
0.848750 0.127500 0.135000
0.909375 0.127500 0.135000
0.970000 0.127500 0.135000
0.000000 0.191250 0.135000
0.060625 0.191250 0.135000
0.121250 0.191250 0.135000
0.181875 0.191250 0.135000
0.242500 0.191250 0.135000
0.303125 0.191250 0.135000
0.363750 0.191250 0.135000
0.424375 0.191250 0.135000
0.485000 0.191250 0.135000
0.545625 0.191250 0.135000
0.606250 0.191250 0.135000
0.666875 0.191250 0.135000
0.727500 0.191250 0.135000
0.788125 0.191250 0.135000
0.848750 0.191250 0.135000
0.909375 0.191250 0.135000
0.970000 0.191250 0.135000
0.000000 0.255000 0.135000
0.060625 0.255000 0.135000
0.121250 0.255000 0.135000
0.181875 0.255000 0.135000
0.242500 0.255000 0.135000
0.303125 0.255000 0.135000
0.363750 0.255000 0.135000
0.424375 0.255000 0.135000
0.485000 0.255000 0.135000
0.545625 0.255000 0.135000
0.606250 0.255000 0.135000
0.666875 0.255000 0.135000
0.727500 0.255000 0.135000
0.788125 0.255000 0.135000
0.848750 0.255000 0.135000
0.909375 0.255000 0.135000
0.970000 0.255000 0.135000
0.000000 0.318750 0.135000
0.060625 0.318750 0.135000
0.121250 0.318750 0.135000
0.181875 0.318750 0.135000
0.242500 0.318750 0.135000
0.303125 0.318750 0.135000
0.363750 0.318750 0.135000
0.424375 0.318750 0.135000
0.485000 0.318750 0.135000
0.545625 0.318750 0.135000
0.606250 0.318750 0.135000
0.666875 0.318750 0.135000
0.727500 0.318750 0.135000
0.788125 0.318750 0.135000
0.848750 0.318750 0.135000
0.909375 0.318750 0.135000
0.970000 0.318750 0.135000
0.000000 0.382500 0.135000
0.060625 0.382500 0.135000
0.121250 0.382500 0.135000
0.181875 0.382500 0.135000
0.242500 0.382500 0.135000
0.303125 0.382500 0.135000
0.363750 0.382500 0.135000
0.424375 0.382500 0.135000
0.485000 0.382500 0.135000
0.545625 0.382500 0.135000
0.606250 0.382500 0.135000
0.666875 0.382500 0.135000
0.727500 0.382500 0.135000
0.788125 0.382500 0.135000
0.848750 0.382500 0.135000
0.909375 0.382500 0.135000
0.970000 0.382500 0.135000
0.000000 0.446250 0.135000
0.060625 0.446250 0.135000
0.121250 0.446250 0.135000
0.181875 0.446250 0.135000
0.242500 0.446250 0.135000
0.303125 0.446250 0.135000
0.363750 0.446250 0.135000
0.424375 0.446250 0.135000
0.485000 0.446250 0.135000
0.545625 0.446250 0.135000
0.606250 0.446250 0.135000
0.666875 0.446250 0.135000
0.727500 0.446250 0.135000
0.788125 0.446250 0.135000
0.848750 0.446250 0.135000
0.909375 0.446250 0.135000
0.970000 0.446250 0.135000
0.000000 0.510000 0.135000
0.060625 0.510000 0.135000
0.121250 0.510000 0.135000
0.181875 0.510000 0.135000
0.242500 0.510000 0.135000
0.303125 0.510000 0.135000
0.363750 0.510000 0.135000
0.424375 0.510000 0.135000
0.485000 0.510000 0.135000
0.545625 0.510000 0.135000
0.606250 0.510000 0.135000
0.666875 0.510000 0.135000
0.727500 0.510000 0.135000
0.788125 0.510000 0.135000
0.848750 0.510000 0.135000
0.909375 0.510000 0.135000
0.970000 0.510000 0.135000
0.000000 0.573750 0.135000
0.060625 0.573750 0.135000
0.121250 0.573750 0.135000
0.181875 0.573750 0.135000
0.242500 0.573750 0.135000
0.303125 0.573750 0.135000
0.363750 0.573750 0.135000
0.424375 0.573750 0.135000
0.485000 0.573750 0.135000
0.545625 0.573750 0.135000
0.606250 0.573750 0.135000
0.666875 0.573750 0.135000
0.727500 0.573750 0.135000
0.788125 0.573750 0.135000
0.848750 0.573750 0.135000
0.909375 0.573750 0.135000
0.970000 0.573750 0.135000
0.000000 0.637500 0.135000
0.060625 0.637500 0.135000
0.121250 0.637500 0.135000
0.181875 0.637500 0.135000
0.242500 0.637500 0.135000
0.303125 0.637500 0.135000
0.363750 0.637500 0.135000
0.424375 0.637500 0.135000
0.485000 0.637500 0.135000
0.545625 0.637500 0.135000
0.606250 0.637500 0.135000
0.666875 0.637500 0.135000
0.727500 0.637500 0.135000
0.788125 0.637500 0.135000
0.848750 0.637500 0.135000
0.909375 0.637500 0.135000
0.970000 0.637500 0.135000
0.000000 0.701250 0.135000
0.060625 0.701250 0.135000
0.121250 0.701250 0.135000
0.181875 0.701250 0.135000
0.242500 0.701250 0.135000
0.303125 0.701250 0.135000
0.363750 0.701250 0.135000
0.424375 0.701250 0.135000
0.485000 0.701250 0.135000
0.545625 0.701250 0.135000
0.606250 0.701250 0.135000
0.666875 0.701250 0.135000
0.727500 0.701250 0.135000
0.788125 0.701250 0.135000
0.848750 0.701250 0.135000
0.909375 0.701250 0.135000
0.970000 0.701250 0.135000
0.000000 0.765000 0.135000
0.060625 0.765000 0.135000
0.121250 0.765000 0.135000
0.181875 0.765000 0.135000
0.242500 0.765000 0.135000
0.303125 0.765000 0.135000
0.363750 0.765000 0.135000
0.424375 0.765000 0.135000
0.485000 0.765000 0.135000
0.545625 0.765000 0.135000
0.606250 0.765000 0.135000
0.666875 0.765000 0.135000
0.727500 0.765000 0.135000
0.788125 0.765000 0.135000
0.848750 0.765000 0.135000
0.909375 0.765000 0.135000
0.970000 0.765000 0.135000
0.000000 0.828750 0.135000
0.060625 0.828750 0.135000
0.121250 0.828750 0.135000
0.181875 0.828750 0.135000
0.242500 0.828750 0.135000
0.303125 0.828750 0.135000
0.363750 0.828750 0.135000
0.424375 0.828750 0.135000
0.485000 0.828750 0.135000
0.545625 0.828750 0.135000
0.606250 0.828750 0.135000
0.666875 0.828750 0.135000
0.727500 0.828750 0.135000
0.788125 0.828750 0.135000
0.848750 0.828750 0.135000
0.909375 0.828750 0.135000
0.970000 0.828750 0.135000
0.000000 0.892500 0.135000
0.060625 0.892500 0.135000
0.121250 0.892500 0.135000
0.181875 0.892500 0.135000
0.242500 0.892500 0.135000
0.303125 0.892500 0.135000
0.363750 0.892500 0.135000
0.424375 0.892500 0.135000
0.485000 0.892500 0.135000
0.545625 0.892500 0.135000
0.606250 0.892500 0.135000
0.666875 0.892500 0.135000
0.727500 0.892500 0.135000
0.788125 0.892500 0.135000
0.848750 0.892500 0.135000
0.909375 0.892500 0.135000
0.970000 0.892500 0.135000
0.000000 0.956250 0.135000
0.060625 0.956250 0.135000
0.121250 0.956250 0.135000
0.181875 0.956250 0.135000
0.242500 0.956250 0.135000
0.303125 0.956250 0.135000
0.363750 0.956250 0.135000
0.424375 0.956250 0.135000
0.485000 0.956250 0.135000
0.545625 0.956250 0.135000
0.606250 0.956250 0.135000
0.666875 0.956250 0.135000
0.727500 0.956250 0.135000
0.788125 0.956250 0.135000
0.848750 0.956250 0.135000
0.909375 0.956250 0.135000
0.970000 0.956250 0.135000
0.000000 1.000000 0.135000
0.060625 1.000000 0.135000
0.121250 1.000000 0.135000
0.181875 1.000000 0.135000
0.242500 1.000000 0.135000
0.303125 1.000000 0.135000
0.363750 1.000000 0.135000
0.424375 1.000000 0.135000
0.485000 1.000000 0.135000
0.545625 1.000000 0.135000
0.606250 1.000000 0.135000
0.666875 1.000000 0.135000
0.727500 1.000000 0.135000
0.788125 1.000000 0.135000
0.848750 1.000000 0.135000
0.909375 1.000000 0.135000
0.970000 1.000000 0.135000
0.000000 0.000000 0.202500
0.060625 0.000000 0.202500
0.121250 0.000000 0.202500
0.181875 0.000000 0.202500
0.242500 0.000000 0.202500
0.303125 0.000000 0.202500
0.363750 0.000000 0.202500
0.424375 0.000000 0.202500
0.485000 0.000000 0.202500
0.545625 0.000000 0.202500
0.606250 0.000000 0.202500
0.666875 0.000000 0.202500
0.727500 0.000000 0.202500
0.788125 0.000000 0.202500
0.848750 0.000000 0.202500
0.909375 0.000000 0.202500
0.970000 0.000000 0.202500
0.000000 0.063750 0.202500
0.060625 0.063750 0.202500
0.121250 0.063750 0.202500
