frontend/client/public/luts/cultural/norwegian_natural.cube
TITLE "Norwegian Wedding Natural"
LUT_3D_SIZE 5
0.000000 0.000000 0.000000
0.242500 0.000000 0.000000
0.485000 0.000000 0.000000
0.727500 0.000000 0.000000
0.970000 0.000000 0.000000
0.000000 0.255000 0.000000
0.242500 0.255000 0.000000
0.485000 0.255000 0.000000
0.727500 0.255000 0.000000
0.970000 0.255000 0.000000
0.000000 0.510000 0.000000
0.242500 0.510000 0.000000
0.485000 0.510000 0.000000
0.727500 0.510000 0.000000
0.970000 0.510000 0.000000
0.000000 0.765000 0.000000
0.242500 0.765000 0.000000
0.485000 0.765000 0.000000
0.727500 0.765000 0.000000
0.970000 0.765000 0.000000
0.000000 1.000000 0.000000
0.242500 1.000000 0.000000
0.485000 1.000000 0.000000
0.727500 1.000000 0.000000
0.970000 1.000000 0.000000
0.000000 0.000000 0.270000
0.242500 0.000000 0.270000
0.485000 0.000000 0.270000
0.727500 0.000000 0.270000
0.970000 0.000000 0.270000
0.000000 0.255000 0.270000
0.242500 0.255000 0.270000
0.485000 0.255000 0.270000
0.727500 0.255000 0.270000
0.970000 0.255000 0.270000
0.000000 0.510000 0.270000
0.242500 0.510000 0.270000
0.510000 0.500000 0.245000
0.765000 0.500000 0.245000
1.000000 0.500000 0.245000
0.000000 0.765000 0.270000
0.242500 0.765000 0.270000
0.510000 0.750000 0.245000
0.765000 0.750000 0.245000
1.000000 0.750000 0.245000
0.000000 1.000000 0.270000
0.242500 1.000000 0.270000
0.510000 1.000000 0.245000
0.765000 1.000000 0.245000
1.000000 1.000000 0.245000
0.000000 0.000000 0.540000
0.242500 0.000000 0.540000
0.485000 0.000000 0.540000
0.727500 0.000000 0.540000
0.970000 0.000000 0.540000
0.000000 0.255000 0.540000
0.242500 0.255000 0.540000
0.485000 0.255000 0.540000
0.727500 0.255000 0.540000
0.970000 0.255000 0.540000
0.000000 0.510000 0.540000
0.242500 0.510000 0.540000
0.485000 0.510000 0.540000
0.765000 0.500000 0.490000
1.000000 0.500000 0.490000
0.000000 0.765000 0.540000
0.242500 0.765000 0.540000
0.485000 0.765000 0.540000
0.765000 0.750000 0.490000
1.000000 0.750000 0.490000
0.000000 1.000000 0.540000
0.242500 1.000000 0.540000
0.485000 1.000000 0.540000
0.765000 1.000000 0.490000
1.000000 1.000000 0.490000
0.000000 0.000000 0.810000
0.242500 0.000000 0.810000
0.485000 0.000000 0.810000
0.727500 0.000000 0.810000
0.970000 0.000000 0.810000
0.000000 0.255000 0.810000
0.242500 0.255000 0.810000
0.485000 0.255000 0.810000
0.727500 0.255000 0.810000
0.970000 0.255000 0.810000
0.000000 0.510000 0.810000
0.242500 0.510000 0.810000
0.485000 0.510000 0.810000
0.727500 0.510000 0.810000
1.000000 0.500000 0.735000
0.000000 0.765000 0.810000
0.242500 0.765000 0.810000
0.485000 0.765000 0.810000
0.727500 0.765000 0.810000
1.000000 0.750000 0.735000
0.000000 1.000000 0.810000
0.242500 1.000000 0.810000
0.485000 1.000000 0.810000
0.727500 1.000000 0.810000
1.000000 1.000000 0.735000
0.000000 0.000000 1.000000
0.242500 0.000000 1.000000
0.485000 0.000000 1.000000
0.727500 0.000000 1.000000
0.970000 0.000000 1.000000
0.000000 0.255000 1.000000
0.242500 0.255000 1.000000
0.485000 0.255000 1.000000
0.727500 0.255000 1.000000
0.970000 0.255000 1.000000
0.000000 0.510000 1.000000
0.242500 0.510000 1.000000
0.485000 0.510000 1.000000
0.727500 0.510000 1.000000
0.970000 0.510000 1.000000
0.000000 0.765000 1.000000
0.242500 0.765000 1.000000
0.485000 0.765000 1.000000
0.727500 0.765000 1.000000
0.970000 0.765000 1.000000
0.000000 1.000000 1.000000
0.242500 1.000000 1.000000
0.485000 1.000000 1.000000
0.727500 1.000000 1.000000
0.970000 1.000000 1.000000
