frontend/client/public/luts/cultural/sikh_wedding_warm.cube
TITLE "Sikh Wedding Warm Vibrant"
LUT_3D_SIZE 5
0.030000 0.030000 0.030000
0.347333 0.012500 0.015000
0.664667 0.000000 0.000000
0.982000 0.000000 0.000000
1.000000 0.000000 0.000000
0.011333 0.327500 0.015000
0.328667 0.310000 0.000000
0.646000 0.292500 0.000000
0.933333 0.245000 0.000000
1.000000 0.227500 0.000000
0.000000 0.625000 0.000000
0.310000 0.607500 0.000000
0.597333 0.560000 0.000000
0.914667 0.542500 0.000000
1.000000 0.525000 0.000000
0.000000 0.922500 0.000000
0.261333 0.875000 0.000000
0.578667 0.857500 0.000000
0.896000 0.840000 0.000000
1.000000 0.822500 0.000000
0.000000 1.000000 0.000000
0.242667 1.000000 0.000000
0.560000 1.000000 0.000000
0.877333 1.000000 0.000000
1.000000 1.000000 0.000000
0.011333 0.012500 0.285000
0.328667 0.000000 0.270000
0.646000 0.000000 0.255000
0.933333 0.000000 0.210000
1.000000 0.000000 0.195000
0.000000 0.310000 0.270000
0.310000 0.292500 0.255000
0.597333 0.245000 0.210000
0.914667 0.227500 0.195000
1.000000 0.210000 0.180000
0.000000 0.607500 0.255000
0.261333 0.560000 0.210000
0.578667 0.542500 0.195000
0.896000 0.525000 0.180000
1.000000 0.507500 0.165000
0.000000 0.875000 0.210000
0.242667 0.857500 0.195000
0.560000 0.840000 0.180000
0.877333 0.822500 0.165000
1.000000 0.805000 0.150000
0.000000 1.000000 0.195000
0.224000 1.000000 0.180000
0.541333 1.000000 0.165000
0.858667 1.000000 0.150000
1.000000 1.000000 0.135000
0.000000 0.000000 0.540000
0.310000 0.000000 0.525000
0.597333 0.000000 0.480000
0.914667 0.000000 0.465000
1.000000 0.000000 0.450000
0.000000 0.292500 0.525000
0.261333 0.245000 0.480000
0.578667 0.227500 0.465000
0.896000 0.210000 0.450000
1.000000 0.192500 0.435000
0.000000 0.560000 0.480000
0.242667 0.542500 0.465000
0.560000 0.525000 0.450000
0.877333 0.507500 0.435000
1.000000 0.490000 0.420000
0.000000 0.857500 0.465000
0.224000 0.840000 0.450000
0.541333 0.822500 0.435000
0.858667 0.805000 0.420000
1.000000 0.787500 0.405000
0.000000 1.000000 0.450000
0.205333 1.000000 0.435000
0.522667 1.000000 0.420000
0.840000 1.000000 0.405000
1.000000 1.000000 0.390000
0.000000 0.000000 0.795000
0.261333 0.000000 0.750000
0.578667 0.000000 0.735000
0.896000 0.000000 0.720000
1.000000 0.000000 0.705000
0.000000 0.245000 0.750000
0.242667 0.227500 0.735000
0.560000 0.210000 0.720000
0.877333 0.192500 0.705000
1.000000 0.175000 0.690000
0.000000 0.542500 0.735000
0.224000 0.525000 0.720000
0.541333 0.507500 0.705000
0.858667 0.490000 0.690000
1.000000 0.472500 0.675000
0.000000 0.840000 0.720000
0.205333 0.822500 0.705000
0.522667 0.805000 0.690000
0.840000 0.787500 0.675000
1.000000 0.770000 0.660000
0.000000 1.000000 0.705000
0.186667 1.000000 0.690000
0.504000 1.000000 0.675000
0.821333 1.000000 0.660000
1.000000 1.000000 0.645000
0.000000 0.000000 1.000000
0.242667 0.000000 1.000000
0.560000 0.000000 0.990000
0.877333 0.000000 0.975000
1.000000 0.000000 0.960000
0.000000 0.227500 1.000000
0.224000 0.210000 0.990000
0.541333 0.192500 0.975000
0.858667 0.175000 0.960000
1.000000 0.157500 0.945000
0.000000 0.525000 0.990000
0.205333 0.507500 0.975000
0.522667 0.490000 0.960000
0.840000 0.472500 0.945000
1.000000 0.455000 0.930000
0.000000 0.822500 0.975000
0.186667 0.805000 0.960000
0.504000 0.787500 0.945000
0.821333 0.770000 0.930000
1.000000 0.752500 0.915000
0.000000 1.000000 0.960000
0.168000 1.000000 0.945000
0.485333 1.000000 0.930000
0.802667 1.000000 0.915000
1.000000 1.000000 0.900000
