frontend/client/public/luts/cultural/sikh_wedding_warm.cube
TITLE "Sikh Wedding Warm Vibrant"
LUT_3D_SIZE 17
0.030000 0.030000 0.030000
0.109333 0.025625 0.026250
0.188667 0.021250 0.022500
0.268000 0.016875 0.018750
0.347333 0.012500 0.015000
0.426667 0.008125 0.011250
0.506000 0.003750 0.007500
0.585333 0.000000 0.003750
0.664667 0.000000 0.000000
0.744000 0.000000 0.000000
0.823333 0.000000 0.000000
0.902667 0.000000 0.000000
0.982000 0.000000 0.000000
1.000000 0.000000 0.000000
1.000000 0.000000 0.000000
1.000000 0.000000 0.000000
1.000000 0.000000 0.000000
0.025333 0.104375 0.026250
0.104667 0.100000 0.022500
0.184000 0.095625 0.018750
0.263333 0.091250 0.015000
0.342667 0.086875 0.011250
0.422000 0.082500 0.007500
0.501333 0.078125 0.003750
0.580667 0.073750 0.000000
0.660000 0.069375 0.000000
0.739333 0.065000 0.000000
0.818667 0.060625 0.000000
0.898000 0.056250 0.000000
0.977333 0.051875 0.000000
1.000000 0.047500 0.000000
1.000000 0.013125 0.000000
1.000000 0.008750 0.000000
1.000000 0.004375 0.000000
0.020667 0.178750 0.022500
0.100000 0.174375 0.018750
0.179333 0.170000 0.015000
0.258667 0.165625 0.011250
0.338000 0.161250 0.007500
0.417333 0.156875 0.003750
0.496667 0.152500 0.000000
0.576000 0.148125 0.000000
0.655333 0.143750 0.000000
0.734667 0.139375 0.000000
0.814000 0.135000 0.000000
0.893333 0.130625 0.000000
0.972667 0.126250 0.000000
1.000000 0.091875 0.000000
1.000000 0.087500 0.000000
1.000000 0.083125 0.000000
1.000000 0.078750 0.000000
0.016000 0.253125 0.018750
0.095333 0.248750 0.015000
0.174667 0.244375 0.011250
0.254000 0.240000 0.007500
0.333333 0.235625 0.003750
0.412667 0.231250 0.000000
0.492000 0.226875 0.000000
0.571333 0.222500 0.000000
0.650667 0.218125 0.000000
0.730000 0.213750 0.000000
0.809333 0.209375 0.000000
0.888667 0.205000 0.000000
0.938000 0.170625 0.000000
1.000000 0.166250 0.000000
1.000000 0.161875 0.000000
1.000000 0.157500 0.000000
1.000000 0.153125 0.000000
0.011333 0.327500 0.015000
0.090667 0.323125 0.011250
0.170000 0.318750 0.007500
0.249333 0.314375 0.003750
0.328667 0.310000 0.000000
0.408000 0.305625 0.000000
0.487333 0.301250 0.000000
0.566667 0.296875 0.000000
0.646000 0.292500 0.000000
0.725333 0.288125 0.000000
0.804667 0.283750 0.000000
0.854000 0.249375 0.000000
0.933333 0.245000 0.000000
1.000000 0.240625 0.000000
1.000000 0.236250 0.000000
1.000000 0.231875 0.000000
1.000000 0.227500 0.000000
0.006667 0.401875 0.011250
0.086000 0.397500 0.007500
0.165333 0.393125 0.003750
0.244667 0.388750 0.000000
0.324000 0.384375 0.000000
0.403333 0.380000 0.000000
0.482667 0.375625 0.000000
0.562000 0.371250 0.000000
0.641333 0.366875 0.000000
0.720667 0.362500 0.000000
0.770000 0.328125 0.000000
0.849333 0.323750 0.000000
0.928667 0.319375 0.000000
1.000000 0.315000 0.000000
1.000000 0.310625 0.000000
1.000000 0.306250 0.000000
1.000000 0.301875 0.000000
0.002000 0.476250 0.007500
0.081333 0.471875 0.003750
0.160667 0.467500 0.000000
0.240000 0.463125 0.000000
0.319333 0.458750 0.000000
0.398667 0.454375 0.000000
0.478000 0.450000 0.000000
0.557333 0.445625 0.000000
0.636667 0.441250 0.000000
0.686000 0.406875 0.000000
0.765333 0.402500 0.000000
0.844667 0.398125 0.000000
0.924000 0.393750 0.000000
1.000000 0.389375 0.000000
1.000000 0.385000 0.000000
1.000000 0.380625 0.000000
1.000000 0.376250 0.000000
0.000000 0.550625 0.003750
0.076667 0.546250 0.000000
0.156000 0.541875 0.000000
0.235333 0.537500 0.000000
0.314667 0.533125 0.000000
0.394000 0.528750 0.000000
0.473333 0.524375 0.000000
0.552667 0.520000 0.000000
0.602000 0.485625 0.000000
0.681333 0.481250 0.000000
0.760667 0.476875 0.000000
0.840000 0.472500 0.000000
0.919333 0.468125 0.000000
0.998667 0.463750 0.000000
1.000000 0.459375 0.000000
1.000000 0.455000 0.000000
1.000000 0.450625 0.000000
0.000000 0.625000 0.000000
0.072000 0.620625 0.000000
0.151333 0.616250 0.000000
0.230667 0.611875 0.000000
0.310000 0.607500 0.000000
0.389333 0.603125 0.000000
0.468667 0.598750 0.000000
0.518000 0.564375 0.000000
0.597333 0.560000 0.000000
0.676667 0.555625 0.000000
0.756000 0.551250 0.000000
0.835333 0.546875 0.000000
0.914667 0.542500 0.000000
0.994000 0.538125 0.000000
1.000000 0.533750 0.000000
1.000000 0.529375 0.000000
1.000000 0.525000 0.000000
0.000000 0.699375 0.000000
0.067333 0.695000 0.000000
0.146667 0.690625 0.000000
0.226000 0.686250 0.000000
0.305333 0.681875 0.000000
0.384667 0.677500 0.000000
0.434000 0.643125 0.000000
0.513333 0.638750 0.000000
0.592667 0.634375 0.000000
0.672000 0.630000 0.000000
0.751333 0.625625 0.000000
0.830667 0.621250 0.000000
0.910000 0.616875 0.000000
0.989333 0.612500 0.000000
1.000000 0.608125 0.000000
1.000000 0.603750 0.000000
1.000000 0.599375 0.000000
0.000000 0.773750 0.000000
0.062667 0.769375 0.000000
0.142000 0.765000 0.000000
0.221333 0.760625 0.000000
0.300667 0.756250 0.000000
0.350000 0.721875 0.000000
0.429333 0.717500 0.000000
0.508667 0.713125 0.000000
0.588000 0.708750 0.000000
0.667333 0.704375 0.000000
0.746667 0.700000 0.000000
0.826000 0.695625 0.000000
0.905333 0.691250 0.000000
0.984667 0.686875 0.000000
1.000000 0.682500 0.000000
1.000000 0.678125 0.000000
1.000000 0.673750 0.000000
0.000000 0.848125 0.000000
0.058000 0.843750 0.000000
0.137333 0.839375 0.000000
0.216667 0.835000 0.000000
0.266000 0.800625 0.000000
0.345333 0.796250 0.000000
0.424667 0.791875 0.000000
0.504000 0.787500 0.000000
0.583333 0.783125 0.000000
0.662667 0.778750 0.000000
0.742000 0.774375 0.000000
0.821333 0.770000 0.000000
0.900667 0.765625 0.000000
0.980000 0.761250 0.000000
1.000000 0.756875 0.000000
1.000000 0.752500 0.000000
1.000000 0.748125 0.000000
0.000000 0.922500 0.000000
0.053333 0.918125 0.000000
0.132667 0.913750 0.000000
0.182000 0.879375 0.000000
0.261333 0.875000 0.000000
0.340667 0.870625 0.000000
0.420000 0.866250 0.000000
0.499333 0.861875 0.000000
0.578667 0.857500 0.000000
0.658000 0.853125 0.000000
0.737333 0.848750 0.000000
0.816667 0.844375 0.000000
0.896000 0.840000 0.000000
0.975333 0.835625 0.000000
1.000000 0.831250 0.000000
1.000000 0.826875 0.000000
1.000000 0.822500 0.000000
0.000000 0.996875 0.000000
0.048667 0.992500 0.000000
0.098000 0.958125 0.000000
0.177333 0.953750 0.000000
0.256667 0.949375 0.000000
0.336000 0.945000 0.000000
0.415333 0.940625 0.000000
0.494667 0.936250 0.000000
0.574000 0.931875 0.000000
0.653333 0.927500 0.000000
0.732667 0.923125 0.000000
0.812000 0.918750 0.000000
0.891333 0.914375 0.000000
0.970667 0.910000 0.000000
1.000000 0.905625 0.000000
1.000000 0.901250 0.000000
1.000000 0.896875 0.000000
0.000000 1.000000 0.000000
0.014000 1.000000 0.000000
0.093333 1.000000 0.000000
0.172667 1.000000 0.000000
0.252000 1.000000 0.000000
0.331333 1.000000 0.000000
0.410667 1.000000 0.000000
0.490000 1.000000 0.000000
0.569333 1.000000 0.000000
0.648667 1.000000 0.000000
0.728000 0.997500 0.000000
0.807333 0.993125 0.000000
0.886667 0.988750 0.000000
0.966000 0.984375 0.000000
1.000000 0.980000 0.000000
1.000000 0.975625 0.000000
1.000000 0.971250 0.000000
0.000000 1.000000 0.000000
0.009333 1.000000 0.000000
0.088667 1.000000 0.000000
0.168000 1.000000 0.000000
0.247333 1.000000 0.000000
0.326667 1.000000 0.000000
0.406000 1.000000 0.000000
0.485333 1.000000 0.000000
0.564667 1.000000 0.000000
0.644000 1.000000 0.000000
0.723333 1.000000 0.000000
0.802667 1.000000 0.000000
0.882000 1.000000 0.000000
0.961333 1.000000 0.000000
1.000000 1.000000 0.000000
1.000000 1.000000 0.000000
1.000000 1.000000 0.000000
0.000000 1.000000 0.000000
0.004667 1.000000 0.000000
0.084000 1.000000 0.000000
0.163333 1.000000 0.000000
0.242667 1.000000 0.000000
0.322000 1.000000 0.000000
0.401333 1.000000 0.000000
0.480667 1.000000 0.000000
0.560000 1.000000 0.000000
0.639333 1.000000 0.000000
0.718667 1.000000 0.000000
0.798000 1.000000 0.000000
0.877333 1.000000 0.000000
0.956667 1.000000 0.000000
1.000000 1.000000 0.000000
1.000000 1.000000 0.000000
1.000000 1.000000 0.000000
0.025333 0.025625 0.093750
0.104667 0.021250 0.090000
0.184000 0.016875 0.086250
0.263333 0.012500 0.082500
0.342667 0.008125 0.078750
0.422000 0.003750 0.075000
0.501333 0.000000 0.071250
0.580667 0.000000 0.067500
0.660000 0.000000 0.063750
0.739333 0.000000 0.060000
0.818667 0.000000 0.056250
0.898000 0.000000 0.052500
0.977333 0.000000 0.048750
1.000000 0.000000 0.045000
1.000000 0.000000 0.011250
1.000000 0.000000 0.007500
1.000000 0.000000 0.003750
0.020667 0.100000 0.090000
0.100000 0.095625 0.086250
0.179333 0.091250 0.082500
0.258667 0.086875 0.078750
0.338000 0.082500 0.075000
0.417333 0.078125 0.071250
0.496667 0.073750 0.067500
0.576000 0.069375 0.063750
0.655333 0.065000 0.060000
0.734667 0.060625 0.056250
0.814000 0.056250 0.052500
0.893333 0.051875 0.048750
0.972667 0.047500 0.045000
1.000000 0.013125 0.011250
1.000000 0.008750 0.007500
1.000000 0.004375 0.003750
1.000000 0.000000 0.000000
0.016000 0.174375 0.086250
0.095333 0.170000 0.082500
0.174667 0.165625 0.078750
0.254000 0.161250 0.075000
0.333333 0.156875 0.071250
0.412667 0.152500 0.067500
0.492000 0.148125 0.063750
0.571333 0.143750 0.060000
0.650667 0.139375 0.056250
0.730000 0.135000 0.052500
0.809333 0.130625 0.048750
0.888667 0.126250 0.045000
0.938000 0.091875 0.011250
1.000000 0.087500 0.007500
1.000000 0.083125 0.003750
1.000000 0.078750 0.000000
1.000000 0.074375 0.000000
0.011333 0.248750 0.082500
0.090667 0.244375 0.078750
0.170000 0.240000 0.075000
0.249333 0.235625 0.071250
0.328667 0.231250 0.067500
0.408000 0.226875 0.063750
0.487333 0.222500 0.060000
0.566667 0.218125 0.056250
0.646000 0.213750 0.052500
0.725333 0.209375 0.048750
0.804667 0.205000 0.045000
0.854000 0.170625 0.011250
0.933333 0.166250 0.007500
1.000000 0.161875 0.003750
1.000000 0.157500 0.000000
1.000000 0.153125 0.000000
1.000000 0.148750 0.000000
0.006667 0.323125 0.078750
0.086000 0.318750 0.075000
0.165333 0.314375 0.071250
0.244667 0.310000 0.067500
0.324000 0.305625 0.063750
0.403333 0.301250 0.060000
0.482667 0.296875 0.056250
0.562000 0.292500 0.052500
0.641333 0.288125 0.048750
0.720667 0.283750 0.045000
0.770000 0.249375 0.011250
0.849333 0.245000 0.007500
0.928667 0.240625 0.003750
1.000000 0.236250 0.000000
1.000000 0.231875 0.000000
1.000000 0.227500 0.000000
1.000000 0.223125 0.000000
0.002000 0.397500 0.075000
0.081333 0.393125 0.071250
0.160667 0.388750 0.067500
0.240000 0.384375 0.063750
0.319333 0.380000 0.060000
0.398667 0.375625 0.056250
0.478000 0.371250 0.052500
0.557333 0.366875 0.048750
0.636667 0.362500 0.045000
0.686000 0.328125 0.011250
0.765333 0.323750 0.007500
0.844667 0.319375 0.003750
0.924000 0.315000 0.000000
1.000000 0.310625 0.000000
1.000000 0.306250 0.000000
1.000000 0.301875 0.000000
1.000000 0.297500 0.000000
0.000000 0.471875 0.071250
0.076667 0.467500 0.067500
0.156000 0.463125 0.063750
0.235333 0.458750 0.060000
0.314667 0.454375 0.056250
0.394000 0.450000 0.052500
0.473333 0.445625 0.048750
0.552667 0.441250 0.045000
0.602000 0.406875 0.011250
0.681333 0.402500 0.007500
0.760667 0.398125 0.003750
0.840000 0.393750 0.000000
0.919333 0.389375 0.000000
0.998667 0.385000 0.000000
1.000000 0.380625 0.000000
1.000000 0.376250 0.000000
1.000000 0.371875 0.000000
0.000000 0.546250 0.067500
0.072000 0.541875 0.063750
0.151333 0.537500 0.060000
0.230667 0.533125 0.056250
0.310000 0.528750 0.052500
0.389333 0.524375 0.048750
0.468667 0.520000 0.045000
0.518000 0.485625 0.011250
0.597333 0.481250 0.007500
0.676667 0.476875 0.003750
0.756000 0.472500 0.000000
0.835333 0.468125 0.000000
0.914667 0.463750 0.000000
0.994000 0.459375 0.000000
1.000000 0.455000 0.000000
1.000000 0.450625 0.000000
1.000000 0.446250 0.000000
0.000000 0.620625 0.063750
0.067333 0.616250 0.060000
0.146667 0.611875 0.056250
0.226000 0.607500 0.052500
0.305333 0.603125 0.048750
0.384667 0.598750 0.045000
0.434000 0.564375 0.011250
0.513333 0.560000 0.007500
0.592667 0.555625 0.003750
0.672000 0.551250 0.000000
0.751333 0.546875 0.000000
0.830667 0.542500 0.000000
0.910000 0.538125 0.000000
0.989333 0.533750 0.000000
1.000000 0.529375 0.000000
1.000000 0.525000 0.000000
1.000000 0.520625 0.000000
0.000000 0.695000 0.060000
0.062667 0.690625 0.056250
0.142000 0.686250 0.052500
0.221333 0.681875 0.048750
0.300667 0.677500 0.045000
0.350000 0.643125 0.011250
0.429333 0.638750 0.007500
0.508667 0.634375 0.003750
0.588000 0.630000 0.000000
0.667333 0.625625 0.000000
0.746667 0.621250 0.000000
0.826000 0.616875 0.000000
0.905333 0.612500 0.000000
0.984667 0.608125 0.000000
1.000000 0.603750 0.000000
1.000000 0.599375 0.000000
1.000000 0.595000 0.000000
0.000000 0.769375 0.056250
0.058000 0.765000 0.052500
0.137333 0.760625 0.048750
0.216667 0.756250 0.045000
0.266000 0.721875 0.011250
0.345333 0.717500 0.007500
0.424667 0.713125 0.003750
0.504000 0.708750 0.000000
0.583333 0.704375 0.000000
0.662667 0.700000 0.000000
0.742000 0.695625 0.000000
0.821333 0.691250 0.000000
0.900667 0.686875 0.000000
0.980000 0.682500 0.000000
1.000000 0.678125 0.000000
1.000000 0.673750 0.000000
1.000000 0.669375 0.000000
0.000000 0.843750 0.052500
0.053333 0.839375 0.048750
0.132667 0.835000 0.045000
0.182000 0.800625 0.011250
0.261333 0.796250 0.007500
0.340667 0.791875 0.003750
0.420000 0.787500 0.000000
0.499333 0.783125 0.000000
0.578667 0.778750 0.000000
0.658000 0.774375 0.000000
0.737333 0.770000 0.000000
0.816667 0.765625 0.000000
0.896000 0.761250 0.000000
0.975333 0.756875 0.000000
1.000000 0.752500 0.000000
1.000000 0.748125 0.000000
1.000000 0.743750 0.000000
0.000000 0.918125 0.048750
0.048667 0.913750 0.045000
0.098000 0.879375 0.011250
0.177333 0.875000 0.007500
0.256667 0.870625 0.003750
0.336000 0.866250 0.000000
0.415333 0.861875 0.000000
0.494667 0.857500 0.000000
0.574000 0.853125 0.000000
0.653333 0.848750 0.000000
0.732667 0.844375 0.000000
0.812000 0.840000 0.000000
0.891333 0.835625 0.000000
0.970667 0.831250 0.000000
1.000000 0.826875 0.000000
1.000000 0.822500 0.000000
1.000000 0.818125 0.000000
0.000000 0.992500 0.045000
0.014000 0.958125 0.011250
0.093333 0.953750 0.007500
0.172667 0.949375 0.003750
0.252000 0.945000 0.000000
0.331333 0.940625 0.000000
0.410667 0.936250 0.000000
0.490000 0.931875 0.000000
0.569333 0.927500 0.000000
0.648667 0.923125 0.000000
0.728000 0.918750 0.000000
0.807333 0.914375 0.000000
0.886667 0.910000 0.000000
0.966000 0.905625 0.000000
1.000000 0.901250 0.000000
1.000000 0.896875 0.000000
1.000000 0.892500 0.000000
0.000000 1.000000 0.011250
0.009333 1.000000 0.007500
0.088667 1.000000 0.003750
0.168000 1.000000 0.000000
0.247333 1.000000 0.000000
0.326667 1.000000 0.000000
0.406000 1.000000 0.000000
0.485333 1.000000 0.000000
0.564667 1.000000 0.000000
0.644000 0.997500 0.000000
0.723333 0.993125 0.000000
0.802667 0.988750 0.000000
0.882000 0.984375 0.000000
0.961333 0.980000 0.000000
1.000000 0.975625 0.000000
1.000000 0.971250 0.000000
1.000000 0.966875 0.000000
0.000000 1.000000 0.007500
0.004667 1.000000 0.003750
0.084000 1.000000 0.000000
0.163333 1.000000 0.000000
0.242667 1.000000 0.000000
0.322000 1.000000 0.000000
0.401333 1.000000 0.000000
0.480667 1.000000 0.000000
0.560000 1.000000 0.000000
0.639333 1.000000 0.000000
0.718667 1.000000 0.000000
0.798000 1.000000 0.000000
0.877333 1.000000 0.000000
0.956667 1.000000 0.000000
1.000000 1.000000 0.000000
1.000000 1.000000 0.000000
1.000000 1.000000 0.000000
0.000000 1.000000 0.003750
0.000000 1.000000 0.000000
0.079333 1.000000 0.000000
0.158667 1.000000 0.000000
0.238000 1.000000 0.000000
0.317333 1.000000 0.000000
0.396667 1.000000 0.000000
0.476000 1.000000 0.000000
0.555333 1.000000 0.000000
0.634667 1.000000 0.000000
0.714000 1.000000 0.000000
0.793333 1.000000 0.000000
0.872667 1.000000 0.000000
0.952000 1.000000 0.000000
1.000000 1.000000 0.000000
1.000000 1.000000 0.000000
1.000000 1.000000 0.000000
0.020667 0.021250 0.157500
0.100000 0.016875 0.153750
0.179333 0.012500 0.150000
0.258667 0.008125 0.146250
0.338000 0.003750 0.142500
0.417333 0.000000 0.138750
0.496667 0.000000 0.135000
0.576000 0.000000 0.131250
0.655333 0.000000 0.127500
0.734667 0.000000 0.123750
0.814000 0.000000 0.120000
0.893333 0.000000 0.116250
0.972667 0.000000 0.112500
1.000000 0.000000 0.078750
1.000000 0.000000 0.075000
1.000000 0.000000 0.071250
1.000000 0.000000 0.067500
0.016000 0.095625 0.153750
0.095333 0.091250 0.150000
0.174667 0.086875 0.146250
0.254000 0.082500 0.142500
0.333333 0.078125 0.138750
0.412667 0.073750 0.135000
0.492000 0.069375 0.131250
0.571333 0.065000 0.127500
0.650667 0.060625 0.123750
0.730000 0.056250 0.120000
0.809333 0.051875 0.116250
0.888667 0.047500 0.112500
0.938000 0.013125 0.078750
1.000000 0.008750 0.075000
1.000000 0.004375 0.071250
1.000000 0.000000 0.067500
1.000000 0.000000 0.063750
0.011333 0.170000 0.150000
0.090667 0.165625 0.146250
0.170000 0.161250 0.142500
0.249333 0.156875 0.138750
0.328667 0.152500 0.135000
0.408000 0.148125 0.131250
0.487333 0.143750 0.127500
0.566667 0.139375 0.123750
0.646000 0.135000 0.120000
0.725333 0.130625 0.116250
0.804667 0.126250 0.112500
0.854000 0.091875 0.078750
0.933333 0.087500 0.075000
1.000000 0.083125 0.071250
1.000000 0.078750 0.067500
1.000000 0.074375 0.063750
1.000000 0.070000 0.060000
0.006667 0.244375 0.146250
0.086000 0.240000 0.142500
0.165333 0.235625 0.138750
0.244667 0.231250 0.135000
0.324000 0.226875 0.131250
0.403333 0.222500 0.127500
0.482667 0.218125 0.123750
0.562000 0.213750 0.120000
0.641333 0.209375 0.116250
0.720667 0.205000 0.112500
0.770000 0.170625 0.078750
0.849333 0.166250 0.075000
0.928667 0.161875 0.071250
1.000000 0.157500 0.067500
1.000000 0.153125 0.063750
1.000000 0.148750 0.060000
1.000000 0.144375 0.056250
0.002000 0.318750 0.142500
0.081333 0.314375 0.138750
0.160667 0.310000 0.135000
0.240000 0.305625 0.131250
0.319333 0.301250 0.127500
0.398667 0.296875 0.123750
0.478000 0.292500 0.120000
0.557333 0.288125 0.116250
0.636667 0.283750 0.112500
0.686000 0.249375 0.078750
0.765333 0.245000 0.075000
0.844667 0.240625 0.071250
0.924000 0.236250 0.067500
1.000000 0.231875 0.063750
1.000000 0.227500 0.060000
1.000000 0.223125 0.056250
1.000000 0.218750 0.052500
0.000000 0.393125 0.138750
0.076667 0.388750 0.135000
0.156000 0.384375 0.131250
0.235333 0.380000 0.127500
0.314667 0.375625 0.123750
0.394000 0.371250 0.120000
0.473333 0.366875 0.116250
0.552667 0.362500 0.112500
0.602000 0.328125 0.078750
0.681333 0.323750 0.075000
0.760667 0.319375 0.071250
0.840000 0.315000 0.067500
0.919333 0.310625 0.063750
0.998667 0.306250 0.060000
1.000000 0.301875 0.056250
1.000000 0.297500 0.052500
1.000000 0.293125 0.048750
0.000000 0.467500 0.135000
0.072000 0.463125 0.131250
0.151333 0.458750 0.127500
0.230667 0.454375 0.123750
0.310000 0.450000 0.120000
0.389333 0.445625 0.116250
0.468667 0.441250 0.112500
0.518000 0.406875 0.078750
0.597333 0.402500 0.075000
0.676667 0.398125 0.071250
0.756000 0.393750 0.067500
0.835333 0.389375 0.063750
0.914667 0.385000 0.060000
0.994000 0.380625 0.056250
1.000000 0.376250 0.052500
1.000000 0.371875 0.048750
1.000000 0.367500 0.045000
0.000000 0.541875 0.131250
0.067333 0.537500 0.127500
0.146667 0.533125 0.123750
0.226000 0.528750 0.120000
0.305333 0.524375 0.116250
0.384667 0.520000 0.112500
0.434000 0.485625 0.078750
0.513333 0.481250 0.075000
0.592667 0.476875 0.071250
0.672000 0.472500 0.067500
0.751333 0.468125 0.063750
0.830667 0.463750 0.060000
0.910000 0.459375 0.056250
0.989333 0.455000 0.052500
1.000000 0.450625 0.048750
1.000000 0.446250 0.045000
1.000000 0.441875 0.041250
0.000000 0.616250 0.127500
0.062667 0.611875 0.123750
0.142000 0.607500 0.120000
0.221333 0.603125 0.116250
0.300667 0.598750 0.112500
0.350000 0.564375 0.078750
0.429333 0.560000 0.075000
0.508667 0.555625 0.071250
0.588000 0.551250 0.067500
0.667333 0.546875 0.063750
0.746667 0.542500 0.060000
0.826000 0.538125 0.056250
0.905333 0.533750 0.052500
0.984667 0.529375 0.048750
1.000000 0.525000 0.045000
1.000000 0.520625 0.041250
1.000000 0.516250 0.037500
0.000000 0.690625 0.123750
0.058000 0.686250 0.120000
0.137333 0.681875 0.116250
0.216667 0.677500 0.112500
0.266000 0.643125 0.078750
0.345333 0.638750 0.075000
0.424667 0.634375 0.071250
0.504000 0.630000 0.067500
0.583333 0.625625 0.063750
0.662667 0.621250 0.060000
0.742000 0.616875 0.056250
0.821333 0.612500 0.052500
0.900667 0.608125 0.048750
0.980000 0.603750 0.045000
1.000000 0.599375 0.041250
1.000000 0.595000 0.037500
1.000000 0.590625 0.033750
0.000000 0.765000 0.120000
0.053333 0.760625 0.116250
0.132667 0.756250 0.112500
0.182000 0.721875 0.078750
0.261333 0.717500 0.075000
0.340667 0.713125 0.071250
0.420000 0.708750 0.067500
0.499333 0.704375 0.063750
0.578667 0.700000 0.060000
0.658000 0.695625 0.056250
0.737333 0.691250 0.052500
0.816667 0.686875 0.048750
0.896000 0.682500 0.045000
0.975333 0.678125 0.041250
1.000000 0.673750 0.037500
1.000000 0.669375 0.033750
1.000000 0.665000 0.030000
0.000000 0.839375 0.116250
0.048667 0.835000 0.112500
0.098000 0.800625 0.078750
0.177333 0.796250 0.075000
0.256667 0.791875 0.071250
0.336000 0.787500 0.067500
0.415333 0.783125 0.063750
0.494667 0.778750 0.060000
0.574000 0.774375 0.056250
0.653333 0.770000 0.052500
0.732667 0.765625 0.048750
0.812000 0.761250 0.045000
0.891333 0.756875 0.041250
0.970667 0.752500 0.037500
1.000000 0.748125 0.033750
1.000000 0.743750 0.030000
1.000000 0.739375 0.026250
0.000000 0.913750 0.112500
0.014000 0.879375 0.078750
0.093333 0.875000 0.075000
0.172667 0.870625 0.071250
0.252000 0.866250 0.067500
0.331333 0.861875 0.063750
0.410667 0.857500 0.060000
0.490000 0.853125 0.056250
0.569333 0.848750 0.052500
0.648667 0.844375 0.048750
0.728000 0.840000 0.045000
0.807333 0.835625 0.041250
0.886667 0.831250 0.037500
0.966000 0.826875 0.033750
1.000000 0.822500 0.030000
1.000000 0.818125 0.026250
1.000000 0.813750 0.022500
0.000000 0.958125 0.078750
0.009333 0.953750 0.075000
0.088667 0.949375 0.071250
0.168000 0.945000 0.067500
0.247333 0.940625 0.063750
0.326667 0.936250 0.060000
0.406000 0.931875 0.056250
0.485333 0.927500 0.052500
0.564667 0.923125 0.048750
0.644000 0.918750 0.045000
0.723333 0.914375 0.041250
0.802667 0.910000 0.037500
0.882000 0.905625 0.033750
0.961333 0.901250 0.030000
1.000000 0.896875 0.026250
1.000000 0.892500 0.022500
1.000000 0.888125 0.018750
0.000000 1.000000 0.075000
0.004667 1.000000 0.071250
0.084000 1.000000 0.067500
0.163333 1.000000 0.063750
0.242667 1.000000 0.060000
0.322000 1.000000 0.056250
0.401333 1.000000 0.052500
0.480667 1.000000 0.048750
0.560000 0.997500 0.045000
0.639333 0.993125 0.041250
0.718667 0.988750 0.037500
0.798000 0.984375 0.033750
0.877333 0.980000 0.030000
0.956667 0.975625 0.026250
1.000000 0.971250 0.022500
1.000000 0.966875 0.018750
1.000000 0.962500 0.015000
0.000000 1.000000 0.071250
0.000000 1.000000 0.067500
0.079333 1.000000 0.063750
0.158667 1.000000 0.060000
0.238000 1.000000 0.056250
0.317333 1.000000 0.052500
0.396667 1.000000 0.048750
0.476000 1.000000 0.045000
0.555333 1.000000 0.041250
0.634667 1.000000 0.037500
0.714000 1.000000 0.033750
0.793333 1.000000 0.030000
0.872667 1.000000 0.026250
0.952000 1.000000 0.022500
1.000000 1.000000 0.018750
1.000000 1.000000 0.015000
1.000000 1.000000 0.011250
0.000000 1.000000 0.067500
0.000000 1.000000 0.063750
0.074667 1.000000 0.060000
0.154000 1.000000 0.056250
0.233333 1.000000 0.052500
0.312667 1.000000 0.048750
0.392000 1.000000 0.045000
0.471333 1.000000 0.041250
0.550667 1.000000 0.037500
0.630000 1.000000 0.033750
0.709333 1.000000 0.030000
0.788667 1.000000 0.026250
0.868000 1.000000 0.022500
0.947333 1.000000 0.018750
1.000000 1.000000 0.015000
1.000000 1.000000 0.011250
1.000000 1.000000 0.007500
0.016000 0.016875 0.221250
0.095333 0.012500 0.217500
0.174667 0.008125 0.213750
0.254000 0.003750 0.210000
0.333333 0.000000 0.206250
0.412667 0.000000 0.202500
0.492000 0.000000 0.198750
0.571333 0.000000 0.195000
0.650667 0.000000 0.191250
0.730000 0.000000 0.187500
0.809333 0.000000 0.183750
0.888667 0.000000 0.180000
0.938000 0.000000 0.146250
1.000000 0.000000 0.142500
1.000000 0.000000 0.138750
1.000000 0.000000 0.135000
1.000000 0.000000 0.131250
0.011333 0.091250 0.217500
0.090667 0.086875 0.213750
0.170000 0.082500 0.210000
