frontend/client/public/luts/cultural/sikh_wedding_warm.cube
TITLE "Sikh Wedding Warm Vibrant"
LUT_3D_SIZE 9
0.030000 0.030000 0.030000
0.188667 0.021250 0.022500
0.347333 0.012500 0.015000
0.506000 0.003750 0.007500
0.664667 0.000000 0.000000
0.823333 0.000000 0.000000
0.982000 0.000000 0.000000
1.000000 0.000000 0.000000
1.000000 0.000000 0.000000
0.020667 0.178750 0.022500
0.179333 0.170000 0.015000
0.338000 0.161250 0.007500
0.496667 0.152500 0.000000
0.655333 0.143750 0.000000
0.814000 0.135000 0.000000
0.972667 0.126250 0.000000
1.000000 0.087500 0.000000
1.000000 0.078750 0.000000
0.011333 0.327500 0.015000
0.170000 0.318750 0.007500
0.328667 0.310000 0.000000
0.487333 0.301250 0.000000
0.646000 0.292500 0.000000
0.804667 0.283750 0.000000
0.933333 0.245000 0.000000
1.000000 0.236250 0.000000
1.000000 0.227500 0.000000
0.002000 0.476250 0.007500
0.160667 0.467500 0.000000
0.319333 0.458750 0.000000
0.478000 0.450000 0.000000
0.636667 0.441250 0.000000
0.765333 0.402500 0.000000
0.924000 0.393750 0.000000
1.000000 0.385000 0.000000
1.000000 0.376250 0.000000
0.000000 0.625000 0.000000
0.151333 0.616250 0.000000
0.310000 0.607500 0.000000
0.468667 0.598750 0.000000
0.597333 0.560000 0.000000
0.756000 0.551250 0.000000
0.914667 0.542500 0.000000
1.000000 0.533750 0.000000
1.000000 0.525000 0.000000
0.000000 0.773750 0.000000
0.142000 0.765000 0.000000
0.300667 0.756250 0.000000
0.429333 0.717500 0.000000
0.588000 0.708750 0.000000
0.746667 0.700000 0.000000
0.905333 0.691250 0.000000
1.000000 0.682500 0.000000
1.000000 0.673750 0.000000
0.000000 0.922500 0.000000
0.132667 0.913750 0.000000
0.261333 0.875000 0.000000
0.420000 0.866250 0.000000
0.578667 0.857500 0.000000
0.737333 0.848750 0.000000
0.896000 0.840000 0.000000
1.000000 0.831250 0.000000
1.000000 0.822500 0.000000
0.000000 1.000000 0.000000
0.093333 1.000000 0.000000
0.252000 1.000000 0.000000
0.410667 1.000000 0.000000
0.569333 1.000000 0.000000
0.728000 0.997500 0.000000
0.886667 0.988750 0.000000
1.000000 0.980000 0.000000
1.000000 0.971250 0.000000
0.000000 1.000000 0.000000
0.084000 1.000000 0.000000
0.242667 1.000000 0.000000
0.401333 1.000000 0.000000
0.560000 1.000000 0.000000
0.718667 1.000000 0.000000
0.877333 1.000000 0.000000
1.000000 1.000000 0.000000
1.000000 1.000000 0.000000
0.020667 0.021250 0.157500
0.179333 0.012500 0.150000
0.338000 0.003750 0.142500
0.496667 0.000000 0.135000
0.655333 0.000000 0.127500
0.814000 0.000000 0.120000
0.972667 0.000000 0.112500
1.000000 0.000000 0.075000
1.000000 0.000000 0.067500
0.011333 0.170000 0.150000
0.170000 0.161250 0.142500
0.328667 0.152500 0.135000
0.487333 0.143750 0.127500
0.646000 0.135000 0.120000
0.804667 0.126250 0.112500
0.933333 0.087500 0.075000
1.000000 0.078750 0.067500
1.000000 0.070000 0.060000
0.002000 0.318750 0.142500
0.160667 0.310000 0.135000
0.319333 0.301250 0.127500
0.478000 0.292500 0.120000
0.636667 0.283750 0.112500
0.765333 0.245000 0.075000
0.924000 0.236250 0.067500
1.000000 0.227500 0.060000
1.000000 0.218750 0.052500
0.000000 0.467500 0.135000
0.151333 0.458750 0.127500
0.310000 0.450000 0.120000
0.468667 0.441250 0.112500
0.597333 0.402500 0.075000
0.756000 0.393750 0.067500
0.914667 0.385000 0.060000
1.000000 0.376250 0.052500
1.000000 0.367500 0.045000
0.000000 0.616250 0.127500
0.142000 0.607500 0.120000
0.300667 0.598750 0.112500
0.429333 0.560000 0.075000
0.588000 0.551250 0.067500
0.746667 0.542500 0.060000
0.905333 0.533750 0.052500
1.000000 0.525000 0.045000
1.000000 0.516250 0.037500
0.000000 0.765000 0.120000
0.132667 0.756250 0.112500
0.261333 0.717500 0.075000
0.420000 0.708750 0.067500
0.578667 0.700000 0.060000
0.737333 0.691250 0.052500
0.896000 0.682500 0.045000
1.000000 0.673750 0.037500
1.000000 0.665000 0.030000
0.000000 0.913750 0.112500
0.093333 0.875000 0.075000
0.252000 0.866250 0.067500
0.410667 0.857500 0.060000
0.569333 0.848750 0.052500
0.728000 0.840000 0.045000
0.886667 0.831250 0.037500
1.000000 0.822500 0.030000
1.000000 0.813750 0.022500
0.000000 1.000000 0.075000
0.084000 1.000000 0.067500
0.242667 1.000000 0.060000
0.401333 1.000000 0.052500
0.560000 0.997500 0.045000
0.718667 0.988750 0.037500
0.877333 0.980000 0.030000
1.000000 0.971250 0.022500
1.000000 0.962500 0.015000
0.000000 1.000000 0.067500
0.074667 1.000000 0.060000
0.233333 1.000000 0.052500
0.392000 1.000000 0.045000
0.550667 1.000000 0.037500
0.709333 1.000000 0.030000
0.868000 1.000000 0.022500
1.000000 1.000000 0.015000
1.000000 1.000000 0.007500
0.011333 0.012500 0.285000
0.170000 0.003750 0.277500
0.328667 0.000000 0.270000
0.487333 0.000000 0.262500
0.646000 0.000000 0.255000
0.804667 0.000000 0.247500
0.933333 0.000000 0.210000
1.000000 0.000000 0.202500
1.000000 0.000000 0.195000
0.002000 0.161250 0.277500
0.160667 0.152500 0.270000
0.319333 0.143750 0.262500
0.478000 0.135000 0.255000
0.636667 0.126250 0.247500
0.765333 0.087500 0.210000
0.924000 0.078750 0.202500
1.000000 0.070000 0.195000
1.000000 0.061250 0.187500
0.000000 0.310000 0.270000
0.151333 0.301250 0.262500
0.310000 0.292500 0.255000
0.468667 0.283750 0.247500
0.597333 0.245000 0.210000
0.756000 0.236250 0.202500
0.914667 0.227500 0.195000
1.000000 0.218750 0.187500
1.000000 0.210000 0.180000
0.000000 0.458750 0.262500
0.142000 0.450000 0.255000
0.300667 0.441250 0.247500
0.429333 0.402500 0.210000
0.588000 0.393750 0.202500
0.746667 0.385000 0.195000
0.905333 0.376250 0.187500
1.000000 0.367500 0.180000
1.000000 0.358750 0.172500
0.000000 0.607500 0.255000
0.132667 0.598750 0.247500
0.261333 0.560000 0.210000
0.420000 0.551250 0.202500
0.578667 0.542500 0.195000
0.737333 0.533750 0.187500
0.896000 0.525000 0.180000
1.000000 0.516250 0.172500
1.000000 0.507500 0.165000
0.000000 0.756250 0.247500
0.093333 0.717500 0.210000
0.252000 0.708750 0.202500
0.410667 0.700000 0.195000
0.569333 0.691250 0.187500
0.728000 0.682500 0.180000
0.886667 0.673750 0.172500
1.000000 0.665000 0.165000
1.000000 0.656250 0.157500
0.000000 0.875000 0.210000
0.084000 0.866250 0.202500
0.242667 0.857500 0.195000
0.401333 0.848750 0.187500
0.560000 0.840000 0.180000
0.718667 0.831250 0.172500
0.877333 0.822500 0.165000
1.000000 0.813750 0.157500
1.000000 0.805000 0.150000
0.000000 1.000000 0.202500
0.074667 1.000000 0.195000
0.233333 1.000000 0.187500
0.392000 0.997500 0.180000
0.550667 0.988750 0.172500
0.709333 0.980000 0.165000
0.868000 0.971250 0.157500
1.000000 0.962500 0.150000
1.000000 0.953750 0.142500
0.000000 1.000000 0.195000
0.065333 1.000000 0.187500
0.224000 1.000000 0.180000
0.382667 1.000000 0.172500
0.541333 1.000000 0.165000
0.700000 1.000000 0.157500
0.858667 1.000000 0.150000
1.000000 1.000000 0.142500
1.000000 1.000000 0.135000
0.002000 0.003750 0.412500
0.160667 0.000000 0.405000
0.319333 0.000000 0.397500
0.478000 0.000000 0.390000
0.636667 0.000000 0.382500
0.765333 0.000000 0.345000
0.924000 0.000000 0.337500
1.000000 0.000000 0.330000
1.000000 0.000000 0.322500
0.000000 0.152500 0.405000
0.151333 0.143750 0.397500
0.310000 0.135000 0.390000
0.468667 0.126250 0.382500
0.597333 0.087500 0.345000
0.756000 0.078750 0.337500
0.914667 0.070000 0.330000
1.000000 0.061250 0.322500
1.000000 0.052500 0.315000
0.000000 0.301250 0.397500
0.142000 0.292500 0.390000
0.300667 0.283750 0.382500
0.429333 0.245000 0.345000
0.588000 0.236250 0.337500
0.746667 0.227500 0.330000
0.905333 0.218750 0.322500
1.000000 0.210000 0.315000
1.000000 0.201250 0.307500
0.000000 0.450000 0.390000
0.132667 0.441250 0.382500
0.261333 0.402500 0.345000
0.420000 0.393750 0.337500
0.578667 0.385000 0.330000
0.737333 0.376250 0.322500
0.896000 0.367500 0.315000
1.000000 0.358750 0.307500
1.000000 0.350000 0.300000
0.000000 0.598750 0.382500
0.093333 0.560000 0.345000
0.252000 0.551250 0.337500
0.410667 0.542500 0.330000
0.569333 0.533750 0.322500
0.728000 0.525000 0.315000
0.886667 0.516250 0.307500
1.000000 0.507500 0.300000
1.000000 0.498750 0.292500
0.000000 0.717500 0.345000
0.084000 0.708750 0.337500
0.242667 0.700000 0.330000
0.401333 0.691250 0.322500
0.560000 0.682500 0.315000
0.718667 0.673750 0.307500
0.877333 0.665000 0.300000
1.000000 0.656250 0.292500
1.000000 0.647500 0.285000
0.000000 0.866250 0.337500
0.074667 0.857500 0.330000
0.233333 0.848750 0.322500
0.392000 0.840000 0.315000
0.550667 0.831250 0.307500
0.709333 0.822500 0.300000
0.868000 0.813750 0.292500
1.000000 0.805000 0.285000
1.000000 0.796250 0.277500
0.000000 1.000000 0.330000
0.065333 1.000000 0.322500
0.224000 0.997500 0.315000
0.382667 0.988750 0.307500
0.541333 0.980000 0.300000
0.700000 0.971250 0.292500
0.858667 0.962500 0.285000
1.000000 0.953750 0.277500
1.000000 0.945000 0.270000
0.000000 1.000000 0.322500
0.056000 1.000000 0.315000
0.214667 1.000000 0.307500
0.373333 1.000000 0.300000
0.532000 1.000000 0.292500
0.690667 1.000000 0.285000
0.849333 1.000000 0.277500
1.000000 1.000000 0.270000
1.000000 1.000000 0.262500
0.000000 0.000000 0.540000
0.151333 0.000000 0.532500
0.310000 0.000000 0.525000
0.468667 0.000000 0.517500
0.597333 0.000000 0.480000
0.756000 0.000000 0.472500
0.914667 0.000000 0.465000
1.000000 0.000000 0.457500
1.000000 0.000000 0.450000
0.000000 0.143750 0.532500
0.142000 0.135000 0.525000
0.300667 0.126250 0.517500
0.429333 0.087500 0.480000
0.588000 0.078750 0.472500
0.746667 0.070000 0.465000
0.905333 0.061250 0.457500
1.000000 0.052500 0.450000
1.000000 0.043750 0.442500
0.000000 0.292500 0.525000
0.132667 0.283750 0.517500
0.261333 0.245000 0.480000
0.420000 0.236250 0.472500
0.578667 0.227500 0.465000
0.737333 0.218750 0.457500
0.896000 0.210000 0.450000
1.000000 0.201250 0.442500
1.000000 0.192500 0.435000
0.000000 0.441250 0.517500
0.093333 0.402500 0.480000
0.252000 0.393750 0.472500
0.410667 0.385000 0.465000
0.569333 0.376250 0.457500
0.728000 0.367500 0.450000
0.886667 0.358750 0.442500
1.000000 0.350000 0.435000
1.000000 0.341250 0.427500
0.000000 0.560000 0.480000
0.084000 0.551250 0.472500
0.242667 0.542500 0.465000
0.401333 0.533750 0.457500
0.560000 0.525000 0.450000
0.718667 0.516250 0.442500
0.877333 0.507500 0.435000
1.000000 0.498750 0.427500
1.000000 0.490000 0.420000
0.000000 0.708750 0.472500
0.074667 0.700000 0.465000
0.233333 0.691250 0.457500
0.392000 0.682500 0.450000
0.550667 0.673750 0.442500
0.709333 0.665000 0.435000
0.868000 0.656250 0.427500
1.000000 0.647500 0.420000
1.000000 0.638750 0.412500
0.000000 0.857500 0.465000
0.065333 0.848750 0.457500
0.224000 0.840000 0.450000
0.382667 0.831250 0.442500
0.541333 0.822500 0.435000
0.700000 0.813750 0.427500
0.858667 0.805000 0.420000
1.000000 0.796250 0.412500
1.000000 0.787500 0.405000
0.000000 1.000000 0.457500
0.056000 0.997500 0.450000
0.214667 0.988750 0.442500
0.373333 0.980000 0.435000
0.532000 0.971250 0.427500
0.690667 0.962500 0.420000
0.849333 0.953750 0.412500
1.000000 0.945000 0.405000
1.000000 0.936250 0.397500
0.000000 1.000000 0.450000
0.046667 1.000000 0.442500
0.205333 1.000000 0.435000
0.364000 1.000000 0.427500
0.522667 1.000000 0.420000
0.681333 1.000000 0.412500
0.840000 1.000000 0.405000
0.998667 1.000000 0.397500
1.000000 1.000000 0.390000
0.000000 0.000000 0.667500
0.142000 0.000000 0.660000
0.300667 0.000000 0.652500
0.429333 0.000000 0.615000
0.588000 0.000000 0.607500
0.746667 0.000000 0.600000
0.905333 0.000000 0.592500
1.000000 0.000000 0.585000
1.000000 0.000000 0.577500
0.000000 0.135000 0.660000
0.132667 0.126250 0.652500
0.261333 0.087500 0.615000
0.420000 0.078750 0.607500
0.578667 0.070000 0.600000
0.737333 0.061250 0.592500
0.896000 0.052500 0.585000
1.000000 0.043750 0.577500
1.000000 0.035000 0.570000
0.000000 0.283750 0.652500
0.093333 0.245000 0.615000
0.252000 0.236250 0.607500
0.410667 0.227500 0.600000
0.569333 0.218750 0.592500
0.728000 0.210000 0.585000
0.886667 0.201250 0.577500
1.000000 0.192500 0.570000
1.000000 0.183750 0.562500
0.000000 0.402500 0.615000
0.084000 0.393750 0.607500
0.242667 0.385000 0.600000
0.401333 0.376250 0.592500
0.560000 0.367500 0.585000
0.718667 0.358750 0.577500
0.877333 0.350000 0.570000
1.000000 0.341250 0.562500
1.000000 0.332500 0.555000
0.000000 0.551250 0.607500
0.074667 0.542500 0.600000
0.233333 0.533750 0.592500
0.392000 0.525000 0.585000
0.550667 0.516250 0.577500
0.709333 0.507500 0.570000
0.868000 0.498750 0.562500
1.000000 0.490000 0.555000
1.000000 0.481250 0.547500
0.000000 0.700000 0.600000
0.065333 0.691250 0.592500
0.224000 0.682500 0.585000
0.382667 0.673750 0.577500
0.541333 0.665000 0.570000
0.700000 0.656250 0.562500
0.858667 0.647500 0.555000
1.000000 0.638750 0.547500
1.000000 0.630000 0.540000
0.000000 0.848750 0.592500
0.056000 0.840000 0.585000
0.214667 0.831250 0.577500
0.373333 0.822500 0.570000
0.532000 0.813750 0.562500
0.690667 0.805000 0.555000
0.849333 0.796250 0.547500
1.000000 0.787500 0.540000
1.000000 0.778750 0.532500
0.000000 0.997500 0.585000
0.046667 0.988750 0.577500
0.205333 0.980000 0.570000
0.364000 0.971250 0.562500
0.522667 0.962500 0.555000
0.681333 0.953750 0.547500
0.840000 0.945000 0.540000
0.998667 0.936250 0.532500
1.000000 0.927500 0.525000
0.000000 1.000000 0.577500
0.037333 1.000000 0.570000
0.196000 1.000000 0.562500
0.354667 1.000000 0.555000
0.513333 1.000000 0.547500
0.672000 1.000000 0.540000
0.830667 1.000000 0.532500
0.989333 1.000000 0.525000
1.000000 1.000000 0.517500
0.000000 0.000000 0.795000
0.132667 0.000000 0.787500
0.261333 0.000000 0.750000
0.420000 0.000000 0.742500
0.578667 0.000000 0.735000
0.737333 0.000000 0.727500
0.896000 0.000000 0.720000
1.000000 0.000000 0.712500
1.000000 0.000000 0.705000
0.000000 0.126250 0.787500
0.093333 0.087500 0.750000
0.252000 0.078750 0.742500
0.410667 0.070000 0.735000
0.569333 0.061250 0.727500
0.728000 0.052500 0.720000
0.886667 0.043750 0.712500
1.000000 0.035000 0.705000
1.000000 0.026250 0.697500
0.000000 0.245000 0.750000
0.084000 0.236250 0.742500
0.242667 0.227500 0.735000
0.401333 0.218750 0.727500
0.560000 0.210000 0.720000
0.718667 0.201250 0.712500
0.877333 0.192500 0.705000
1.000000 0.183750 0.697500
1.000000 0.175000 0.690000
0.000000 0.393750 0.742500
0.074667 0.385000 0.735000
0.233333 0.376250 0.727500
0.392000 0.367500 0.720000
0.550667 0.358750 0.712500
0.709333 0.350000 0.705000
0.868000 0.341250 0.697500
1.000000 0.332500 0.690000
1.000000 0.323750 0.682500
0.000000 0.542500 0.735000
0.065333 0.533750 0.727500
0.224000 0.525000 0.720000
0.382667 0.516250 0.712500
0.541333 0.507500 0.705000
0.700000 0.498750 0.697500
0.858667 0.490000 0.690000
1.000000 0.481250 0.682500
1.000000 0.472500 0.675000
0.000000 0.691250 0.727500
0.056000 0.682500 0.720000
0.214667 0.673750 0.712500
0.373333 0.665000 0.705000
0.532000 0.656250 0.697500
0.690667 0.647500 0.690000
0.849333 0.638750 0.682500
1.000000 0.630000 0.675000
1.000000 0.621250 0.667500
0.000000 0.840000 0.720000
0.046667 0.831250 0.712500
0.205333 0.822500 0.705000
0.364000 0.813750 0.697500
0.522667 0.805000 0.690000
0.681333 0.796250 0.682500
0.840000 0.787500 0.675000
0.998667 0.778750 0.667500
1.000000 0.770000 0.660000
0.000000 0.988750 0.712500
0.037333 0.980000 0.705000
0.196000 0.971250 0.697500
0.354667 0.962500 0.690000
0.513333 0.953750 0.682500
0.672000 0.945000 0.675000
0.830667 0.936250 0.667500
0.989333 0.927500 0.660000
1.000000 0.918750 0.652500
0.000000 1.000000 0.705000
0.028000 1.000000 0.697500
0.186667 1.000000 0.690000
0.345333 1.000000 0.682500
0.504000 1.000000 0.675000
0.662667 1.000000 0.667500
0.821333 1.000000 0.660000
0.980000 1.000000 0.652500
1.000000 1.000000 0.645000
0.000000 0.000000 0.922500
0.093333 0.000000 0.885000
0.252000 0.000000 0.877500
0.410667 0.000000 0.870000
0.569333 0.000000 0.862500
0.728000 0.000000 0.855000
0.886667 0.000000 0.847500
1.000000 0.000000 0.840000
1.000000 0.000000 0.832500
0.000000 0.087500 0.885000
0.084000 0.078750 0.877500
0.242667 0.070000 0.870000
0.401333 0.061250 0.862500
0.560000 0.052500 0.855000
0.718667 0.043750 0.847500
0.877333 0.035000 0.840000
1.000000 0.026250 0.832500
1.000000 0.017500 0.825000
0.000000 0.236250 0.877500
0.074667 0.227500 0.870000
0.233333 0.218750 0.862500
0.392000 0.210000 0.855000
0.550667 0.201250 0.847500
0.709333 0.192500 0.840000
0.868000 0.183750 0.832500
1.000000 0.175000 0.825000
1.000000 0.166250 0.817500
0.000000 0.385000 0.870000
0.065333 0.376250 0.862500
0.224000 0.367500 0.855000
0.382667 0.358750 0.847500
0.541333 0.350000 0.840000
0.700000 0.341250 0.832500
0.858667 0.332500 0.825000
1.000000 0.323750 0.817500
1.000000 0.315000 0.810000
0.000000 0.533750 0.862500
0.056000 0.525000 0.855000
0.214667 0.516250 0.847500
0.373333 0.507500 0.840000
0.532000 0.498750 0.832500
0.690667 0.490000 0.825000
0.849333 0.481250 0.817500
1.000000 0.472500 0.810000
1.000000 0.463750 0.802500
0.000000 0.682500 0.855000
0.046667 0.673750 0.847500
0.205333 0.665000 0.840000
0.364000 0.656250 0.832500
0.522667 0.647500 0.825000
0.681333 0.638750 0.817500
0.840000 0.630000 0.810000
0.998667 0.621250 0.802500
1.000000 0.612500 0.795000
0.000000 0.831250 0.847500
0.037333 0.822500 0.840000
0.196000 0.813750 0.832500
0.354667 0.805000 0.825000
0.513333 0.796250 0.817500
0.672000 0.787500 0.810000
0.830667 0.778750 0.802500
0.989333 0.770000 0.795000
1.000000 0.761250 0.787500
0.000000 0.980000 0.840000
0.028000 0.971250 0.832500
0.186667 0.962500 0.825000
0.345333 0.953750 0.817500
0.504000 0.945000 0.810000
0.662667 0.936250 0.802500
0.821333 0.927500 0.795000
0.980000 0.918750 0.787500
1.000000 0.910000 0.780000
0.000000 1.000000 0.832500
0.018667 1.000000 0.825000
0.177333 1.000000 0.817500
0.336000 1.000000 0.810000
0.494667 1.000000 0.802500
0.653333 1.000000 0.795000
0.812000 1.000000 0.787500
0.970667 1.000000 0.780000
1.000000 1.000000 0.772500
0.000000 0.000000 1.000000
0.084000 0.000000 1.000000
0.242667 0.000000 1.000000
0.401333 0.000000 0.997500
0.560000 0.000000 0.990000
0.718667 0.000000 0.982500
0.877333 0.000000 0.975000
1.000000 0.000000 0.967500
1.000000 0.000000 0.960000
0.000000 0.078750 1.000000
0.074667 0.070000 1.000000
0.233333 0.061250 0.997500
0.392000 0.052500 0.990000
0.550667 0.043750 0.982500
0.709333 0.035000 0.975000
0.868000 0.026250 0.967500
1.000000 0.017500 0.960000
1.000000 0.008750 0.952500
0.000000 0.227500 1.000000
0.065333 0.218750 0.997500
0.224000 0.210000 0.990000
0.382667 0.201250 0.982500
0.541333 0.192500 0.975000
0.700000 0.183750 0.967500
0.858667 0.175000 0.960000
1.000000 0.166250 0.952500
1.000000 0.157500 0.945000
0.000000 0.376250 0.997500
0.056000 0.367500 0.990000
0.214667 0.358750 0.982500
0.373333 0.350000 0.975000
0.532000 0.341250 0.967500
0.690667 0.332500 0.960000
0.849333 0.323750 0.952500
1.000000 0.315000 0.945000
1.000000 0.306250 0.937500
0.000000 0.525000 0.990000
0.046667 0.516250 0.982500
0.205333 0.507500 0.975000
0.364000 0.498750 0.967500
0.522667 0.490000 0.960000
0.681333 0.481250 0.952500
0.840000 0.472500 0.945000
0.998667 0.463750 0.937500
1.000000 0.455000 0.930000
0.000000 0.673750 0.982500
0.037333 0.665000 0.975000
0.196000 0.656250 0.967500
0.354667 0.647500 0.960000
0.513333 0.638750 0.952500
0.672000 0.630000 0.945000
0.830667 0.621250 0.937500
0.989333 0.612500 0.930000
1.000000 0.603750 0.922500
0.000000 0.822500 0.975000
0.028000 0.813750 0.967500
0.186667 0.805000 0.960000
0.345333 0.796250 0.952500
0.504000 0.787500 0.945000
0.662667 0.778750 0.937500
0.821333 0.770000 0.930000
0.980000 0.761250 0.922500
1.000000 0.752500 0.915000
0.000000 0.971250 0.967500
0.018667 0.962500 0.960000
0.177333 0.953750 0.952500
0.336000 0.945000 0.945000
0.494667 0.936250 0.937500
0.653333 0.927500 0.930000
0.812000 0.918750 0.922500
0.970667 0.910000 0.915000
1.000000 0.901250 0.907500
0.000000 1.000000 0.960000
0.009333 1.000000 0.952500
0.168000 1.000000 0.945000
0.326667 1.000000 0.937500
0.485333 1.000000 0.930000
0.644000 1.000000 0.922500
0.802667 1.000000 0.915000
0.961333 1.000000 0.907500
1.000000 1.000000 0.900000
